P3
200 200
255
  8   8   8     8   8   8     8   8   8     8   8   8     8   8   8     8   8   8     8   8   8     8   8   8     8   8   8     8   8   8     8   8   8     8   8   8     8   8   8     8   8   8     8   8   8     8   8   8     8   0   8     8   0   8     8   0   8     8   0   8     8   0   8     8   0   8     8   0   8     8   0   8     0   0   8     8   0   8     0   0   8     8   8   8     4   4  12    14  14  14    14  14  14    14  14  14    14  14  14    14  14  14    14   6  14    14   6  14    14   6  14    14   6  14    14  14  14    14  14  14    14  14  14    14  14  14    14  14  14    14  14  14    14  14  14    14  14  14    14  14  14    14  14  14    14  14  14    14  14  30    14  14  30    14  14  14    14  14  14    14  14  14    14  14  14    14  14  14    14  14  14    14  14  14    14  14  14    14  14  14    14  14  14    14  14  14    14  14  14    14  14  14    14  14  14    14  14  14    14  14  14    14  14  14    14  14  14    14  14  14    14  14  14    14  14  14    14  14  14    14  14  14    14  14  14    14  14  14    14  14  14    14  14  14    14  14  14    14  14  14    14  14  14    14  14  14    14  14  14    14  14  14    14  14  14    14  14  14    14   6  14    14  14  30    14   6  14    14  14  14    14  14  14    14  14  14    14  14  14    14  14  30    14  14  30    14  14  14    14  14  14    14  14  14    14  14  14    14  14  14    14  14  14    14  14  14    14  14  14    14  14  12    14  14  12    14  12  12    14  12  12    14  12  12    14  12  12    14  12  12    14  12  12    12  12  12    12  12  12    12  12  12    12  12  28    12  12  28    12  12  28    12  12  28    12  12  28    12  12  28    12  12  12    14  12  12    14  14  12    14  14  14    14  14  14    14  14  14    14  14  14    14  14  14    14  14  14    14  14  14    14  14  14    14  14  14    14  14  14    14  14  14    14  14  14    14  14  14    14  14  14    14  14  14    14  14  14    14  14  14    14  14  14    14  14  14    14  14  14    14  14  14    14  14  14    14  14  14    14  14  14    14  14  14    14  14  14    14  14  14    14  14  14    14  14  14    14  14  14    14  14  14    14  14  14    14  14  14    14  14  14    14  14  14    14  14  14    14  14  14    14  14  14    14  14  14    14  14  14    14  14  14    14  14  14    14  14  14    14  14  14    14  14  14    14  14  14    14  14  14    14  14  14    14  14  14    14  14  14    14  14  14    14  14  14    14  14  14    14  14  14    14  14  14    14  14  14    14  14  14    14  14  14    14  14  14    14  14  14    14  14  14    14  14  14    14  14  14    14  14  14    14  14  14    14  14  14    14  14  14    14  14  14    14  14  14    14  14  14    14  14  14    14  14  14    14  14  14    14  14  14    14  14  14    14  14  14     8   8   8
  0   0   0     0   0   0     0   0   0     0   0   0     0   0   0     0   0   0     0   0   0     0   0   0     0   0   0     0   0   0     0   0   0     0   0   0     0   0   0     0   0   0     0   0   0     0   0   0     0   0   0     0   0   0     0   0   0     0   0   0     0   0   0     0   0   0     0   0   0     0   0   0     0   0   0     0   8   0     8   8   0     0   0   0     0   0   0     0   0   0     0   0   0     0   0   0     0   0   0     0   0   0     0   0   0     0   0   0     0   0   0     0   0   0     0   0   0     0   0   0     0   0   0     0   8   0     0   0   0     0   0   0     0   0   0     0   0   0     0   0   0     0   0   0     0   0   0     0   0   0     0   0   0     0   0  16     0   0   0     0   0   0     0   0   0     0   0   0     0   0   0     0   0   0     0   0   0     0   0   0     0   0   0     0   0   0     0   0   0     0   0   0     0   0   0     0   0   0     0   0   0     0   0   0     0   0   0     0   0   0     0   0   0     0   0   0     0   0   0     0   0   0     0   0   0     0   0   0     0   0   0     0   0  16     0   0   0     0   0   0     0   0   0     0   0   0     0   0   0     0   0   0     0   0  16     0   0  16     0   0   0     0   0   0     0   0   0     0   0   0     0   0   0     0   0   0     0   0   0     0   0   0     0   0   0     0   0   0     0   0   0     0   0   0     0   0   0     0   0   0     0   0   0     0   0   0     0   0   0     0   0   0     0   0   0     0   0  16     0   0   0     0   0   0     0   0   0     0   0   0     0   0   0     0   0   0     0   0  16     0   0  16     0   0   0     0   0   0     0   0   0     0   0   0     0   0   0     0   0   0     0   0  16     0   0   0     0   0   0     0   0   0     0   0   0     0   0   0     0   0   0     0   0   0     0   0   0     0   0   0     0   0   0     0   0   0     0   0   0     0   0   0     0   0  16     0   0  16     0   0   0     0   0   0     0   0  16     0   0   0     0   0   0     0   0   0     0   0   0     0   0   0     0   0   0     0   0  16     0   0   0     0   0   0     0   0   0     0   0   0     0   0   0     0   0   0     0   0  16     0   0   0     0   0   0     0   0   0     0   0   0     0   0   0     0   0   0     0   0   0     0   0   0     0   0   0     0   0   0     0   0   0     0   0   0     0   0   0     0   0   0     0   0   0     0   0  16     0   0   0     0   0   0     0   0   0     0   0   0     0   0   0     0   0   0     0   0   0     0   0   0     0   0   0     0   0   0     0   0   0     0   0   0     0   0   0     0   0   0     0   0   0     0   0   0     0   0   0     0   0   0     0   0   0     0   0   0     0   0   0     0   0   0     0   0   0     0   0   0     0   0   0     0   0   0     0   0   0     0   0   0     0   0   0     0   0   0     0   0   0
  0   0   0     0   0   0     0   0   0     0   0   0     0   0   0     0   0   0     0   0   0     0   0   0     0   0   0     0   0   0     0   0   0     0   0   0     0   0   0     0   0   0     0   0   0     0   0   0     0   8   0     0   0   0     0   0   0     0   0   0     0   0   0     0   0   0     0   0   0     0   0   0     0   0   0     0   0   0     0   0   0     0   0   0     0   0   0     0   0   0     0   0   0     0   0   0     0   0   0     0   0   0     0   0   0     0   0   0     0   0   0     0   0   0     0   0   0     0   8   0     8   8   0     8   0   8     0   0   8     8   0   8     8   8   8     0   0   0     0   0   0     0   0  16     0   0   0     0   0   0     0   0  16     0   0   0     0   0   0     0   0   0     0   0   0     0   0  16     0   0  16     0   0  16     0   0   0     0   0   0     0   0   0     0   0   0     0   0   0     0   0   0     0   0   0     0   0   0     0   0   0     0   0   0     0   0   0     0   0   0     0   0   0     0   0   0     0   0   0     0   0   0     0   0   0     0   0   0     0   0   0     0   0   0     0   0   0     0   0  16     0   0  16     0   0  16     0   0   0     0   0   0     0   0   0     0   0   0     0   0   0     0   0   0     0   0   0     0   0   0     0   0   0     0   0   0     0   0   0     0   0   0     0   0   0     0   0   0     0   0  16     0   0   0     0   0   0     0   0   0     0   0   0     0   0   0     0   0   0     0   0   0     0   0   0     0   0  16     0   0   0     0   0   0     0   0   0     0   0   0     0   0  16     0   0   0     0   0  16     0   0  16     0   0   0     0   0   0     0   0   0     0   0   0     0   0   0     0   0   0     0   0  16     0   0   0     0   0   0     0   0   0     0   0   0     0   0   0     0   0   0     0   0   0     0   0   0    16   0   0     0   0   0     0   0   0     0   0   0     0   0   0     0   0   0     0   0   0     0   0  16     0   0   0     0   0   0     0   0   0     0   0   0     0   0   0     0   0   0     0   0   0     0   0   0     0   0   0     0   0   0     0   0   0     0   0   0     0   0   0     0   0   0     0   0   0     0   0   0     0   0   0     0   0   0     0   0   0     0   0   0     0   0   0     0   0   0     0   0   0     0   0   0     0   0   0     0   0   0     0   0   0     0   0   0     0   0   0     0   0   0     0   0   0     0   0  16     0   0   0     0   0   0     0   0   0     0   0   0     0   0   0     0   0   0     0   0   0     0   0   0     0   0  16     0   0   0     0   0   0     0   0   0     0   0   0     0   0   0     0   0   0     0   0   0     0   0   0     0   0   0     0   0   0     0   0   0     0   0   0     0   0   0     0   0   0     0   0   0     0   0   0     0   0   0     0   0   0     0   0   0     0   0   0     0   0   0     0   0   0
  0   0   0     0   0   0     0   0   0     0   0   0     0   0   0     0   0   0     0   0   0     0   0   0     0   0   0     0   0   0     0   0   0     0   0   0     0   0   0     0   0   0     0   8   0     0   8   0     0   0   0     0   0   0     0   0   0     0   0   0     0   0   0     0   0   0     0   8   0     0   0   0     0   8   0     0   8   0     0   0   0     0   0   0     0   0   0     0   0   0     0   0   0     0   0   0     0   0   0     0   0   0     0   0   0     0   0   0     0   0   0     0   8   0     0   8   0     0   0   0     0   0   8     0   0   0     0   0   0     0   0   0     0   0   0     8   8   8     0   0   0     0   0   0     0   0   0     0   0   0     0   0   0     0   0   0     0   0   0     0   0   0     0   0  16     0   0   0     0   0   0     0   0  16     0   0  16     0   0  16     0   0  16     0   0   0     0   0   0     0   0   0     0   0   0     0   0   0     0   0   0     0   0   0     0   0   0     0   0   0     0   0   0     0   0   0     0   0   0     0   0   0     0   0   0     0   0   0     0   0  16     0   0   0     0   0   0     0   0   0     0   0   0     0   0   0     0   0  16     0   0   0     0   0   0     0   0   0     0   0  16     0   0   0     0   0   0     0   0   0     0   0   0     0   0   0     0   0   0     0   0  16     0   0  16     0   0   0     0   0  16     0   0   0     0   0   0     0   0   0     0   0   0     0   0   0     0   0   0     0   0   0     0   0   0     0   0  16     0   0  16     0   0   0     0   0   0     0   0   0     0   0  16     0   0  16     0   0   0     0   0   0     0   0   0     0   0   0     0   0   0     0   0   0     0   0   0     0   0   0     0   0  16     0   0   0     0   0   0     0   0   0     0   0   0     0   0   0     0   0   0    16   0  16     0   0   0     0   0  16     0   0   0     0   0   0     0   0   0     0   0   0     0   0   0     0   0   0     0   0   0     0   0  16     0   0   0     0   0   0     0   0   0     0   0   0     0   0   0     0   0   0     0   0  16     0   0   0     0   0   0     0   0   0     0   0   0     0   0   0     0   0   0     0   0   0     0   0   0     0   0   0     0   0   0     0   0   0     0   0   0     0   0   0     0   0   0     0   0   0     0   0   0     0   0   0     0   0   0     0   0   0     0   0   0     0   0   0     0   0   0     0   0   0     0   0   0     0   0  16     0   0  16     0   0  16     0   0  16     0   0  16     0   0  16     0   0   0     0   0   0     0   0   0     0   0   0     0   0   0     0   0   0     0   0  16     0   0  16     0   0   0     0   0   0     0   0   0     0   0  16     0   0  16     0   0   0     0   0   0     0   0   0     0   0   0     0   0   0     0   0   0     0   0   0     0   0   0     0   0   0     0   0   0     0   0   0     0   0   0
  0   0   0     0   0   0     0   0   0     0   0   0     0   0   0     0   0   0     0   0   0     0   0   0     0   0   0     0   0   0     0   0   0     0   0   0     0   0   0     0   0   0     0   0   0     0   0   0     0   8   0     0   0   0     0   0   0     0   0   0     0   0   0     0   8   0     0   0   0     0   0   0     0   8   0     0   8   0     0   0   0     0   0   0     0   0   0     0   0   0     0   0   0     0   0   0     0   0   0     0   0   0     0   0   0     0   0   0     0   0   0     0   8   0     0   8   0     0   0   0     8   0   8     0   0   0     0   0   0     0   0   0     0   0   0     0   0   0     8   8   0     0   0   0     0   0   0     0   0  16     0   0   0     0   0   0     0   0   0     0   0   0     0   0   0     0   0   0     0   0   0     0   0   0     0   0   0     0   0   0     0   0   0     0   0   0     0   0  16     0   0   0     0   0   0     0   0   0     0   0   0     0   0   0     0   0   0     0   0  16     0   0  16     0   0   0     0   0   0     0   0  16     0   0   0     0   0   0     0   0   0     0   0   0     0   0   0     0   0   0     0   0   0     0   0   0     8   8   0     8   8   0     0   0   0     0   0   0     0   0  16     0   0  16     0   0   0     0   0   0     0   0   0     0   0   0     0   0  16     0   0   0     0   0   0     0   0   0     0   0   0     0   0   0     0   0   0     0   0   0     0   0   0     0   0   0     0   0   0     0   0   0     0   0   0     0   0   0     0   0   0     0   0  16     0   0  16     0   0  16     0   0   0     0   0   0     0   0   0     0   0   0     0   0   0     0   0   0     0   0   0     0   0   0     0   0   0     0   0   0     0   0  16     0   0   0     0   0   0     0   0   0     0   0   0     0   0   0     0   0   0     0   0  16    16   0   0     0   0   0     0   0  16     0   0   0     0   0  16     0   0   0     0   0  16     0   0  16     0   0   0     0   0   0     0   0   0     0   0   0     0   0   0     0   0   0     0   0   0     0   0   0     0   0  16     0   0   0     0   0   0     0   0   0     0   0   0     0   0   0     0   0  16     0   0   0     0   0  16     0   0   0     0   0   0     0   0   0     0   0   0     0   0   0     0   0   0     0   0   0     0   0   0     0   0   0     0   0   0     0   0   0     0   0   0     0   0   0     0   0   0     0   0  16     0   0   0     0   0  16     0   0  16     0   0  16     0   0  16     0   0  16     0   0   0     0   0   0     0   0  16     0   0   0     0   0   0     0   0   0     0   0   0     0   0  16     0   0  16     0   0   0     0   0   0     0   0   0     0   0  16     0   0  16     0   0   0     0   0   0     0   0   0     0   0   0     0   0   0     0   0   0     0   0   0     0   0   0     0   0   0     0   0   0     0   0   0     0   0   0
  0   0   0     0   0   0     0   0   0     0   0   0     0   0   0     0   0   0     0   0   0     0   0   0     0   0   0     0   0   0     0   0   0     0   0   0     0   0   0     0   0   0     0   8   0     0   8   0     0   8   0     0   0   0     0   0   0     0   0   0     0   8   0     0   0   0     0   0   0     0   0   0     0   0   0     0   0   0     0   0   0     0   0   0     0   0   0     0   0   0     0   0   0     0   0   0     0   0   0     0   0   0     0   0   0     0   0   0     0   0   0     0   8   0     0   8   0     0   8   0     0   8   0     8   0   0     0   0   8     0   0   0     0   0   0     8   0   8     0   0   0     0   0   0     0   0   0     0   0   0     0   0   0     0   0   0     0   0   0     0   0  16     0   0   0     0   0   0     0   0   0     0   0   0     0   0   0     0   0  16     0   0   0     0   0  16     0   0  16     0   0  16     0   0  16     0   0   0     0   0   0     0   0   0     0   0  16     0   0   0     0   0   0    16   0   0     0   0   0     0   0   0     0   0   0     0   0  16     0   0  16     0   0  16     0   0   0     0   0   0     0   0  32     0   0   0     0   0   0     0   0   0     8   8   0     0   0  16     0   0  16     0   0  16     0   0   0     0   0   0     0   0   0     0   0   0     0   0   0     0   0  16     0   0  16     0   0  16     0   0  16     0   0   0     0   0   0     0   0   0     0   0   0     0   0   0     0   0   0     0   0   0     0   0   0     0   0   0     0   0   0     0   0   0     0   0   0     0   0   0     0   0   0     0   0   0     0   0   0    16   0   0     0   0   0     0   0   0     0   0   0     0   0   0     0   0   0     0   0   0     0   0  16     0   0   0     0   0   0     0   0   0     0   0   0     0   0   0     0   0   0     0   0  16    16   0   0     0   0   0     0   0   0     0   0   0     0   0   0     0   0   0     0   0   0     0   0   0     0   0  16     0   0  16     0   0   0     0   0   0     0   0   0     0   0   0     0   0   0     0   0   0     0   0  16     0   0   0     0   0  16     0   0   0     0   0   0     0   0   0     0   0   0     0   0   0     0   0   0     0   0   0     0   0   0     0   0   0     0   0   0     0   0   0     0   0   0     0   0   0     0   0   0     0   0   0     0   0   0     0   0   0     0   0   0     0   0   0     0   0   0     0   0  16     0   0  16     0   0   0     0   0   0     0   0   0     0   0   0     0   0  16     0   0   0     0   0  16     0   0   0     0   0   0     0   0   0     0   0   0     0   0   0     0   0   0     0   0   0     0   0   0     0   0   0     0   0   0     0   0   0     0   0   0     0   0   0     0   0   0     0   0   0     0   0   0     0   0   0     0   0   0     0   0   0     0   0   0     0   0   0     0   0   0     0   0   0     0   0   0
  0   0   0     0   0   0     0   0   0     0   0   0     0   0   0     0   0   0     0   0   0     0   0   0     0   0   0     0   0   0     0   0   0     0   0   0     0   0   0     0   0   0     0   0   8     8   8   0     0   0   0     0   0   0     0   0   0     0   0   0     0   8   0     0   8   0     0   0   0     0   0   0     0   0   0     0   0   0     0   0   0     0   0   0     0   0   0     0   0   0     0   0   0     0   0   0     0   0   0     0   0   0     0   0   0     0   8   0     0   8   0     0   0   0     0   0   0     0   0   0     0   0   0     0   0   0     0   0   0     0   8   0     8   0   0     0   8   0     0   0   0     0   0   0     0   0   0     0   0   0     0   0   0     0   0   0     0   0  16     0   0   0     0   0   0     0   0   0     0   0   0     0   0   0     0   0  16     0   0   0     0   0   0     0   0   0     0   0  16     0   0   0     0   0   0     0   0   0     0   0   0     0   0   0     0   0  16    16   0   0     0   0   0    16   0   0     0   0   0     0   0   0     0   0   0     0   0   0     0   0   0     0   0   0     0   0   0     0   0  16     0   0  32     0   0   0     0   0   0     0   0   0     8   8  16     0   0   0     0   0  32     0   0   0     0   0   0     0   0   0     0   0  32     0   0   0     0   0   0     0   0   0     0   0   0     0   0  16     0   0  16     0   0   0     0   0   0     0   0   0     0   0  16     0   0   0     0   0   0     0   0   0     0   0   0     0   0   0     0   0   0     0   0   0     0   0   0     0   0   0     0   0   0     0   0   0     0   0  32    16   0   0     0   0   0     0   0   0     0   0   0    16   0   0     0   0   0     0   0   0     0   0  16     0   0   0     0   0   0     0   0   0     0   0   0     0   0  16     0   0  16     0   0   0    16   0   0     0   0   0    16   0  32     0   0   0     0   0   0     0   0   0     0   0   0     0   0   0    16   0   0     0   0   0     0   0  16     0   0  16     0   0  16     0   0   0     0   0   0     0   0  16     0   0  16     0   0   0     0   0   0     0   0   0     0   0   0     0   0   0     0   0   0     0   0   0     0   0   0     0   0  16     0   0   0     0   0   0     0   0   0     0   0   0     0   0   0     0   0   0     0   0   0     0   0   0     0   0   0     0   0   0     0   0   0     0   0   0     0   0  16     0   0   0     0   0  16     0   0   0     0   0   0     0   0   0     0   0   0     0   0   0     0   0   0     0   0   0     0   0   0     0   0   0     0   0   0     0   0   0     0   0   0     0   0   0     0   0   0     0   0   0     0   0   0     0   0   0     0   0   0     0   0   0     0   0   0     0   0   0     0   0   0     0   0   0     0   0   0     0   0   0     0   0   0     0   0   0     0   0   0     0   0   0     0   0   0     0   0   0
  0   0   0     0   0   0     0   0   0     0   0   0     0   0   0     0   0   0     0   0   0     0   0   0     0   0   0     0   0   0     0   0   0     0   0   0     0   0   0     0   8   0     8   0   8     8   8   0     0   0   0     0   0   0     0   0   0     0   0   0     0   0   0     0   0   0     0   0   0     0   0   0     0   0   0     0   0   0     0   0   0     0   0   0     0   0   0     0   0   0     0   0   0     0   0   0     0   0   0     0   0   0     0   8   0     0   0   0     0   0   0     0   0   0     0   0   0     0   0   0     0   0   0     0   0   0     0   0   0     0   0   0     0   0   0     0   0   0     0   0   0     0   0   0     0   0   0     0   0   0     0   0   0     0   0   0     0   0   0     0   0   0     0   0   0     0   0   0     0   0   0     0   0  16     0   0   0     0   0   0     0   0   0     0   0   0     0   0   0     0   0   0     0   0   0     0   0   0     0   0  16     0   0  16     0   0   0    16   0   0     0  16   0     0   0   0     0   0   0     0   0   0     0   0   0     0   0   0     0   0  16     0   0  16     0   8   0     8   8   0     8   0  16     0   8   0     0   0   0     0   0   0     0   8   0     0   0   0     0  16  96     0   0   0     0  16  96     0   0   0     0  16   0     0   0  32     0   0   0     8   0  16     8   0  16     0   8   0     0   8   0     0   0   0     8   0   0     8   0   0     0   0  16     0   0   0     0   0   0     8   0  16     8   0   0     0   8   0     8   8   0     8   8  16     8   8  24     8   8  24     8   8  16     0   0   0     0   0  32     0   0   0    16   0   0     0   0   0    16   0   0     0   0   0     0   0   0     0   0   0     0   0   0     0   0  16     0   0  16     0   0   0    16   0   0     0   0  16     0   0   0     0   0  16    16   0   0    16   0  32     0   0   0     0   0   0     0   0   0     0   0   0     0   0   0     0   0   0     0   0   0     0   0   0     0   0   0     0   0   0     0   0   0     0   0   0     0   0  16     0   0   0     0   0   0     0   0   0     0   0   0     0   0  16     0   0   0     0   0   0     0   0   0     0   0   0     0   0   0     0   0   0     0   0  16     0   0   0     0   0   0     0   0   0     0   0   0     0   0   0     0   0   0     0   0   0     0   0   0     0   0   0     0   0   0     0   0   0     0   0   0     0   0   0     0   0   0     0   0   0     0   0   0     0   0   0     0   0   0     0   0   0     0   0  16     0   0   0     0   0   0     0   0   0     0   0   0     0   0   0     0   0   0     0   0   0     0   0   0     0   0   0     0   0   0     0   0   0     0   0   0     0   0   0     0   0   0     0   0   0     0   0   0     0   0   0     0   0   0     0   0   0     0   0   0     0   0   0     0   0   0     0   0   0     0   0   0     0   0   0
  0   0   0     0   0   0     0   0   0     0   0   0     0   0   0     0   0   0     0   0   0     0   0   0     0   0   0     0   0   0     0   0   0     0   0   0     0   0   0     0   8   0     8   8   8     0   0   0     0   0   0     0   0   0     0   0   0     0   8   0     0   0   0     0   0   0     0   8   0     0   0   0     0   0   0     0   0   0     0   0   0     0   0   0     0   0   0     0   0   0     0   0   0     0   0   0     0   0   0     0   0   0     0   0   0     8   0   0     8   0   0     0   8   0     0   0   0     0   0   0     0   0   0     0   0   0     0   0   0     0   0   0     0   0   0     0   0   0     0   0   0     0   0   0     0   0   0     0   0   0     0   0   0     0   0   0     0   0   0     0   0   0     0   0   0     0   0   0     0   0   0     0   0  16     0   0   0     0   0   0     0   0   0     0   0   0     0   0  16     0   0  16     0   0  16     0   0   0     0   0   0     0   0  16     0   0  16     0   0   0    16  16   0     0   0   0     0   0   0     0   0   0     0   0   0     0   0   0     0   0   0     0   8   0     8   0   8     0   0   8     0   0   8     8   8  16     0   0   0     0   8   0     0   0   0     8   0  16     0   0   0     0   0   0     0   0   8     0   0   8     0   0   8     4   4   8     4   4   8     4   4   8     0   0   8     0   0   8     0   0   8     4   4   8     0   0   0     4   4   0     4   0   0     0   0   0     0   8   8     0   8   8     0   0   8     4   4  12     4   4   4     4   4   4     0   4   4     4   4   0     0   4   0     4   0   0     0   0   0     0   0  16     0   0  16     0   0  16     0   0  16     0   0   0     0   0   0     0   0   0     0   0   0     0   0   0     0   0   0     0   0   0     0   0   0     0   0   0     0   0   0     0   0   0     0   0   0     0   0   0     0   0  32     0   0  32     0   0   0     0   0   0     0   0   0    16   0   0     0   0   0     0   0   0     0   0   0     0   0   0     0   0   0     0   0   0     0   0   0     0   0   0     0   0  16     0   0   0     0   0  16     0   0  16     0   0   0     0   0  16     0   0   0     0   0  16     0   0   0     0   0   0     0   0   0     0   0  16     0   0   0     0   0   0     0   0   0     0   0   0     0   0  16     0   0   0     0   0   0     0   0   0     0   0   0     0   0  16     0   0  16     0   0  16     0   0  16     0   0   0     0   0   0     0   0  16     0   0   0     0   0   0     0   0   0     0   0   0     0   0   0     0   0   0     0   0   0     0   0   0     0   0  16     0   0  16     0   0  16     0   0   0     0   0   0     0   0   0     0   0   0     0   0   0     0   0   0     0   0   0     0   0   0     0   0   0     0   0   0     0   0   0     0   0   0     0   0   0     0   0   0     0   0   0     0   0   0     0   0   0
  0   0   0     0   0   0     0   0   0     0   0   0     0   0   0     0   0   0     0   0   0     0   0   0     0   0   0     0   0   0     0   0   0     0   0   0     0   0   0     0   0   0     0   0   0     0   0   0     0   0   0     0   0   0     0   8   0     0   0   0     0   0   0     0   0   0     0   8   0     0   0   0     0   0   0     0   0   0     0   0   0     0   0   0     0   0   0     0   0   0     0   0   0     0   0   0     0   0   0     0   0   0     0   8   0     0   0   0     0   0   0     8   8   0     0   0   0     0   0   0     0   0   0     0   0   0     0   0   0     0   0   0     0   0   0     0   0   0     0   0   0     0   0   0     0   0   0     0   0   0     0   0   0     0   0   0     0   0   0     0   0  16     0   0  16     0   0   0     0   0   0     0   0  16     0   0   0     0   0   0     0   0   0     0   0   0     0   0  16     0   0   0     0   0   0     0   0   0     0   0   0     0   0   0     0   0   0     0   0   0     0   0   0     0   0   0     0   0   0     0   0   0     0   0   0     0   0   0     0   0   0     0   0  16     0   0   8     0   0   0     0   0   0     0   8   8     0   0   0     0   8   0     0   0   0     0   8   8     0   0   0     4   4   0     4   4   0     4   4   0     0   0   0     4   4   0     4   4   8     4   4   8     0   0   0     4   4   0     4   4   0     0   4   0     0   4   0     4   4   0     4   0   0     4   0   0     4   4   0     0   0   0     0   4   4     0   4   4     4   4   4     4   4   4     0   4   4     0   4   0     0   0   0     0   0   0     0   0   0     0   4   0     0   0   8     0   8   8     0   0   8     0   8   8     0   0   8     8   8  16     8   8  16     8   0  16     0   0   0     0   0   0     0   0   0     0   0   0     0   0   0     0   0   0     0   0  32     0   0  32     0   0   0     0   0   0     0   0   0     0   0   0     0   0   0     0   0   0     0   0   0     0   0   0     0   0   0     0   0   0     0   0   0     0   0   0     0   0   0     0   0   0     0   0  16     0   0  16     0   0  16     0   0   0     0   0   0     0   0   0     0   0   0     0   0  16     0   0   0     0   0   0     0   0   0     0   0   0     0   0  16     0   0   0     0   0   0     0   0   0     0   0   0     0   0  16     0   0   0     0   0   0     0   0   0     0   0   0     0   0  16     0   0   0     0   0  16     0   0   0     0   0  16     0   0   0     0   0   0     0   0   0     0   0   0     0   0   0     0   0   0     0   0   0     0   0  16     0   0   0     0   0   0     0   0   0     0   0   0     0   0   0     0   0   0     0   0   0     0   0   0     0   0   0     0   0   0     0   0   0     0   0  16     0   0  16     0   0   0     0   0   0     0   0   0     0   0   0     0   0   0     0   0   0     0   0   0     0   0   0
  0   0   0     0   0   0     0   0   0     0   0   0     0   0   0     0   0   0     0   0   0     0   0   0     0   0   0     0   0   0     0   0   0     0   0   0     0   0   0     0   0   0     0   0   0     0   0   0     0   0   0     0   0   0     0   8   0     0   0   0     0   8   0     0   0   0     0   0   0     0   0   0     0   0   0     0   0   0     0   0   0     0   0   0     0   0   0     0   0   0     0   0   0     0   0   0     0   0   0     0   0   0     0   8   0     8   0   0     8   0   0     0   8   0     0   0   0     0   0   0     0   0   0     0   0   0     0   0   0     0   0   0     0   0   0     0   0   0     0   0   0     0   0   0     0   0   0     0   0   0     0   0   0     0   0   0     0   0   0     0   0   0     0   0  16     0   0   0     0   0   0     0   0   0     0   0  16     0   0  16     0   0   0     0   0   0     0   0   0     0   0  16     0   0   0     0   0   0     0   0  16     0   0  16     0   0  16     0   0   0     0   0   0     0   0   0     0   0   0     0   0   0     0   0   0     0   0   0     0   0  16     0   0   0     0   0   0     0   0   8     0   0   0     0   0   0     0   0   0     0   0   0     0   0   0     4   0   0     0   4   0     0   0   0     0   4   0     0   4   0     0   0   0     4   4   0     4   4   0     0   0   0     0   0   0     0   0   0     0   4   0     0   0   0     0   4   0     0   0   8     0   0   0     4   4   0     0   0   4     0   0   4     0   0   0     0   0   4     0   4   4     0   4   4     0   4   4     0   0   0     0   0   0     0   0   0     0   4   0     4   4   8     0   0   8     0   0   8     0   0   8     0   0   8     0   0   8     0   0   8     0   0   0     0   0   8     0   0   0     0   8   0     8   8   0     8   8   0     8   8  16     8   8  16     8   0  16     0   0   0     0   0  32     0   0   0     0   0  32     0   0  32     0   0  32     0   0   0     0   0   0     0   0   0     0   0   0     0   0   0     0   0   0     0   0   0     0   0   0     0   0   0     0   0   0     0   0  16     0   0   0     0   0   0     0   0   0     0   0   0     0   0   0     0   0   0     0   0   0     0   0   0     0   0   0     0   0   0     0   0  16     0   0   0     0   0   0     0   0   0     0   0   0     0   0  16     0   0   0     0   0   0     0   0   0     0   0   0     0   0   0     0   0   0     0   0   0     0   0   0     0   0   0     0   0   0     0   0   0     0   0   0     0   0   0     0   0   0     0   0   0     0   0  16     0   0  16     0   0  16     0   0   0     0   0   0     0   0   0     0   0   0     0   0   0     0   0   0     0   0   0     0   0   0     0   0   0     0   0   0     0   0   0     0   0   0     0   0   0     0   0   0     0   0   0     0   0   0     0   0   0     0   0   0     0   0   0     0   0   0
  0   0   0     0   0   0     0   0   0     0   0   0     0   0   0     0   0   0     0   0   0     0   0   0     0   0   0     0   0   0     0   0   0     0   0   0     0   0   0     0   0   0     0   0   0     0   0   0     0   0   0     0   0   0     0   0   0     0   8   0     0   0   0     0   0   0     0   0   0     0   0   0     0   0   0     0   0   0     0   0   0     0   0   0     0   0   0     0   0   0     0   0   0     0   8   0     0   8   0     0   8   0     0   0   0     0   0   0     0   0   0     0   0   0     0   0   0     0   0   0     0   0   0     0   0   0     0   0   0     0   0   0     0   0   0     0   0   0     0   0   0     0   0   0     0   0   0     0   0   0     0   0   0     0   0   0     0   0   0     0   0   0     0   0   0     0   0   0     0   0   0     0   0   0     0   0   0     0   0   0     0   0   0     0   0   0     0   0   0     0   0   0     0   0   0     0   0   0     0   0   0     0   0  16     0   0   0     0   0   0     0   0  16     0   0  16     0   0   0     0   0  16     0   0  16     0   0   0     8   8   0     8   8   0     0   0   0     8   8  16     0   0   0     4   0   0     0   4   0     4   0   0     4   0   0     4   0   0     0   4   0     0   0   0     0   0   0     0   0   8     0   0   0     0   0   8     0   0   8     0   0   0     4   4   0     4   4   0     0   0   0     4   0   8     0   0   0     0   0   0     0   0   8     0   0   0     0   0   4     0   0   4     0   4   0     0   0   0     0   0   0     0   4   0     0   0   0     0   0   0     0   0   0     0   4   0     4   4   0     4   4   8     0   0   8     0   0   0     0   0   0     4   0   0     0   0   0     0   0   0     4   0   0     0   0   8     0   0   8     0   0   0     0   0   0     0   0   0     8   8  48     8   8 112     8   0  16     8   0   0     0   0   0     0   0   0     0   0   0     0   0   0     0   0   0     0   0   0     0   0   0     0   0   0    16   0   0     0   0   0     0   0   0     0   0  16     0   0   0     0   0   0     0   0  16     0   0   0     0   0   0     0   0   0     0   0   0     0   0   0     0   0   0     0   0   0     0   0   0     0   0  16     0   0   0     0   0   0     0   0  16     0   0   0     0   0   0     0   0   0     0   0   0     0   0  16     0   0   0     0   0   0     0   0   0     0   0   0     0   0  16     0   0   0     0   0   0     0   0  16     0   0   0     0   0   0     0   0   0     0   0   0     0   0   0     0   0  16     0   0  16     0   0   0     0   0  16     0   0   0     0   0   0     0   0   0     0   0   0     0   0   0     0   0  16     0   0   0     0   0   0     0   0   0     0   0  16     0   0   0     0   0  16     0   0  16     0   0   0     0   0   0     0   0   0     0   0   0     0   0   0     0   0   0     0   0   0     0   0   0
  0   0   0     0   0   0     0   0   0     0   0   0     0   0   0     0   0   0     0   0   0     0   0   0     0   8   0     0   8   0     0   8   0     0   0   0     0   0   0     0   0   0     0   0   0     0   0   0     0   0   0     0   0   0     0   0   0     0   0   0     0   0   0     0   0   0     0   0   0     0   0   0     0   0   0     0   0   0     0   0   0     0   0   0     0   0   0     0   0   0     0   8   0     8   0   0     0   0   0     8   0   0     0   0   0     0   0   0     0   0   0     0   0   0     0   0   0     0   8   0     0   0   0     0   0   0     0   0   0     0   0   0     0   0   0     0   0   0     0   0   0     0   0   0     0   0   0     0   0   0     0   0   0     0   0   0     0   0   0     0   0  16     0   0   0     0   0   0     0   0   0     0   0   0     0   0   0     0   0   0     0   0   0     0   0   0     0   0   0     0   0   0     0   0   0     0   0  16     0   0   0     0   0  16     0   0   0     0   0  16     0   0   0     0   0  16     8   8   0     8   8   0     8   8   0     8   8   0     8   8   0     0   0   0     0   0   0     0   0   0     4   0   0     0   4   0     0   0   4     0   0   4     0   4   0     0   0   0     0   4   0     0   4   0     0   0   0     0   0   0     0   8  16     0   8  16     4   0   8     0   4   0     4   4   0     4   0   8     0   0   8     0   0   0     4   0   8     0   0   0     0   4   4     0   0   4     0   0   4     0   0   4     0   0   4     0   0   4     0   0   0     0   0   4     0   0   0     0   0   0     0   4   0     0   4   0     4   4   0     4   4   8     4   4   8     0   4   0     0   0   0     0   0   0     0   0   0     0   0   0     0   4   0     0   4   0     4   4   0     4   4   0     4   4   0     4   0   8     0   0   8     0   0   0     0   0   0     0   0   0     0   0   0     8   0  16     0   0   0     0   0   0     0   0   0     0   0   0     0   0   0     0   0   0     0   0   0     0   0   0     0   0   0     0   0  16     0   0   0     0   0  16     0   0   0     0   0   0     0   0   0     0   0   0     0   0   0     0   0   0     0   0   0     0   0   0     0   0   0     0   0   0     0   0   0     0   0   0     0   0  16     0   0   0     0   0   0     0   0  16     0   0   0     0   0   0     0   0   0     0   0   0     0   0  16     0   0   0     0   0   0     0   0   0     0   0   0     0   0   0     0   0   0     0   0   0     0   0   0     0   0   0     0   0   0     0   0   0     0   0   0     0   0   0     0   0  16     0   0   0     0   0   0     0   0   0     0   0   0     0   0   0     0   0   0     0   0  16     0   0   0     0   0   0     0   0   0     0   0   0     0   0   0     0   0   0     0   0   0     0   0   0     0   0   0     0   0   0     0   0   0     0   0   0     0   0   0     0   0   0
  0   0   0     0   0   0     0   0   0     0   0   0     0   0   0     0   0   0     0   0   0     0   0   0     0   8   0     0   8   0     0   8   0     0   0   0     0   0   0     0   0   0     0   0   0     0   0   0     0   0   0     0   0   0     0   0   0     0   0   0     0   0   0     0   0   0     0   0   0     0   0   0     0   0   0     0   0   0     0   0   0     0   0   0     0   0   0     0   0   0     0   0   0     8   0   0     0   0   0     0   0   0     8   0   0     0   0   0     0   0   0     0   0   0     0   0   0     0   8   0     0   0   0     0   0   0     0   0   0     0   0   0     0   0   0     0   0   0     0   0   0     0   0   0     0   0   0     0   0   0     0   0   0     0   0   0     0   0   0     0   0   0     0   0   0     0   0   0     0   0   0     0   0   0     0   0   0     0   0   0     0   0   0     0   0   0     0   0   0     0   0   0     0   0   0     0   0   0     0   0  16     0   0  16     0   0   0     8   0   0     8   0   0     8   0   0     0   0   0     0   0   0     0   8   0     0   0   0     0   0   0     0   0   0     0   0   8     0   0   0     4   0   0     0   4   4     0   0   4     0   0   0     0   0   4     0   4   0     0   0   0     4   0   8     0   0   0     0   8  16     0   8  16     4   0   0     4   0   0     0   0   0     4   0   0     0   0   8     0   0   8     4   4   8     0   0   0     0   0   4     0   0   4     0   0   0     0   0   0     0   0   0     0   4   4     0   4   4     0   0   4     0   0   4     0   0   0     4   4   8     4   4   8     4   4   8     4   4   8     4   4   8     4   4   8     4   4   8     0   4   0     0   0   0     0   0   0     0   4   0     0   4   0     0   4   0     0   4   0     0   4   0     0   4   0     0   4   0     0   0   0     0   4   4     4   4   4     4   0   8     0   0   0     0   8   0     8   0  16     0   0   0     0   0   0     0   0   0     0   0   0     0   0   0     0   0   0     0   0   0     0   0   0     0   0   0     0   0  16     0   0   0     0   0   0     0   0   0     0   0   0     0   0   0     0   0   0     0   0   0     0   0   0     0   0   0     0   0   0     0   0   0     0   0   0     0   0  16     0   0   0     0   0   0     0   0   0     0   0  16     0   0   0     0   0   0     0   0   0     0   0   0     0   0  16     0   0   0     0   0   0     0   0   0     0   0   0     0   0   0     0   0   0     0   0   0     0   0   0     0   0   0     0   0   0     0   0  16     0   0   0     0   0   0     0   0  16     0   0   0     0   0   0     0   0   0     0   0   0     0   0   0     0   0   0     0   0   0     0   0  16     0   0   0     0   0   0     0   0   0     0   0   0     0   0   0     0   0   0     0   0   0     0   0   0     0   0   0     0   0   0     0   0   0     0   0   0     0   0   0
  0   0   0     0   0   0     0   0   0     0   0   0     0   0   0     0   0   0     0   0   0     0   0   0     0   8   0     0   8   0     0   8   0     0   0   0     0   0   0     0   0   0     0   0   0     0   0   0     0   0   0     0   0   0     0   0   0     0   0   0     0   0   0     0   0   0     0   0   0     0   0   0     0   0   0     0   0   0     0   0   0     0   0   0     0   0   0     0   0   0     8   0   0     0   0   0     0   0   8     0   0   0     0   0   0     8   0   0     0   0   0     0   0   0     0   0   0     0   0   0     0   0   0     0   0   0     0   0   0     0   0   0     0   0   0     0   0   0     0   0   0     0   0   0     0   0   0     0   0   0     0   0   0     0   0  16     0   0   0     0   0   0     0   0   0     0   0   0     0   0   0     0   0   0    16   0   0     0   0   0     0   0   0     0   0   0     0   0   0     0   0   0     0   0   0     0   0   0     8   8   0     0   0   8     0   0   8     0   0   8     0   0   8     0   0   0     0   0   8     0   0   0     0   0   0     0   0   0     0   0   0     0   0   8     4   4   0     0   4   4     4   0   0     0   4   0     0   0   4     0   0   4     0   0   4     0   0   0     4   4   0     0   4   0     0   0   0     0   0   0     4   0   8     4   4   0     4   0   8     0   0   0     0   0   0     0   0   0     4   0   8     0   4   0     0   0   4     0   0   0     0   0   0     0   0   4     0   0   0     0   0   0     0   0   4     0   4   4     0   4   4     0   4   0     0   4   0     0   4   0     0   4   0     0   4   0     0   4   0     0   4   8     4   4   8     4   4   8     4   4   8     4   4   8     4   4   8     0   4   0     0   4   8     0   4   0     0   4   0     0   4   0     0   0   0     0   4   0     0   4   0     4   4   4     4   4   4     4   4   0     4   4   0     0   4   0     4   4   8     0   8   0     0   0  16     0   0   0     0   0   0     0   0   0     0   0   0     0   0   0     0   0   0     0   0   0     0   0   0     0   0   0     0   0  16     0   0   0     0   0   0     0   0  16     0   0   0     0   0   0     0   0   0     0   0   0     0   0   0     0   0   0     0   0   0     0   0   0     0   0   0     0   0   0     0   0   0     0   0   0     0   0   0     0   0   0     0   0   0     0   0   0     0   0  16     0   0   0     0   0   0     0   0   0     0   0   0     0   0   0     0   0   0     0   0   0     0   0   0     0   0   0     0   0   0     0   0  16     0   0   0     0   0   0     0   0  16     0   0   0     0   0   0     0   0   0     0   0   0     0   0   0     0   0   0     0   0   0     0   0   0     0   0   0     0   0   0     0   0   0     0   0   0     0   0   0     0   0   0     0   0   0     0   0   0     0   0   0     0   0   0     0   0   0     0   0   0     0   0   0
  0   0   0     0   0   0     0   0   0     0   0   0     0   0   0     0   0   0     0   0   0     0   0   0     0   8   0     0   8   0     0   0   0     0   0   0     0   0   0     0   0   0     0   0   0     0   0   0     0   0   0     0   0   0     0   0   0     0   0   0     0   0   0     0   0   0     0   0   0     0   0   0     0   8   0     0   8   0     8   8   0     8   8   0     8   8   0     0   0   0     8   0   0     0   0   0     0   0   0     0   0   0     0   0   0     8   0   0     0   8   0     0   8   0     8   0   0     0   8   0     0   0   0     0   0   0     0   0   0     0   0   0     0   0   0     0   0   0     0   0   0     0   0   0     0   0   0     0   0   0     0   0   0     0   0   0     0   0  16     0   0   0     0   0   0     0   0   0     0   0   0     0   0   0     0   0   0     0  16   0     0   0   0     0   0   0     0   0   0     8   8  16     0   0   8     0   0   8     0   0   8     0   0   8     0   0   8     0   0   8     0   0   8     0   0   8     0   0   8     0   0   0     0   0   0     0   0   0     4   4   0     0   0   0     0   0   0     0   4   4     4   0   0     4   0   0     4   4   0     0   4   0     0   0   0     0   0   0     0   0   0     0   0   0     0   0   0     0   0   0     0   4   0     0   4   0     4   0   0     0   0   0     0   0   0     0   0   0     0   0   0     0   0   0     0   0   0     0   0   0     0   0   0     0   0   4     0   0   4     0   0   0     0   0   0     0   4   0     0   4   0     0   4   0     0   4   0     0   4   0     0   4   0     0   4   0     0   0   0     0   0   8     4   0   8     4   0   8     0   0   0     0   0   0     0   0   0     0   0   0     4   0   8     4   0   8     4   0   8     0   0   0     0   0   0     0   4   0     0   0   0     0   4   4     0   4   4     0   4   0     4   4   0     4   4   8     4   4   8     4   4   8     0   0   0     0   0   8     8   0   0     0   0   0     0   0   0     0   0   0     0   0   0     0   0   0     0   0   0     0   0   0     0   0  16     0   0   0     0   0   0     0   0   0     0   0   0     0   0   0     0   0   0     0   0   0     0   0   0     0   0   0     0   0   0     0   0   0     0   0   0     0   0   0     0   0   0     0   0   0     0   0  16     0   0  16     0   0  16     0   0   0     0   0  16     0   0  16     0   0  16     0   0   0     0   0   0     0   0   0     0   0   0     0   0   0     0   0   0     0   0   0     0   0   0     0   0   0     0   0  16     0   0  16     0   0   0     0   0   0     0   0   0     0   0   0     0   0   0     0   0   0     0   0   0     0   0   0     0   0   0     0   0   0     0   0   0     0   0   0     0   0   0     0   0   0     0   0   0     0   0   0     0   0   0     0   0   0     0   0   0     0   0   0     0   0   0     0   0   0
  0   0   0     0   0   0     0   0   0     0   0   0     0   0   0     0   0   0     0   0   0     0   0   0     0   0   0     0   0   0     0   0   0     0   0   0     0   0   0     0   0   0     0   0   0     0   0   0     0   0   0     0   0   0     0   0   0     0   0   0     0   0   0     0   0   0     0   0   0     0   0   0     0   0   0     8   0   0     8   0   0     8   0   0     8   0   0     0   0   0     0   0   0     0   0   0     0   0   0     0   0   0     0   0   0     8   8   0     0   0   0     0   0   0     8   0   0     0   8   0     0   8   0     0   0   0     0   0   0     0   0   0     0   0   0     0   0   0     0   0   0     0   0   0     0   0   0     0   0   0     0   0   0     0   0  16     0   0   0     0   0   0     0   0   0     0   0   0     0   0  32     8   0   0     8   0   0     8   0  32     8   8  16     4   4   8     4   4   4     2   4   4     4   4   4     0   4   4     4   4   0     4   4   0     0   0   0     0   0   0     0   0   8     0   8  24     0   0   0     0   8  16     0   8   0     0   0   0     4   4   8     0   0   0     0   0   0     0   0   0     4   0   8     0   0   0     0   0   0     0   4   0     0   0   0     0   0   0     0   0   4     0   0   4     0   4   0     4   0   0     4   4   0     4   4   0     0   0   0     0   0   0     4   0   8     0   4   4     0   0   0     2   0   0     0   0   0     0   0   0     0   0   0     0   0   4     0   0   4     0   0   0     0   0   0     0   0   4     0   0   0     0   0   0     0   0   4     0   0   4     0   0   0     0   0   4     0   0   0     0   4   0     0   0   0     0   0   0     4   0   8     0   0   0     0   0   0     0   0   0     0   0   8     0   0   8     0   0   8     0   0   0     0   0   0     4   0   8     0   0   8     0   0   8     0   0   0     0   0   8     4   0   8     0   4   8     0   0   0     0   4   0     0   4   0     4   0   0     4   0   0     0   0   0     8   0  16     0   0   0     0   0   0     0   0   0     0  16   0     0   0   0    16   0  16    16   0   0     0   0   0     0   0   0     0   0  16     0   0   0     0   0   0     0   0   0     0   0   0     0   0   0     0   0   0     0   0   0     0   0   0     0   0   0     0   0   0     0   0   0     0   0   0     0   0   0     0   0   0     0   0   0     0   0   0     0   0   0     0   0  16     0   0  16     0   0  16     0   0   0     0   0   0     0   0   0     0   0   0     0   0   0     0   0   0     0   0   0     0   0   0     0   0   0     0   0   0     0   0   0     0   0   0     0   0   0     0   0   0     0   0   0     0   0   0     0   0   0     0   0  16     0   0   0     0   0   0     0   0   0     0   0   0     0   0   0     0   0   0     0   0   0     0   0   0     0   0   0     0   0   0     0   0   0     0   0   0     0   0   0
  0   0   0     0   0   0     0   0   0     0   0   0     0   0   0     0   0   0     0   0   0     0   0   0     0   0   0     0   0   0     0   0   0     0   0   0     0   0   0     0   0   0     0   0   0     0   0   0     0   0   0     0   0   0     0   0   0     0   0   0     0   0   0     0   0   0     0   0   0     0   0   0     0   8   0     0   0   0     0   0   0     0   0   0     0   0   0     0   0   0     0   0   0     0   0   0     0   0   0     0   0   0     0   0   0     8   0   0     0   0   0     0   0   0     0   0   0     0   0   0     0   0   0     0   0   0     0   0   0     0   0   0     0   0   0     0   0   0     0   0   0     0   0   0     0   0   0     0   0   0     0   0   0     0   0   0     0   0  16     0   0   0     0   0  32     0   0   0     8   0   0     0   0   0     0   0   0     0   0   4     0   0   0     0   0   0     2   0   0     0   0   0     0   0   0     0   0   0     2   0   0     2   0   0     2   0   4     0   0   4     4   4   8     0   0   0     0   0   0     0   0   0     0   0   0     0   8  16     0   0   0     0   0   0     0   0   0     0   4   0     0   0   0     0   0   8     0   0   0     0   0   0     0   0   0     0   0   0     0   0   0     0   0   0     0   4   0     0   0   0     4   0   8     0   0   8     0   0   0     4   0   8     0   0   4     0   0   0     0   0   0     2   0   0     0   0   0     0   0   0     0   4   4     0   4   4     0   0   0     0   0   0     0   0   0     0   0   0     0   0   0     0   0   0     0   0   0     0   0   0     0   0   0     0   0   4     0   0   0     0   4   0     0   0   0     0   0   0     4   0   8     0   0   8     0   0   0     0   0   0     0   0   8     0   0   8     0   0   8     0   0   0     0   0   0     4   0   0     0   0   8     0   0   8     0   0   0     0   0   0     0   0   0     0   0   0     0   0   0     0   0   0     0   4   0     0   4   0     0   0   0     0   4   0     4   4   0     0   0   8     0   0   0     0   0  16     0   0   0     0   0   0    16   0   0    16   0   0     0   0   0     0   0   0     0   0  16     0   0   0     0   0   0     0   0   0     0   0   0     0   0   0     0   0   0     0   0   0     0   0   0     0   0   0     0   0   0     0   0   0     0   0   0     0   0   0     0   0   0     0   0   0     0   0   0     0   0   0     0   0   0     0   0  16     0   0   0     0   0   0     0   0  16     0   0   0     0   0   0     0   0   0     0   0   0     0   0   0     0   0   0     0   0   0     0   0   0     0   0   0     0   0   0     0   0   0     0   0   0     0   0   0     0   0   0     0   0   0     0   0   0     0   0   0     0   0   0     0   0   0     0   0   0     0   0   0     0   0   0     0   0   0     0   0  16     0   0   0     0   0   0     0   0   0     0   0   0     0   0   0
  0   0   0     0   0   0     0   0   0     0   0   0     0   0   0     0   0   0     0   0   0     0   0   0     0   0   0     0   0   0     0   0   0     0   0   0     0   0   0     0   0   0     0   0   0     0   0   0     0   0   0     0   0   0     0   0   0     0   0   0     0   0   0     0   0   0     0   0   0     0   0   0     0   0   0     8   0   0     8   0   0     0   0   0     8   0   0     0   0   0     0   0   0     0   0   0     0   0   0     0   0   0     0   0   0     0   0   0     0   0   0     0   0   0     0   0   0     0   0   0     0   0   0     0   0   0     0   0   0     0   0   0     0   0   0     0   0   0     0   0   0     0   0   0     0   0   0     0   0   0     0   0   0     0   0   0     0   0   0     8   0   0     8   0   0     0   0   0     0   8  16     0   4   4     0   0   0     2   0   0     0   0   0     0   0   0     2   0   0     0   0   0     0   0   0     2   0   0     2   0   0     0   2   0     0   2   0     2   0   0     0   0   4     0   4   0     4   0   8     0   0   0     0   0   0     0   0   0     0   4   0     0   0   0     0   0   0     4   4   8     0   0   0     0   0   0     0   0   0     0   4   0     0   0   0     0   0   0     0   0   0     0   0   0     0   4   4     4   0   0     0   0   0     0   0   0     0   8  24     0   4   4     0   0   0     0   0   0     0   0   0     0   0   0     4   0   8     0   0   8     0   0   8     4   4   0     0   0   4     0   0   0     0   0   0     0   0   0     0   0   0     0   0   0     0   0   0     0   0   0     0   0   4     0   0   4     0   4   0     0   0   0     4   0   0     4   0   8     0   0   0     0   0   0     0   0   0     0   0   0     0   0   0     0   0   0     0   0   0     0   0   0     0   0   0     0   0   0     0   0   8     0   0   8     0   0   0     0   0   0     0   0   0     0   0   0     0   0   0     0   0   0     4   0   8     0   0   0     0   4   0     0   4   0     4   4   0     4   4   0     0   0   0     0   8   0     0   0   0     0   0   0     0   0   0     0   0   0     0   0   0     0   0   0     0   0   0    16   0   0     0   0  16     0   0   0     0   0   0     0   0   0     0   0   0     0   0   0     0   0   0     0   0   0     0   0   0     0   0   0     0   0   0     0   0   0     0   0   0     0   0   0     0   0   0     0   0   0     0   0   0     0   0   0     0   0  16     0   0  16     0   0   0     0   0   0     0   0   0     0   0   0     0   0   0     0   0   0     0   0   0     0   0   0     0   0   0     0   0  16     0   0   0     0   0   0     0   0   0     0   0   0     0   0   0     0   0   0     0   0   0     0   0   0     0   0   0     0   0   0     0   0   0     0   0   0     0   0   0     0   0  16     0   0  16     0   0  16     0   0   0     0   0   0     0   0   0     0   0   0
  0   0   0     0   0   0     0   0   0     0   0   0     0   0   0     0   0   0     0   0   0     0   0   0     0   0   0     0   0   0     0   0   0     0   0   0     0   0   0     0   0   0     0   0   0     0   0   0     0   0   0     0   0   0     0   0   0     0   0   0     0   0   0     0   0   0     0   0   0     0   0   0     0   0   0     8   8   0     0   0   0     0   0   0     0   0   0     0   0   0     0   0   0     0   0   0     0   0   0     0   0   0     0   0   0     0   0   0     0   8   0     0   0   0     0   0   0     0   8   0     0   8   0     0   0   0     0   0   0     0   0   0     0   0   0     0   0   0     0   0   0     0   0   0     0   0   0     0   0   0     0   0   0     0   0  16     0   0  16     0   0   0     0   0  16     4   0   8     0   0   4     0   0   0     0   0   0     2   0   0     2   0   0     0   0   0     0   0   0     2   0   0     0   0   0     0   0   0     0   0   0     0   2   0     0   2   0     2   0   0     0   0   0     0   0   0     0   0   0     0   0   0     0   0   0     4   0   8     0   0   0     0   0   0     0   0   0     4   4   8     0   0   0     4   0   0     0   0   0     0   4   0     0   0   4     0   0   0     2   0   0     0   0   0     0   4   0     0   0   0     0   0   0     0   0   0     0   4   0     0   0   4     0   0   0     0   0   0     4   0   8     0   0   0     0   0   0     0   0   0     0   0   0     4   4   8     0   0   4     0   0   0     0   0   4     0   4   4     0   4   4     0   4   4     0   4   4     0   4   4     0   4   0     0   4   0     0   4   0     0   4   4     4   4   4     4   4  12     4   4   8     4   0   0     0   0   8     0   0   8     0   0   0     0   0   0     0   8   0     0   0   0     0   0   0     0   0   0     0   0   8     4   0   8     4   0   0     0   0   0     0   0   0     0   0   0     0   0   0     0   0   0     0   0   0     4   0   8     4   0   8     4   4   0     4   4   0     4   4   0     4   0   0     0   0   8     8   8  24     0   0   0     0   0   0     0   0   0     0   0  16     0   0  16     0   0  16     0   0   0     0   0   0     0   0  16     0   0   0     0   0   0     0   0   0     0   0   0     0   0   0     0   0   0     0   0   0     0   0   0     0   0   0     0   0   0     0   0   0     0   0   0     0   0   0     0   0   0     0   0   0     0   0   0     0   0  16     0   0   0     0   0  16     0   0   0     0   0   0     0   0  16     0   0   0     0   0   0     0   0  16     0   0  16     0   0   0     0   0   0     0   0  16     0   0   0     0   0   0     0   0   0     0   0   0     0   0   0     0   0  16     0   0   0     0   0   0     0   0   0     0   0   0     0   0   0     0   0   0     0   0   0     0   0   0     0   0   0     0   0   0     0   0   0     0   0   0     0   0   0
  0   0   0     0   0   0     0   0   0     0   0   0     0   0   0     0   0   0     0   0   0     0   0   0     0   0   0     0   0   0     0   0   0     0   0   0     0   0   0     0   0   0     0   0   0     0   0   0     0   0   0     0   0   0     0   0   0     0   0   0     0   0   0     0   0   0     0   0   0     0   0   0     0   0   0     0   8   0     0   0   0     0   0   0     0   0   0     0   0   0     0   0   0     0   0   0     0   0   0     0   0   0     0   0   0     0   0   0     8   0   0     0   0   0     0   0   0     0   8   0     0   8   0     0   0   0     0   0   0     0   0   0     0   0   0     0   0   0     0   0   0     0   0   0     0   0   0     0   0   0     0   0   0     0   0   0     0   0   0     0   0   0     4   4   8     0   0   4     0   0   0     0   0   0     0   0   0     0   0   0     0   0   0     0   0   0     0   0   0     0   0   0     0   0   0     0   0   0     0   0   0     0   0   0     2   0   0     0   0   0     0   0   0     0   0   4     0   0   0     0   4   0     0   0   0     0   0   0     0   0   0     0   0   0     0   0   0     0   0   0     0   4   0     0   4   0     0   0   0     0   0   0     0   0   0     0   0   0     0   0   0     0   0   0     0   0   0     4   0   8     0   0   0     0   0   8     0   4   0     0   4   4     0   4   4     4   0   0     0   0   0     0   8   0     0   8   0     0   0   0     0   0   0     0   0   8     0   4   0     0   0   0     0   0   0     0   0   0     0   4   4     0   4   4     0   4   4     0   4   0     0   0   0     0   0   4     0   0   0     0   0   0     0   0   0     0   0   0     0   0   0     0   0   4     0   4   0     4   0   0     0   0   0     0   0   0     0   0   0     0   0   0     0   0   0     0   0   0     4   0   0     4   0   0     4   0   8     0   0   0     0   0   0     0   0   0     0   0   0     0   0   0     0   0   0     0   0   0     0   0   0     0   0   0     0   0   0     0   0   8     4   0   0     0   0   0     0   0   0     0   8   8     0   0   0     0   0   0     0   0  16     0   0   0     0   0   0     0   0   0     0   0  16     0   0   0     0   0   0     0   0   0     0   0   0     0   0   0     0   0   0     0   0   0     0   0   0     0   0   0     0   0   0     0   0  16     0   0   0     0   0  16     0   0   0     0   0   0     0   0   0     0   0   0     0   0   0     0   0   0     0   0   0     0   0  16     0   0  16     0   0  16     0   0  16     0   0   0     0   0   0     0   0   0     0   0  16     0   0  16     0   0   0     0   0   0     0   0   0     0   0   0     0   0   0     0   0   0     0   0  16     0   0   0     0   0   0     0   0   0     0   0  16     0   0   0     0   0   0     0   0   0     0   0   0     0   0  16     0   0   0     0   0   0     0   0   0     0   0   0
  0   0   0     0   0   0     0   0   0     0   0   0     0   0   0     0   0   0     0   0   0     0   0   0     0   0   0     0   0   0     0   0   0     0   0   0     0   0   0     0   0   0     0   0   0     0   0   0     0   0   0     0   0   0     0   0   0     0   0   0     0   0   0     0   0   0     0   0   0     0   0   0     0   0   0     0   0   0     0   0   0     0   0   0     0   0   0     0   0   0     0   0   0     0   0   0     0   0   0     0   0   0     0   0   0     0   0   0     8   0   0     0   0   0     0   0   0     0   0   0     0   0   0     0   0   0     0   0   0     0   0   0     0   0   0     0   0   0     0   0   0     0   0   0     0   0   0     0   0   0     0   0   0     8   0   0     0   8   0     4   4   0     0   0   4     0   0   0     0   0   0     0   0   0     0   0   0     0   0   4     0   0   4     0   0   0     0   0   4     0   0   4     0   0   0     0   0   0     0   0   0     0   0   0     0   0   0     0   0   0     0   0   0     0   0   4     0   0   4     0   0   4     0   0   4     0   0   4     0   0   4     0   0   4     0   0   0     0   0   0     0   4   4     0   0   4     0   0   4     0   0   0     0   0   4     0   0   0     0   0   0     0   0   4     0   0   0     4   0   0     0   0   0     4   0   8     0   0   0     0   0   0     4   0   0     0   0   0     0   0   0     0   0   0     0   0   0     0   0   0     0   0   0     0   0   0     0   0   0     4   0   8     0   0   0     0   4   0     0   4   4     0   4   4     0   4   4     0   4   0     0   4   0     0   0   4     0   0   0     0   0   0     0   0   0     0   0   0     0   0   0     0   0   4     0   4   0     0   0   0     0   0   0     4   0   0     4   0   8     0   0   0     0   0   0     0   0   0     4   0   0     0   0   0     0   0   0     4   0   0     0   0   0     0   0   0     0   0   0     0   0   0     0   0   0     0   0   0     0   0   0     0   8   0     0   8   0     0   0   0     0   0  16     0   0   8     0   0   0     0   0   0     8   8   8     0   0  16     0   0   0     0   0  16     0   0  16     0   0  16     0   0  16     0   0   0     0   0   0     0   0   0     0   0   0     0   0   0     0   0   0     0   0   0     0   0   0     0   0   0     0   0   0     0   0   0     0   0   0     0   0   0     0   0   0     0   0   0     0   0   0     0   0   0     0   0  16     0   0   0     0   0   0     0   0  16     0   0  16     0   0   0     0   0   0     0   0   0     0   0   0     0   0   0     0   0   0     0   0   0     0   0   0     0   0   0     0   0   0     0   0   0     0   0   0     0   0   0     0   0   0     0   0   0     0   0   0     0   0  16     0   0   0     0   0   0     0   0   0     0   0   0     0   0   0     0   0   0     0   0   0     0   0   0     0   0   0     0   0   0
  0   0   0     0   0   0     0   0   0     0   0   0     0   0   0     0   0   0     0   0   0     0   0   0     0   0   0     0   0   0     0   0   0     0   0   0     0   0   0     0   0   0     0   0   0     0   0   0     8   8   0     8   8   0     0   8   0     0   8   0     0   0   0     0   0   0     0   0   0     0   0   0     0   0   0     0   0   0     0   0   0     0   0   0     0   0   0     0   8   0     8   8   0     8   8   0     0   0   0     8   0   0     0   0   0     8   0   0     0   8   0     0   0   0     0   0   0     0   0   0     0   0   0     0   0   0     0   0   0     0   0   0     0   0   0     0   0   0     0   0   0     0   0   0     0   0   0     0   0   0     8   0   0     0   0   0     4   4   8     0   0   4     0   0   0     0   0   0     0   0   0     0   0   4     0   0   4     0   0   0     0   0   0     0   0   4     0   0   0     0   0   0     0   0   0     0   0   4     0   0   0     0   0   0     0   0   0     0   0   0     0   0   0     0   0   0     0   0   4     0   0   0     0   0   0     0   0   0     0   0   0     0   0   0     0   4   0     0   0   0     0   4   4     0   0   4     0   0   0     0   0   0     0   0   0     0   0   0     0   0   4     0   4   4     0   0   0     4   0   8     0   0   8     0   0   0     0   0   0     0   0   0     0   0   0     4   0   8     4   0   8     4   0   8     0   0   0     0   0   0     4   0   8     0   0   0     0   4   0     0   4   0     0   4   0     0   4   0     0   0   4     0   4   4     0   0   0     0   0   0     0   0   0     0   0   0     0   0   0     0   0   0     0   0   0     0   0   0     0   0   4     0   4   0     0   0   0     0   0   0     0   0   0     4   0   8     4   0   8     0   0   0     0   0   0     0   0   0     0   0   0     4   0   8     4   0   8     0   0   0     0   0   0     0   0   0     0   0   0     0   0   0     0   0   0     0   0   0     0   0   0     0   0   0     0   0   0     0   8   0     0   0  16     0   8   0     0   0   8     0   0   0     0   0   8     8   8   0     0   0   0     0   0  32     0   0   0     0   0  16     0   0   0     0   0  16     0   0   0     0   0  16     0   0  16     0   0  16     0   0  16     0   0   0     0   0   0     0   0   0     0   0   0     0   0   0     0   0  16     0   0   0     0   0   0     0   0   0     0   0   0     0   0   0     0   0   0     0   0   0     0   0   0     0   0   0     0   0   0     0   0   0     0   0   0     0   0   0     0   0   0     0   0   0     0   0   0     0   0   0     0   0   0     0   0   0     0   0  16     0   0   0     0   0   0     0   0   0     0   0   0     0   0   0     0   0   0     0   0   0     0   0   0     0   0   0     0   0   0     0   0   0     0   0   0     0   0   0     0   0   0     0   0   0     0   0   0     0   0   0
  0   0   0     0   0   0     0   0   0     0   0   0     0   0   0     0   0   0     0   0   0     0   0   0     0   0   0     0   0   0     0   0   0     0   0   0     0   0   0     0   0   0     0   0   0     0   0   0     8   8   0     8   8   0     8   0   0     0   0   0     0   8   0     0   0   0     0   0   0     0   0   0     0   8   0     8   0   0     8   8   0     0   0   0     8   8   0     0   0   0     0   0   0     0   0   0     0   0   0     0   0   0     0   0   0     0   0   0     0   0   0     0   0   0     0   0   0     0   0   0     0   0   0     0   0   0     0   0   0     0   8   0     0   0   0     0   8   0     0   0   0     0   0   0     0   0   0     0   0  16     0   0   0     0   0   8     0   0   0     0   0   4     0   0   0     0   0   0     0   0   4     0   0   0     0   0   0     0   0   0     0   0   0     0   0   0     0   0   0     0   0   0     0   4   0     0   0   0     0   4   0     0   0   4     0   0   0     0   0   4     0   0   0     0   0   0     0   0   4     0   0   0     0   0   0     0   0   0     0   0   0     0   0   0     0   0   0     0   0   0     0   4   0     0   0   0     0   0   4     0   0   4     0   0   0     0   0   0     0   0   4     0   4   4     0   0   0     0   0   0     0   4   0     0   4   0     0   4   0     0   4   0     0   4   0     0   0   0     0   0   0     4   0   8     4   0   8     0   0   0     0   4   0     0   4   0     0   4   0     0   4   0     0   4   0     0   0   0     4   0   0     4   0   0     0   0   0     4   0   8     4   4   4     0   4   4     0   0   4     0   0   4     0   0   4     0   0   0     0   0   0     0   0   0     0   0   0     4   0   0     0   0   0     4   0   0     4   0   0     0   0   0     0   0   8     0   0   0     0   0   0     0   0   0     4   0   8     4   0   8     0   0   0     4   4   8     4   0   8     0   0   0     0   0   0     0   0   0     0   0   0     0   0   0     0   8   0     0   8   0     0   8  16     0   0   0     4   0   8     4   0   0     0   0   8     0   0   0     0   0   0     0   0  32     0   0  32     0   0  32     0   0  32     0   0   0     0   0  16     0   0   0     0   0   0     0   0   0     0   0   0     0   0   0     0   0  16     0   0   0     0   0   0     0   0   0     0   0   0     0   0   0     0   0   0     0   0   0     0   0   0     0   0   0     0   0   0     0   0   0     0   0   0     0   0   0     0   0   0     0   0   0     0   0   0     0   0   0     0   0   0     0   0   0     0   0   0     0   0   0     0   0   0     0   0   0     0   0  16     0   0   0     0   0   0     0   0   0     0   0   0     0   0   0     0   0   0     0   0   0     0   0   0     0   0   0     0   0   0     0   0   0     0   0   0     0   0   0     0   0   0     0   0   0     0   0   0     0   0   0
  0   0   0     0   0   0     0   0   0     0   0   0     0   0   0     0   0   0     0   0   0     0   0   0     0   0   0     0   0   0     0   0   0     0   0   0     0   0   0     0   0   0     0   0   0     0   0   0     0   0   0     0   0   0     0   0   0     0   0   8     8   0   8     0   8   0     0   0   0     0   8   0     8   0   0     0   0   8     0   0   8     0   0   8     0   0   0     8   8   0     0   0   0     0   0   0     8   8   0     0   0   0     0   0   0     0   0   0     0   0   0     0   0   0     0   0   0     0   0   0     0   0   0     0   0   0     0   0   0     0   8   0     0   0   0     0   8   0     0   0   0     0   0   0     0   0   0     8   0  16     0   0   0     0   4   0     0   0   0     0   0   0     0   0   0     0   0   4     0   0   4     0   0   0     0   0   0     2   0   0     2   0   0     0   0   0     0   0   0     0   0   0     0   0   0     0   4   4     0   4   0     0   4   0     0   0   0     0   0   0     0   0   0     0   0   0     0   0   4     0   0   0     0   0   0     0   0   0     0   0   0     0   0   0     0   0   0     0   0   0     0   4   0     0   0   0     0   0   4     0   0   0     0   0   0     0   0   0     0   0   4     0   0   0     0   4   0     0   4   0     0   0   0     0   0   4     0   0   4     0   0   0     0   0   0     0   4   0     0   0   0     0   0   0     0   0   0     0   0   0     0   0   4     0   0   4     0   4   0     0   0   0     4   0   8     0   0   0     4   0   8     4   0   8     4   0   8     4   0   0     0   0   0     0   0   4     0   0   0     0   0   0     0   0   4     0   0   4     0   4   0     0   4   0     0   4   0     4   0   0     0   0   8     0   0   0     0   0   8     0   0   8     4   0   0     0   4   0     0   4   0     0   4   0     4   0   8     0   0   0     4   0   8     0   4   0     0   4   0     4   0   8     0   0   0     0   0   0     0   0   0     0   8  16     0   8  16     0   0   0     0   0   0     0   0   0     0   0   0     4   0   8     0   0   0     0   0   0     0   0   8     0   0   0     8   8  48     0   0   0     0   0   0     0   0   0     0   0   0     0   0   0     0   0   0     0   0   0     0   0   0     0   0   0     0   0   0     0   0   0     0   0   0     0   0   0     0   0   0     0   0   0     0   0   0     0   0   0     0   0   0     0   0   0     0   0   0     0   0   0     0   0   0     0   0   0     0   0   0     0   0   0     0   0   0     0   0   0     0   0   0     0   0   0     0   0   0     0   0   0     0   0   0     0   0   0     0   0   0     0   0   0     0   0   0     0   0   0     0   0   0     0   0   0     0   0   0     0   0   0     0   0   0     0   0   0     0   0   0     0   0   0     0   0   0     0   0   0     0   0   0     0   0   0     0   0   0     0   0   0
  0   0   0     0   0   0     0   0   0     0   0   0     0   0   0     0   0   0     0   0   0     0   0   0     0   0   0     0   0   0     0   0   0     0   0   0     0   0   0     0   0   0     0   0   0     0   0   0     0   0   0     8   8   0     0   0   0     0   0   0     0   0   0     8   8   0     0   0   0     8   8   0     0   0   8     0   0   0     0   0   8     8   8   0     0   0   0     8   8   0     0   0   0     0   0   0     8   8   0     0   0   0     0   0   0     0   0   0     0   0   0     0   0   0     0   0   0     0   0   0     0   0   0     0   0   0     0   0   0     0   0   0     0   8   0     0   0   0     0   0   0     0   0   0     0   0   0     0   8  16     4   0   8     0   0   0     0   0   0     0   0   4     0   0   4     0   0   0     2   0   0     0   0   0     0   0   0     0   0   0     2   0   0     0   0   0     0   0   0     0   0   0     0   0   4     0   0   4     0   0   0     0   4   0     0   0   0     0   0   0     0   0   0     0   0   0     0   0   0     0   0   0     2   0   0     0   0   0     0   0   0     0   0   0     0   0   0     0   4   0     0   4   0     0   0   0     0   0   4     0   0   0     0   0   0     0   0   0     0   0   4     0   0   0     0   0   0     0   0   0     0   0   0     0   0   0     0   0   0     0   0   0     0   0   0     0   0   0     0   0   0     0   0   4     0   0   4     0   0   0     0   0   4     0   0   0     0   0   0     0   0   0     4   0   8     0   0   0     0   0   0     4   0   8     0   0   0     0   0   0     0   4   0     0   4   0     0   4   0     0   4   0     0   4   0     0   4   4     0   4   0     0   4   0     0   4   0     4   4   4     0   4   4     0   0   0     0   0   0     0   0   0     4   0   0     0   4   0     0   4   0     4   4   8     0   0   0     0   0   0     4   0   8     0   0   0     0   4   0     4   0   8     0   0   8     0   0   0     0   0   0     0   8  16     0   8  16     0   0   0     4   0   8     4   0   8     4   0   8     4   0   8     0   0   0     0   0   0     0   0   0     0   0   0     0   0   0     8   0  32     0   0   0     0   0  32     0   0   0     0   0   0     0   0   0     0   0   0     0   0  16     0   0   0     0   0   0     0   0   0     0   0   0     0   0   0     0   0   0     0   0   0     0   0   0     0   0   0     0   0   0     0   0   0     0   0   0     0   0   0     0   0   0     0   0   0     0   0   0     0   0   0     0   0   0     0   0   0     0   0   0     0   0   0     0   0   0     0   0   0     0   0   0     0   0   0     0   0   0     0   0   0     0   0   0     0   0   0     0   0   0     0   0   0     0   0   0     0   0   0     0   0   0     0   0   0     0   0   0     0   0   0     0   0   0     0   0   0     0   0   0     0   0   0     0   0   0     0   0   0
  0   0   0     0   0   0     0   0   0     0   0   0     0   0   0     0   0   0     0   0   0     0   0   0     0   0   0     0   0   0     0   0   0     0   0   0     0   0   0     0   0   0     0   0   0     0   0   0     0   0   0     8   8   0     0   0   0     0   0   0     0   0   0     8   8   0     0   0   0     0   0   0     0   0   0     0   0   0     0   0   0     8   8   0     0   0   0     8   8   0     0   0   0     0   0   0     0   0   0     0   0   0     0   0   0     0   0   0     0   0   0     0   0   0     0   0   0     0   0   0     0   0   0     0   0   0     0   0   0     0   0   0     0   0   0     0   0   0     0   0   0     0   0   0     0   8   0     0   0   0     4   0   8     0   0   0     0   0   0     0   0   0     0   0   0     0   0   0     0   0   0     2   0   0     0   0   0     0   0   0     0   0   0     0   0   0     0   0   0     0   0   0     0   0   0     0   0   0     0   0   4     0   0   0     0   0   0     0   0   0     0   0   0     0   0   0     2   0   0     2   0   0     2   0   0     0   0   0     0   0   0     0   0   0     0   0   4     0   0   0     0   0   0     0   0   4     0   0   0     0   0   0     0   0   0     0   0   4     0   0   0     0   0   0     0   0   0     0   0   4     0   0   0     0   0   0     0   0   0     0   0   0     0   0   0     0   0   0     0   0   4     0   0   0     0   0   0     0   0   0     0   4   0     0   0   0     4   0   8     0   0   0     0   0   0     0   0   0     4   0   8     0   4   4     0   4   4     0   4   0     4   0   0     4   0   0     0   0   0     0   0   0     0   0   0     0   0   0     0   0   0     4   0   0     0   0   0     4   4   4     0   4   4     4   4   4     0   0   4     4   0   0     4   0   0     4   0   8     4   4   8     0   0   0     0   0   0     0   0   0     0   0   0     0   0   0     4   0   8     0   0   0     0   0   8     0   0   8     0   0   0     0   0   0     0   0   0     0   0   0     0   0   0     0   0   0     4   0   8     4   0   8     4   0   0     0   0   0     0   0   0     4   4   0     4   4   0     0   0   8     8   0   0     0   0   0     0   0   0     0   0   0     0   0   0     0   0  16     0   0   0     0   0   0     0   0   0     0   0   0     0   0   0     0   0   0     0   0   0     0   0   0     0   0   0     0   0   0     0   0   0     0   0   0     0   0   0     0   0   0     0   0   0     0   0   0     0   0   0     0   0   0     0   0   0     0   0   0     0   0   0     0   0   0     0   0   0     0   0   0     0   0   0     0   0   0     0   0   0     0   0   0     0   0   0     0   0   0     0   0   0     0   0   0     0   0   0     0   0   0     0   0   0     0   0   0     0   0   0     0   0   0     0   0   0     0   0   0     0   0   0     0   0   0     0   0   0     0   0   0
  0   0   0     0   0   0     0   0   0     0   0   0     0   0   0     0   0   0     0   0   0     0   0   0     0   0   0     0   0   0     0   0   0     0   0   0     0   0   0     0   0   0     0   0   0     0   0   0     0   0   0     0   0   0     0   0   0     0   0   0     0   0   0     0   0   0     0   0   0     0   0   0     0   0   0     0   0   0     0   0   0     0   0   0     0   0   0     0   0   0     0   0   8     0   0   8     8   0   0     0   0   0     0   0   0     0   0   0     0   0   0     0   0   0     0   0   0     0   0   0     0   0   0     0   0   0     0   0   0     0   0   0     0   0   0     0   0   0     0   0   0     0   0   0     0   8   0     4   0   8     0   0   0     0   4   0     0   0   0     0   0   4     0   0   0     0   0   4     0   0   0     2   0   4     2   0   4     0   0   4     0   0   4     0   0   4     0   0   4     0   0   4     0   0   0     0   0   0     0   0   0     2   0   4     0   0   4     0   0   4     0   0   0     0   0   4     0   0   4     0   0   4     0   4   0     0   0   4     0   0   0     0   0   0     0   0   0     0   0   0     0   0   0     0   0   4     0   0   0     0   0   0     0   0   0     0   0   4     0   0   4     0   0   0     0   0   0     2   0   0     2   0   0     0   0   0     0   0   0     0   0   0     0   0   0     0   0   0     0   0   0     0   0   0     0   0   4     0   4   0     4   0   8     0   0   0     0   0   0     0   0   0     0   0   0     0   0   0     0   0   0     0   0   0     0   4   4     0   4   0     0   4   0     0   0   0     0   0   0     0   0   0     0   0   0     0   0   0     0   0   0     4   0   0     0   0   0     0   0   0     0   4   0     4   4   4     0   0   4     4   4   4     0   0   4     0   0   0     0   0   0     0   0   0     0   0   0     0   0   0     0   0   0     0   0   0     0   8  16     0   0   0     0   0   0     4   0   8     4   0   0     4   0   8     0   0   8     0   0   0     0   0   0     4   0   8     4   0   8     4   0   8     4   0   8     4   0   8     0   0   0     0   4   0     4   4   0     4   0   0     4   0   0     8   8  16     0   0   0     0   0   0     0   0   0     0   0   0     0   0   0     0   0   0     0   0   0     0   0   0     0   0  16     0   0  16     0   0  16     0   0   0     0   0   0     0   0   0     0   0   0     0   0   0     0   0   0     0   0   0     0   0   0     0   0   0     0   0   0     0   0   0     0   0   0     0   0   0     0   0   0     0   0   0     0   0   0     0   0   0     0   0   0     0   0   0     0   0   0     0   0   0     0   0   0     0   0   0     0   0   0     0   0   0     0   0   0     0   0   0     0   0   0     0   0   0     0   0   0     0   0   0     0   0   0     0   0   0     0   0   0     0   0   0     0   0   0     0   0   0
  0   0   0     0   0   0     0   0   0     0   0   0     0   0   0     0   0   0     0   0   0     0   0   0     0   0   0     0   0   0     0   0   0     0   0   0     0   0   0     0   0   0     0   0   0     0   0   0     8   8   8     0   0   0     0   0   0     0   0   0     0   0   0     0   0   0     0   0   0     0   0   0     0   0   0     0   0   0     8   8   8     0   0   0     0   0   0     0   0   0     8   8   0     8   8   0     0   0   0     0   0   0     0   0   0     0   0   0     0   0   0     0   0   0     0   0   0     0   0   0     0   0   0     0   0   0     0   0   0     0   8   0     0   8   0     0   0   0     0   0   0     8   0   0     0   0   8     4   0   0     0   0   0     0   4   0     4   4   8     0   0   0     0   0   0     0   0   0     0   0   4     0   0   0     0   0   0     0   0   0     0   0   0     0   0   0     0   0   0     0   0   0     0   0   0     0   0   0     2   0   0     0   0   0     0   0   0     0   0   0     2   2   0     0   0   0     0   0   0     0   0   4     0   0   0     0   4   4     0   0   0     0   0   0     0   0   0     0   0   0     0   0   4     0   0   4     0   0   4     0   0   4     0   0   0     0   0   0     0   0   4     0   0   0     2   0   0     2   2   0     0   2   0     0   0   0     0   0   4     0   0   0     0   0   4     0   0   0     0   0   4     0   4   4     0   0   0     4   0   8     4   0   8     0   0   0     0   0   0     0   0   0     0   4   0     0   4   4     0   0   0     0   0   0     0   4   4     0   0   0     0   0   0     0   0   0     0   0   0     0   0   0     0   0   0     0   0   0     4   0   0     4   0   0     4   0   8     4   0   8     4   0   8     4   4   8     0   0   0     0   4   4     0   0   4     0   4   0     0   0   0     0   0   0     0   0   0     0   0   0     0   0   0     0   0   0     0   0   0     0   0   0     0   0   0     4   0   8     0   0   0     0   0   0     4   0   0     0   0   0     0   0   0     0   0   0     0   0   0     0   0   0     0   0   0     4   0   0     4   0   0     0   0   8     0   0   0     4   0   8     4   0   0     0   0   8     0   8   0     0   0   0     0   0   0     0   0   0     0   0   0     0   0   0     0   0   0     0   0   0     0   0   0     0   0  16     0   0  16     0   0   0     0   0   0     0   0   0     0   0   0     0   0   0     0   0   0     0   0   0     0   0   0     0   0   0     0   0   0     0   0   0     0   0   0     0   0   0     0   0   0     0   0   0     0   0   0     0   0   0     0   0   0     0   0   0     0   0   0     0   0   0     0   0   0     0   0   0     0   0   0     0   0   0     0   0   0     0   0   0     0   0   0     0   0   0     0   0   0     0   0   0     0   0   0     0   0   0     0   0   0     0   0   0     0   0   0     0   0   0
  0   0   0     0   0   0     0   0   0     0   0   0     0   0   0     0   0   0     0   0   0     0   0   0     0   0   0     0   0   0     0   0   0     0   0   0     0   0   0     0   0   0     0   0   0     0   0   0     8   8   8     0   0   0     0   0   0     0   0   0     0   0   0     0   0   0     0   0   0     0   0   0     0   0   0     8   8   8     0   0   0     0   0   0     0   0   0     0   0   0     0   0   0     8   8   0     0   0   0     0   0   0     0   0   0     0   0   0     0   0   0     0   0   0     0   0   0     0   0   0     0   0   0     0   0   0     8   8   0     8   0   0     8   0   0     0   0   0     0   0   0     8   8   0     4   0   8     0   0   0     0   0   0     0   4   0     0   0   0     0   0   0     0   0   0     0   0   0     0   0   4     0   0   0     0   0   0     0   0   0     0   0   0     0   0   0     0   0   0     0   4   0     0   0   0     0   0   0     2   0   0     0   0   0     0   0   0     2   0   0     2   2   0     0   0   0     0   0   4     0   4   0     0   0   0     0   4   4     0   0   0     0   0   0     0   0   0     0   0   0     0   0   0     0   0   4     0   0   0     0   0   0     0   0   4     0   0   4     0   0   0     0   0   0     2   0   0     2   0   0     0   0   0     0   0   4     0   0   4     0   0   0     0   0   0     0   0   0     0   4   0     0   0   0     0   4   0     4   4   8     4   0   8     4   0   8     4   0   8     0   0   0     0   4   0     0   4   4     0   4   4     4   0   0     4   0   0     0   0   0     0   0   0     0   0   0     0   0   0     0   0   0     0   0   0     0   0   4     0   0   0     0   0   0     0   0   0     0   0   0     0   0   8     0   8   0     0   0   0     4   0   8     0   0   0     0   4   0     0   0   0     4   0   8     0   0   0     0   0   0     0   0   0     0   0   0     0   0   0     0   0   0     0   0   0     0   0   0     4   0   8     4   0   8     4   0   8     0   0   0     0   0   0     4   0   8     4   0   8     4   0   0     0   0   0     0   0   0     4   0   0     4   0   0     0   0   8     0   0   0     0   0   0     0   0   0     0   0   8     0   0   0     8   0   0     0   0  16     0   0   0     0   0   0     0   0   0     0   0   0     0   0   0     0   0   0     0   0   0     0   0   0     0   0   0     0   0   0     0   0   0     0   0   0     0   0   0     0   0   0     0   0   0     0   0   0     0   0   0     0   0   0     0   0   0     0   0   0     0   0   0     0   0   0     0   0   0     0   0   0     0   0   0     0   0   0     0   0   0     0   0   0     0   0   0     0   0   0     0   0   0     0   0   0     0   0   0     0   0   0     0   0   0     0   0   0     0   0   0     0   0   0     0   0   0     0   0   0     0   0   0     0   0   0     0   0   0     0   0   0
  0   0   0     0   0   0     0   0   0     0   0   0     0   0   0     0   0   0     0   0   0     0   0   0     0   0   0     0   0   0     0   0   0     0   0   0     0   0   0     0   0   0     0   0   0     0   0   0     8   8   8     0   0   0     0   0   0     0   0   0     8   8   8     0   0   0     0   0   0     0   0   0     0   0   0     0   0   0     8   8   8     8   8   8     8   8   8     8   8   8     8   8   0     8   8   0     0   0   0     0   0   0     0   0   0     0   0   0     0   0   0     0   0   0     0   0   0     0   0   0     0   0   0     0   0   0     8   8   0     8   0   0     0   0   0     0   0   0     8   8   0     0   0   0     4   0   0     0   0   0     0   4   0     0   0   0     4   4   8     0   0   0     0   0   4     0   0   4     0   0   0     0   0   0     0   0   0     0   0   0     0   0   0     0   0   0     0   0   0     0   4   4     0   4   0     0   4   0     0   0   4     0   0   0     2   0   0     2   0   0     2   2   0     0   0   0     0   0   0     0   4   4     0   0   0     0   4   4     0   0   0     2   0   0     2   0   0     2   0   0     0   0   0     0   0   4     0   4   0     0   0   0     0   0   4     0   0   0     0   0   0     0   0   0     0   0   0     0   0   0     0   0   4     0   0   4     0   0   0     0   0   0     0   0   4     0   4   0     0   0   0     0   0   0     0   4   0     0   4   0     0   4   0     0   0   0     0   0   0     0   0   0     0   0   0     0   0   0     0   0   0     0   0   8     0   4   0     0   4   4     0   4   4     0   4   4     0   4   4     2   0   0     2   0   0     2   2   0     2   0   0     0   0   0     0   0   4     0   0   4     0   0   0     4   4   8     0   0   0     0   8   0     0   8   0     0   0   0     0   4   0     0   4   0     0   0   0     0   0  16     0   8   0     0   0  16     0   0   0     0   0   0     0   0   0     0   0   0     0   0   0     0   0   0     4   0   8     4   0   8     4   0   8     4   0   8     0   0   0     0   0  16     0   0  16     0   0   0     0   0   0     0   0   0     4   0   8     4   4   0     0   4   0     4   0   0     0   0   8     0   0   0     0   8   0     8   0   0     0   0   0     0   0   0     0   0   0     0   0   0     0   0   0     0   0   0     0   0   0     0   0   0     0   0   0     0   0   0     0   0   0     0   0   0     0   0   0     0   0   0     0   0   0     0   0   0     0   0   0     0   0   0     0   0   0     0   0   0     0   0   0     0   0   0     0   0   0     0   0   0     0   0   0     0   0   0     0   0   0     0   0   0     0   0   0     0   0   0     0   0   0     0   0   0     0   0   0     0   0   0     0   0   0     0   0   0     0   0   0     0   0   0     0   0   0     0   0   0     0   0   0     0   0   0     0   0   0     0   0   0
  0   0   0     0   0   0     0   0   0     0   0   0     0   0   0     0   0   0     0   0   0     0   0   0     0   0   0     0   0   0     0   0   0     0   0   0     0   0   0     0   0   0     0   0   0     0   0   0     0   0   0     0   0   0     0   0   0     0   0   0     0   0   0     0   0   0     0   0   0     0   0   0     0   0   0     0   0   0     8   8   8     8   8   8     8   8   8     8   8   8     8   8   0     8   8   0     0   0   0     0   0   0     0   0   0     0   0   0     0   0   0     0   0   0     0   0   0     0   0   0     0   0   0     0   0   0     8   8   0     8   0   0     8   0   0     8   0   0     0   0   8     4   0   0     0   0   0     0   4   0     0   0   0     0   0   0     0   0   0     0   0   0     0   0   0     0   0   4     0   0   4     0   0   0     0   0   4     0   0   0     0   0   0     0   0   0     0   0   4     0   0   0     0   0   0     0   0   0     0   4   4     0   0   4     0   0   0     0   0   0     0   0   0     0   0   0     0   0   0     0   0   4     0   0   0     0   4   4     0   0   0     2   0   0     2   0   0     2   0   0     0   0   0     0   0   4     0   0   0     0   0   0     0   0   0     0   0   0     0   0   0     0   0   0     0   0   0     0   0   0     0   0   4     0   0   4     0   0   4     0   0   0     0   4   0     0   0   0     0   0   0     0   0   0     0   0   0     0   4   0     4   0   8     4   0   8     0   0   0     0   0   0     4   0   0     4   0   0     4   4   0     0   0   0     0   0   0     0   0   0     0   0   0     0   0   0     2   0   0     0   0   0     0   2   0     0   2   0     0   0   0     0   0   0     0   0   0     2   0   0     0   0   0     0   0   0     4   4   8     0   0   0     0   0  16     0   0  16     0   0   0     4   4   8     4   4  12     4   4  12     4   0   0     0   8  16     0   0   0     0   0   0     0   0   0     0   0   0     0   0   0     0   0   0     0   0   0     0   0  16     4   0   8     4   0   0     0   0   0     0   0  16     0   0   0     4   0  16     4   0   0     4   0   0     0   0   8     4   4   0     0   0   0     4   0   0     4   0   0     0   0   0     0   0   0     0   0   0     0   0   0     0   0  16     0   0  16     0   0   0     0   0   0     0   0   0     0   0   0     0   0   0     0   0   0     0   0   0     0   0   0     0   0   0     0   0   0     0   0   0     0   0   0     0   0   0     0   0   0     0   0   0     0   0   0     0   0   0     0   0   0     0   0   0     0   0   0     0   0   0     0   0   0     0   0   0     0   0   0     0   0   0     0   0   0     0   0   0     0   0   0     0   0   0     0   0   0     0   0   0     0   0   0     0   0   0     0   0   0     0   0   0     0   0   0     0   0   0     0   0   0     0   0   0     0   0   0     0   0   0
  0   0   0     0   0   0     0   0   0     0   0   0     0   0   0     0   0   0     0   0   0     0   0   0     0   0   0     0   0   0     0   0   0     0   0   0     0   0   0     8   8   8     0   0   0     0   0   0     0   0   0     0   0   0     0   0   0     0   0   0     0   0   0     8   8   8     0   0   0     0   0   0     0   0   0     0   0   0     0   0   0     8   8   8     8   8   8     8   8   8     8   8   0     0   0   0     0   0   0     0   0   0     0   0   0     0   0   0     0   0   0     0   0   0     0   0   0     0   0   0     0   0   0     0   0   0     0   0   0     0   0   0     0   0   0     0   0   8     0   0   0     4   0   0     0   0   0     0   0   0     0   0   0     0   0   0     0   0   0     0   0   4     2   0   0     2   0   0     0   0   0     0   4   4     0   0   0     0   0   0     0   0   0     4   4   8     0   0   4     0   0   0     0   0   0     0   0   0     0   0   0     0   0   4     0   0   0     0   0   0     0   0   0     0   0   0     0   0   0     0   0   0     0   0   0     4   4  12     0   0   0     0   0   0     2   0   0     2   0   0     0   0   0     0   0   4     0   0   0     0   0   4     0   2   0     2   2   0     2   2   0     0   0   0     0   0   0     0   0   0     0   0   4     0   0   4     0   4   0     0   0   0     0   4   0     0   4   0     0   0   4     0   4   0     0   4   0     4   0   0     4   0   0     0   0   0     0   0   0     0   0   0     0   0   0     0   0   0     0   0   0     0   0   0     0   0   0     0   0   0     0   0   0     2   0   0     0   0   0     0   0   0     0   2   0     0   2   0     0   0   0     0   0   0     0   0   0     0   0   0     0   0   0     0   0   0     0   0   0     0   0   0     0   0   0     0   0  48     0   0  32     0   8  16     4   0   8     0   4   4     0   4   4     0   0   0     0   0   8     0   0   0     0   0   0     0   0   8     0   0   0     0   8  16     0   8  16     0   0   0     4   0   8     4   0   0     4   0   0     0   0   0     0   0  16     0   0   0     4   0   0     0   0   0     0   0   0     0   0   0     0   0   0     0   0   0     0   0   0     4   0   0     0   0   8     0   0   0     0   0   0     8   0  16     0   0  16     0   0   0     0   0   0     0   0   0     0   0   0     0   0   0     0   0   0     0   0   0     0   0   0     0   0   0     0   0   0     0   0   0     0   0   0     0   0   0     0   0   0     0   0   0     0   0   0     0   0   0     0   0   0     0   0   0     0   0   0     0   0   0     0   0   0     0   0   0     0   0   0     0   0   0     0   0   0     0   0   0     0   0   0     0   0   0     0   0   0     0   0   0     0   0   0     0   0   0     0   0   0     0   0   0     0   0   0     0   0   0     0   0   0     0   0   0     0   0   0     0   0   0
  0   0   0     0   0   0     0   0   0     0   0   0     8   8   8     8   8   8     0   0   0     0   0   0     0   0   0     0   0   0     0   0   0     0   0   0     8   8   8     0   0   0     0   0   0     0   0   0     0   0   0     8   8   8     0   0   0     8   8   8     8   8   8     0   0   0     0   0   0     0   0   0     0   0   0     8   8   8     0   0   0     0   0   0     0   0   0     0   0   0     0   0   0     0   0   0     0   0   0     0   0   0     0   0   0     0   0   0     0   0   0     0   0   0     0   0   0     0   0   0     0   0   0     8   0   0     0   0   0     0   0   0     0   0   0     0   0   8     4   0   0     0   4   0     0   0   0     0   0   0     0   0   0     0   0   4     0   0   0     0   0   0     2   0   0     0   0   0     0   0   4     0   0   4     0   0   0     0   0   0     4   0   8     0   0   0     8   8   0     0   0   0     0   0   0     0   0   0     0   0   0     0   4   4     0   0   4     0   0   0     0   0   0     0   0   0     0   0   0     0   0   4     0   0   0     0   0   4     0   0   0     0   0   0     2   0   0     2   0   0     0   0   0     0   4   4     0   0   0     0   0   0     0   0   0     0   0   0     2   0   0     0   0   0     0   0   0     0   0   0     0   0   0     0   0   4     0   0   0     0   4   0     0   0   4     0   0   0     0   0   0     0   0   4     0   0   0     4   0   0     0   0   4     0   4   4     0   4   0     0   0   0     0   0   0     0   0   0     0   0   4     0   0   0     0   0   0     0   0   0     0   0   0     0   0   0     2   0   0     0   0   0     2   0   0     2   0   0     2   0   0     0   0   0     0   0   0     0   0   0     0   0   0     0   0   0     0   0   0     0   0   0     0   0   0     0   4   4     0   8  16     0  16  32     0   8  16     4   0   8     0   4   4     0   4   4     0   4   0     4   0   0     0   0   8     4   0   8     4   0   8     0   0   0     0   0   0     0   0   0     0   8   0     0   0   0     4   0   0     0   0   0     0   0   0     0   0   0     0   0   0     0   0   0     0   0   0     0   0   0     0   0   0     4   0   8     0   0   0     4   0   0     0   0   0     0   0   8     0   0   0     0   0   0     8   0   0     0   0   0     0   0  16     0   0  16     0   0  16     0   0   0     0   0   0     0   0   0     0   0   0     0   0   0     0   0   0     0   0   0     0   0   0     0   0   0     0   0   0     0   0   0     0   0   0     0   0   0     0   0   0     0   0   0     0   0   0     0   0   0     0   0   0     0   0   0     0   0   0     0   0   0     0   0   0     0   0   0     0   0   0     0   0   0     0   0   0     0   0   0     0   0   0     0   0   0     0   0   0     0   0   0     0   0   0     0   0   0     0   0   0     0   0   0     0   0   0     0   0   0
  0   0   0     0   0   0     0   0   0     0   0   0     8   8   8     8   8   8     0   0   0     0   0   0     0   0   0     0   0   0     0   0   0     0   0   0     0   0   0     0   0   0     0   0   0     0   0   0     0   0   0     8   8   8     0   0   0     0   0   0     0   0   0     0   0   0     8   8   8     0   0   0     0   0   0     8   8   8     0   0   0     0   0   0     0   0   0     0   0   0     0   0   0     0   0   0     0   0   0     0   0   0     0   0   0     0   0   0     0   0   0     0   0   0     0   0   0     0   0   0     0   8   0     8   0   0     0   0   0     0   0   0     0   0   8     0   0   0     0   0   0     0   0   0     0   0   0     0   0   0     0   0   4     2   0   0     2   0   0     2   0   0     0   0   0     0   0   0     0   0   0     0   0   0     0   0   0     0   0   0     0   0   0     0   0   0     0   0   0     0   0  32     0   8   0     0   0   0     0   4   4     0   4   0     0   4   0     0   0   0     0   0   0     0   0   0     0   0   0     0   0   4     0   0   0     0   0   4     0   0   0     0   0   0     2   0   0     2   0   0     2   0   0     0   0   4     0   0   0     0   0   0     0   0   0     0   0   0     0   0   0     0   0   0     0   0   0     0   0   0     0   0   0     0   4   0     0   4   0     0   0   4     0   0   0     0   0   0     0   0   0     0   0   0     0   0   4     0   4   4     0   0   0     0   0   0     0   0   0     0   4   4     0   0   4     0   0   0     0   0   0     0   0   0     0   0   0     0   0   0     0   0   0     0   0   0     0   0   0     0   0   0     0   0   0     0   0   0     0   0   0     0   0   0     0   0   0     0   0   0     0   0   0     0   0   0     0   0   0     0   0   0     0   0   0     2   0   0     0   0   0     4   8  24     0   0   0     8  16  32     4   0   8     0   0   0     0   4   0     0   0   0     0   0   0     0   0   0     0   0   0     4   0   0     0   8  16     0   0   0     0   8   0     0   0   0     0   0   0     0   0   0     0   0   0     0   0   0     0   0   0     0   0   0     0   0   0     0   0   0     0   0   0     0   0   0     4   0   8     4   0   0     4   4   0     4   4   0     4   0   8     0   8  16     8   0  32     0   0  32     0   0   0     0   0   0     0   0   0     0   0   0     0   0   0     0   0   0     0   0   0     0   0   0     0   0   0     0   0   0     0   0   0     0   0   0     0   0   0     0   0   0     0   0   0     0   0   0     0   0   0     0   0   0     0   0   0     0   0   0     0   0   0     0   0   0     0   0   0     0   0   0     0   0   0     0   0   0     0   0   0     0   0   0     0   0   0     0   0   0     0   0   0     0   0   0     0   0   0     0   0   0     0   0   0     0   0   0     0   0   0     0   0   0     0   0   0     0   0   0
  0   0   0     0   0   0     0   0   0     0   0   0     0   0   0     0   0   0     0   0   0     0   0   0     0   0   0     0   0   0     0   0   0     0   0   0     8   8   8     0   0   0     0   0   0     8   8   8     8   8   8     0   0   0     0   0   0     0   0   0     0   0   0     0   0   0     0   0   0     0   0   0     0   0   0     0   0   0     0   0   0     0   0   0     0   0   0     0   0   0     0   0   0     0   0   0     0   0   0     0   0   0     0   0   0     0   0   0     0   0   0     0   0   0     0   0   0     0   0   0     0   0   0     8   8   0     0   0   0     0   0   0     0   0   8     4   0   0     0   0   0     0   0   0     0   0   0     0   0   0     0   0   4     2   0   0     2   0   0     2   0   0     0   0   0     0   0   0     0   0   0     0   0   4     0   0   4     0   0   0     0   4   0     4   0   8     8   8  16     0   0  32     8   0  16     0   0  16     0   8   0     4   0   8     4   0   8     0   0   0     0   0   4     0   0   4     0   0   4     0   0   0     0   0   0     0   0   0     0   0   4     0   0   0     2   0   0     2   0   0     2   0   0     0   0   0     0   0   0     2   0   0     0   0   0     2   0   0     0   0   0     0   0   0     0   0   0     0   0   0     0   0   4     0   4   0     0   0   4     0   0   0     0   0   0     0   0   0     0   0   0     0   0   0     0   0   0     2   0   0     2   0   0     0   0   0     0   0   0     0   0   0     0   0   0     0   0   0     0   0   0     0   0   0     0   0   0     0   0   0     0   0   4     0   0   0     0   0   0     0   0   0     0   0   0     0   0   0     0   0   0     0   0   0     0   0   0     0   0   0     0   0   0     0   0   0     0   0   0     0   0   0     0   0   0     2   0   0     0   0   0     0   0   4     4   4   8     8  16  32     8  16 192     8  24 240     0   0   0     4   0   8     0   0   0     4   0   0     0   0   0     0   0   0     0   0   0     0   0  16     0   0  16     0   0   0     0   0   0     0   0   0     0   0   0     0   0   0     0   0   0     0   0   0     0   0   0     0   0   0     0   0   0     0   0   0     0   0   0     0   0   0     0   4   0     0   4   0     0   0   0     4   0   8     0   0   0     0   0   0     0   0   0     0   0   0     0   0  16     0   0   0     0   0   0     0   0   0     0   0   0     0   0   0     0   0   0     0   0   0     0   0   0     0   0   0     0   0   0     0   0   0     0   0   0     0   0   0     0   0   0     0   0   0     0   0   0     0   0   0     0   0   0     0   0   0     0   0   0     0   0   0     0   0   0     0   0   0     0   0   0     0   0   0     0   0   0     0   0   0     0   0   0     0   0   0     0   0   0     0   0   0     0   0   0     0   0   0     0   0   0     0   0   0     0   0   0     0   0   0
  0   0   0     0   0   0     0   0   0     0   0   0     0   0   0     0   0   0     0   0   0     0   0   0     0   0   0     0   0   0     0   0   0     0   0   0     0   0   0     8   8   8     8   8   8     0   0   0     0   0   0     0   0   0     0   0   0     0   0   0     0   0   0     0   0   0     8   8   8     0   0   0     0   0   0     0   0   0     0   0   0     0   0   0     0   0   0     0   0   0     0   0   0     0   0   0     0   0   0     0   0   0     0   0   0     0   0   0     0   0   0     0   0   0     0   0   0     0   0   0     0   0   0     0   0   0     0   8   0     0   0   8     0   0   0     0   4   4     0   0   4     0   0   4     0   0   0     0   0   0     0   0   0     0   0   0     0   0   0     0   0   0     0   0   0     0   0   0     0   0   0     0   0   0     0   0   0     0   0   0     0   0   0     0   0   0     0   0   4     0   8  16     0   0  16     0   0  32     0   0  16     0   8  16     0   0   0     0   0   0     0   0   0     0   0   0     0   0   4     0   0   0     0   0   4     0   0   0     0   0   4     0   0   0     2   0   0     2   0   0     2   0   0     0   0   0     2   0   0     2   0   0     0   0   0     0   0   0     0   0   0     0   0   0     0   0   0     0   4   4     0   4   0     0   0   0     0   0   4     0   0   0     0   0   0     0   0   0     0   0   0     0   0   0     0   0   0     2   0   0     2   0   0     0   0   0     0   0   0     0   0   0     0   0   0     0   0   4     0   0   4     0   0   4     0   0   4     0   0   4     0   0   4     0   0   0     0   0   4     0   0   0     0   0   0     0   0   0     0   0   0     0   0   0     0   0   0     0   0   0     0   0   0     0   0   4     0   0   0     0   0   0     0   0   0     0   0   0     0   0   0     0   0   0     0   0   0     4   4   8     0   8  48     8  16 192     0   0   0     0   0   0     0   0   0     4   0   0     0   0   0     0   0   0     0   0   0     0   0   0     0   0   0     0   0   0     0   0   0     0   0   0     0   0   0     4   0   8     4   0   8     4   0   8     0   0   0     0   0   0     4   0   8     0   0   0     0   4   0     0   4   0     0   0   4     0   0   0     0   0   0     0   0   0     0   0   0     0   0   0     0   0   0     0   0   0     0   0  16     0   0   0     0   0   0     0   0   0     0   0   0     0   0   0     0   0   0     0   0   0     0   0   0     0   0   0     0   0   0     0   0   0     0   0   0     0   0   0     0   0   0     0   0   0     0   0   0     0   0   0     0   0   0     0   0   0     0   0   0     0   0   0     0   0   0     0   0   0     0   0   0     0   0   0     0   0   0     0   0   0     0   0   0     0   0   0     0   0   0     0   0   0     0   0   0     0   0   0     0   0   0     0   0   0     0   0   0     0   0   0
  0   0   0     0   0   0     0   0   0     0   0   0     0   0   0     0   0   0     0   0   0     0   0   0     0   0   0     0   0   0     0   0   0     0   0   0     0   0   0     0   0   0     0   0   0     0   0   0     0   0   0     0   0   0     0   0   0     0   0   0     0   0   0     0   0   0     8   8   8     0   0   0     0   0   0     0   0   0     0   0   0     0   0   0     0   0   0     0   0   0     0   0   0     0   0   0     0   0   0     0   0   0     0   0   0     0   0   0     0   0   0     0   0   0     0   0   0     0   0   0     0   0   0     8   0   0     0   8   0     0   0   8     0   0   4     0   0   0     0   0   4     0   0   4     0   0   0     0   0   4     0   0   0     0   0   0     0   0   0     0   0   0     0   0   0     0   0   0     0   0   0     0   0   0     0   0   0     0   0   0     0   0   0     0   0   0     0   0   0     0   0   0     4  12   8     0   0   0     0   0  16     0   8  16     0   0   0     0   4   8     2   0   0     2   0   0     2   0   4     0   0   0     0   0   4     0   0   0     0   0   0     0   0   0     0   0   0     0   0   0     0   0   0     0   0   0     2   0   0     2   0   0     2   0   0     0   0   0     0   0   0     0   0   0     0   0   0     0   4   0     0   0   0     0   0   0     0   0   0     0   0   0     0   0   0     0   0   0     0   0   0     0   0   0     0   0   0     0   0   0     0   0   0     0   0   0     0   0   0     0   0   0     0   0   0     0   0   0     0   0   0     0   0   0     0   4   0     0   4   0     0   0   4     0   0   4     0   0   0     0   0   0     0   0   0     0   0   0     0   0   0     0   0   0     0   0   0     0   0   0     0   0   0     0   0   4     0   0   0     0   0   0     0   0   0     0   0   0     0   0   0     0   0   4     0   0   4     0   0   0     0   4   0     0   8 240     0   0 224     0   0   0     0   8  16     0   0   0     0   0   0     0   0   0     0   0   0     0   8   0     0   0   0     0   0   0     0   0   0     0   0   0     0   0   8     4   0   8     0   0   0     0   0   0     0   0   0     0   0   0     0   4   0     0   0   0     0   0   0     0   0   4     0   0   0     0   0   4     0   0   0     0   4   0     0   0   0     0   8   0     0   0   0     0   0   0     0   0   0     0   0   0     0   0   0     0   0   0     0   0   0     0   0   0     0   0   0     0   0   0     0   0   0     0   0   0     0   0   0     0   0   0     0   0   0     0   0   0     0   0   0     0   0   0     0   0   0     0   0   0     0   0   0     0   0   0     0   0   0     0   0   0     0   0   0     0   0   0     0   0   0     0   0   0     0   0   0     0   0   0     0   0   0     0   0   0     0   0   0     0   0   0     0   0   0     0   0   0     0   0   0     0   0   0     0   0   0     0   0   0
  0   0   0     0   0   0     0   0   0     0   0   0     0   0   0     0   0   0     0   0   0     0   0   0     0   0   0     0   0   0     8   8   8     0   0   0     0   0   0     8   8   8     0   0   0     0   0   0     0   0   0     8   8   8     0   0   0     0   0   0     0   0   0     0   0   0     0   0   0     0   0   0     0   0   0     0   0   0     0   0   0     0   0   0     0   0   0     0   0   0     0   0   0     0   0   0     0   0   0     0   0   0     0   0   0     0   0   0     0   0   0     0   0   0     0   0   0     0   0   0     8   8   0     0   8   0     0   0   0     4   4   0     0   0   4     0   0   0     0   0   0     0   0   4     0   0   4     0   0   0     0   0   0     0   0   0     0   0   0     0   0   0     0   0   0     0   0   0     0   0   0     0   0   0     0   0   0     0   0   0     0   0   0     0   0   0     0   0   0     0   0   0     0   0   0     4   4  12     0   0   0     4   0   0     4   0   8     0   0   0     2   0   0     2   0   0     2   0   0     0   0   0     0   0   4     0   0   0     0   0   0     0   0   0     0   0   0     0   0   0     0   0   0     0   0   0     2   0   0     2   0   4     2   0   4     0   0   4     0   0   0     0   0   0     0   4   0     0   0   0     0   4   0     0   0   4     0   0   4     0   0   0     0   0   0     0   0   0     0   0   4     0   0   4     0   0   4     0   0   0     0   0   0     0   0   0     0   0   0     0   0   0     0   0   4     0   0   0     0   0   0     0   4   0     0   4   0     0   0   0     0   4   4     0   0   4     0   0   0     0   0   0     0   0   0     0   0   0     0   0   4     0   0   4     0   0   4     0   0   4     0   4   0     0   4   0     0   0   0     0   0   0     0   0   0     0   0   0     0   0   0     0   4   0     0   0   0     0   0   0     0   0   0     0   4   0     4   8  24     0   0   0     0   0   0     0   0   0     0   0   0     0   0   0     0   8   0     0   8   0     0   8   0     0   0   0     0   0   0     0   0   0     0   0   8     4   0   8     0   0   0     0   0   0     0   0   0     0   0   0     0   0   4     0   0   0     0   0   0     0   0   0     0   0   0     0   0   0     0   0   0     0   0   0     0   0   0     4   0   8     0   8   0     0   0   0     0   0  16     0   0   0     0   0  16     0   0   0     0   0   0     0   0   0     0   0   0     0   0   0     0   0   0     0   0   0     0   0   0     0   0   0     0   0   0     0   0   0     0   0   0     0   0   0     0   0   0     0   0   0     0   0   0     0   0   0     0   0   0     0   0   0     0   0   0     0   0   0     0   0   0     0   0   0     0   0   0     0   0   0     0   0   0     0   0   0     0   0   0     0   0   0     0   0   0     0   0   0     0   0   0     0   0   0     0   0   0     0   0   0
  0   0   0     0   0   0     0   0   0     0   0   0     0   0   0     0   0   0     0   0   0     0   0   0     8   8   8     0   0   0     0   0   0     0   0   0     0   0   0     8   8   8     0   0   0     0   0   0     0   0   0     0   0   0     0   0   0     0   0   0     0   0   0     0   0   0     0   0   0     8   8   8     0   0   0     0   0   0     0   0   0     0   0   0     0   0   0     0   0   0     0   0   0     0   0   0     0   0   0     0   0   0     0   0   0     0   0   0     0   0   0     0   0   0     0   0   0     0   0   0     8   8   0     0   8   0     0   0   8     0   4   4     0   0   4     0   0   0     0   0   0     0   0   4     0   0   4     0   0   0     0   0   0     0   0   0     0   0   0     0   0   0     0   0   4     0   0   4     0   0   4     0   0   4     0   0   4     0   4   4     0   4   0     0   4   0     0   0   4     0   0   0     0   0   0     0   0   0     0   0   0     0   4   4     0   0   4     0   0   0     0   0   0     2   0   0     2   0   0     0   0   0     0   0   0     0   0   0     0   0   0     0   0   0     0   0   0     0   0   0     0   0   0     0   0   0     0   0   4     0   0   4     0   4   0     0   0   0     0   0   4     0   0   4     0   0   0     0   0   0     0   0   0     0   0   0     0   0   0     0   0   4     0   0   4     0   0   4     0   0   0     0   0   0     0   4   0     0   0   0     0   0   0     0   0   0     0   0   0     0   0   0     0   0   0     0   0   0     0   0   0     0   0   0     0   0   0     0   0   0     0   0   0     0   0   0     0   0   0     0   4   0     0   4   0     0   4   0     0   4   0     0   4   0     0   0   0     0   0   0     0   0   0     0   0   0     0   0   0     0   0   0     0   0   0     4   0   0     0   0   0     0   0   0     0   0   0     0   4   0     0   4   0     0   4   0     0   0   0     4   0   8     0   0   0     0   8  16     0   8  16     0   8   0     0   8   0     0   8   0     0   0   0     0   8   0     0   8   0     0   0   0     0   0   0     0   0   0     4   0   8     0   0   0     0   0   0     0   0   0     0   0   4     0   0   0     0   0   0     0   0   0     0   0   0     0   0   0     0   0   0     0   0   0     0   0   0     0   0   0     4   4   4     8   8   0     0   0  16     0   0   0     0   0  16     0   0   0     0   0   0     0   0   0     0   0   0     0   0   0     0   0   0     0   0   0     0   0   0     0   0   0     0   0   0     0   0   0     0   0   0     0   0   0     0   0   0     0   0   0     0   0   0     0   0   0     0   0   0     0   0   0     0   0   0     0   0   0     0   0   0     0   0   0     0   0   0     0   0   0     0   0   0     0   0   0     0   0   0     0   0   0     0   0   0     0   0   0     0   0   0     0   0   0     0   0   0     0   0   0
  0   0   0     0   0   0     0   0   0     0   0   0     0   0   0     0   0   0     8   8   8     0   0   0     0   0   0     0   0   0     0   0   0     0   0   0     0   0   0     0   0   0     0   0   0     0   0   0     8   8   8     0   0   0     0   0   0     0   0   0     0   0   0     0   0   0     0   0   0     0   0   0     0   0   0     0   0   0     0   0   0     0   0   0     0   0   0     0   0   0     0   0   0     0   0   0     0   0   0     0   0   0     0   0   0     0   0   0     0   0   0     0   8   0     0   8   0     0   0   0     0   0   8     0   0   0     0   0   0     0   0   4     0   0   4     0   0   4     0   0   4     0   0   0     0   0   0     0   0   0     0   0   0     0   0   0     0   0   4     0   0   0     0   4   0     0   4   0     0   0   0     4   0   8     4   0   8     4   0   8     4   0   8     0   0   8     0   0   8     0   0   0     0   0   0     0   0   0     0   0   0     0   0   0     2   0   0     0   0   0     0   0   0     0   0   0     0   0   0     0   0   0     0   0   0     0   0   0     0   0   0     0   0   0     0   0   0     0   0   0     0   0   0     0   0   0     0   0   4     0   0   4     0   0   0     0   0   0     0   0   0     0   0   0     0   0   0     0   0   0     0   4   0     0   0   0     0   0   0     0   0   0     0   0   0     0   0   0     0   0   0     0   0   0     0   0   0     0   0   0     2   0   0     0   0   0     0   0   0     0   0   0     0   0   0     0   0   0     0   0   4     0   0   0     0   0   0     0   0   0     0   0   0     0   0   0     0   0   0     0   0   0     0   0   0     0   0   0     0   0   0     0   0   0     0   0   0     0   0   0     4   0   8     4   0   8     4   0   8     4   0   8     4   0   8     4   0   0     4   0   0     4   0   8     4   0   0     0   0   0     0   0   8     0   4   0     0   0   0     0   0   0     4   0   8     0   0   0     0   0   0     0   0   0     0   0   8     0   0   8     0   8   0     0   0   0     0   8   0     0   8   0     0   0   0     0   0   0     0   0   0     0   0   0     0   0   0     0   0   0     0   0   0     0   0   0     0   0   0     0   0   0     0   0   0     0   0   0     0   0   0     0   0   0     0   0   0     0   0   0     0   0   0     0   0   4     0   0   8     0   0   0     0   0  16     0   0  16     0   0   0     0   0   0     0   0   0     0   0   0     0   0   0     0   0   0     0   0   0     0   0   0     0   0   0     0   0   0     0   0   0     0   0   0     0   0   0     0   0   0     0   0   0     0   0  16     0   0   0     0   0   0     0   0   0     0   0   0     0   0   0     0   0   0     0   0   0     0   0   0     0   0   0     0   0   0     0   0   0     0   0   0     0   0   0     0   0   0     0   0   0     0   0   0     0   0   0     0   0   0
  0   0   0     0   0   0     0   0   0     0   0   0     0   0   0     0   0   0     8   8   8     0   0   0     0   0   0     0   0   0     0   0   0     0   0   0     0   0   0     0   0   0     0   0   0     0   0   0     0   0   0     0   0   0     0   0   0     0   0   0     0   0   0     0   0   0     0   0   0     8   8   8     0   0   0     0   0   0     0   0   0     0   0   0     0   0   0     0   0   0     0   0   0     0   0   0     0   0   0     0   0   0     0   0   0     0   0   0     0   0   0     0   8   0     0   8   0     0   0   8     0   0   0     0   0   0     0   0   4     0   0   4     0   0   4     0   0   4     0   0   4     0   0   0     0   0   4     0   0   0     0   0   4     0   0   0     0   4   0     0   0   8     4   0   8     4   0   8     4   0   8     0   0   0     0   0   0     0   0   0     0   0   0     4   0   8     4   0   8     0   0   0     0   0   4     0   0   0     0   0   0     2   0   0     0   0   0     0   2   0     0   2   0     0   0   0     0   0   0     0   0   0     2   0   0     2   0   0     0   0   0     0   0   0     2   0   0     2   0   0     0   0   0     0   0   0     0   0   0     0   0   4     0   0   0     0   0   0     0   0   0     0   4   0     0   0   0     0   0   0     0   4   0     0   0   0     0   0   0     0   0   4     0   0   4     0   0   4     0   0   0     0   0   4     0   0   0     0   0   0     2   0   0     0   0   0     0   0   0     0   0   0     0   0   0     2   0   0     2   0   0     0   0   0     0   0   0     0   0   0     0   0   0     0   4   0     0   0   0     0   0   0     0   0   0     0   0   8     0   4   8     0   4   0     0   0   0     0   4   4     4   4   8     4   0   0     0   8  16     0   0   0     0   8  16     0   0   0     4   0   8     4   0   8     0   0   0     0   0   0     0   0   0     4   0   8     0   0   0     0   4   0     0   0   0     0   0   0     0   0   0     0   8  24     0   0   8     0   0   8     0   0   0     0   0   0     0   0  16     8  16 112     0   8   0     0   8   0     0   0   0     0   0   0     0   0   0     4   0   8     0   4   0     0   0   4     0   0   0     2   0   0     2   0   0     0   0   0     0   0   0     0   0   0     0   0   0     0   0   0     0   0   0     0   0   0     0   0   4     4   4   8     0   8   0     0   0   0     0   0   0     8   0   0     0   0   0     0   0   0     0   0   0     0   0   0     0   0   0     0   0   0     0   0   0     0   0   0     0   0   0     0   0   0     0   0   0     0   0   0     0   0  16     0   0   0     0   0  16     0   0   0     0   0   0     0   0   0     0   0   0     0   0   0     0   0   0     0   0   0     0   0   0     0   0   0     0   0   0     0   0   0     0   0   0     0   0   0     0   0   0     0   0   0     0   0   0     0   0   0
  0   0   0     0   0   0     0   0   0     0   0   0     0   0   0     0   0   0     8   8   8     8   8   8     0   0   0     0   0   0     0   0   0     8   8   8     0   0   0     0   0   0     0   0   0     8   8   8     0   0   0     0   0   0     0   0   0     0   0   0     0   0   0     0   0   0     0   0   0     0   0   0     0   0   0     0   0   0     0   0   0     0   0   0     0   0   0     0   0   0     0   0   0     0   0   0     0   0   0     0   0   0     0   0   0     0   0   0     0   0   0     0   0   0     8   0   0     0   0   8     0   0   0     4   4   0     0   0   4     0   0   0     0   0   4     0   0   4     0   0   0     0   0   0     0   0   0     0   0   0     0   0   0     0   0   0     0   0   8     0   0   0     0   0   0     0   8  16     0   0  32     0   0   0     0   8   0     0   8   0     0   0   0     4   0   0     4   0   0     0   0   0     0   0   0     0   0   4     0   0   0     2   0   0     0   0   0     0   2   0     0   2   0     0   0   0     0   0   0     0   0   0     0   0   0     0   0   0     0   0   0     0   0   0     0   0   0     0   0   0     0   0   0     0   0   0     0   0   0     0   0   0     0   0   0     0   0   0     0   0   0     0   0   0     0   0   0     0   0   0     0   0   0     0   0   0     0   0   4     0   0   0     0   0   0     0   0   0     0   0   0     2   0   0     2   0   0     0   0   0     0   0   0     0   0   0     0   0   0     0   0   0     0   0   0     0   0   0     0   0   0     0   0   0     0   0   0     2   0   0     2   0   0     2   0   4     2   0   0     0   0   4     0   0   0     0   4   0     0   0   0     0   4   0     0   0   0     0   0   4     0   0   4     0   0   0     0   0   0     0   0   8     0   0   0     0   0   0     0   0   0     0   0   0     4   0   8     4   0   8     0   0   0     0   0   0     4   0   8     0   0   0     0   4   0     0   4   0     0   4   0     4   0   0     0   0   8     0   0   0     0   0   8     0   8  16     8   0  32     8   0  32     0   0  16     0   8  16     0   0   0     0   0   0     0   0   0     0   0   0     4   0   8     0   4   0     0   0   0     2   0   0     0   0   0     2   0   0     0   0   0     0   0   0     0   0   4     0   0   0     0   0   0     0   0   0     0   0   0     0   0   0     4   4   0     0   8   0     0   0   0     8   0   0     0   0   0     0   0   0     0   0   0     0   0   0     0   0   0     0   0   0     0   0   0     0   0   0     0   0   0     0   0   0     0   0   0     0   0   0     0   0   0     0   0   0     0   0   0     0   0   0     0   0   0     0   0   0     0   0   0     0   0   0     0   0   0     0   0   0     0   0   0     0   0   0     0   0   0     0   0   0     0   0   0     0   0   0     0   0   0     0   0   0     0   0   0     0   0   0
  0   0   0     0   0   0     0   0   0     0   0   0     0   0   0     0   0   0     0   0   0     0   0   0     0   0   0     8   8   8     8   8   8     0   0   0     0   0   0     0   0   0     0   0   0     8   8   8     0   0   0     0   0   0     0   0   0     0   0   0     0   0   0     0   0   0     8   8   8     0   0   0     0   0   0     0   0   0     0   0   0     0   0   0     0   0   0     0   0   0     0   0   0     0   0   0     0   0   0     0   0   0     0   0   0     0   0   0     0   0   0     0   0   0     8   0   8     0   0   0     0   0   0     4   4   4     0   4   4     0   0   0     0   0   4     0   0   0     0   0   0     0   0   0     0   0   4     0   0   4     0   0   0     0   4   0     4   0   8     0   0   0     0   8  16     0   0   0     0   0   0     0   0  32     0   0  32     0   8  32     0   0   0     4   0   0     0   0   0     0   0   0     0   4   0     0   0   4     0   0   0     0   0   0     0   0   0     0   0   0     0   2   0     0   0   0     0   0   0     0   0   0     0   0   0     0   0   0     0   0   0     0   0   0     0   0   0     0   0   0     0   0   0     2   0   0     0   0   0     0   0   0     0   0   0     0   0   4     0   0   0     0   0   4     0   0   4     0   0   4     2   0   4     2   0   0     0   0   0     0   0   0     0   0   0     0   0   0     0   0   0     0   0   0     0   0   0     0   0   0     0   0   0     0   0   0     0   2   0     0   2   0     0   0   0     0   2   0     0   0   0     0   0   0     0   0   0     0   0   0     0   0   0     0   0   0     0   0   0     0   0   0     0   0   0     2   0   0     2   0   4     0   0   4     0   0   4     0   0   4     0   0   4     0   0   0     0   0   0     0   0   0     0   0   0     0   0   0     4   0   8     4   0   8     4   0   8     4   0   8     4   0   8     4   0   8     4   0   8     0   4   0     0   4   0     0   4   0     0   4   0     0   0   0     0   0   0     4   0   0     0   0   8     0   8   0     0   0   0     8   0  64     8   0  32     0   0  16     0   0   0     0   0   0     0   0   0     0   0   0     0   0   0     4   0   8     0   4   0     2   0   4     0   2   0     0   2   0     2   0   0     0   0   4     0   0   0     0   0   4     0   0   4     0   0   0     0   0   0     0   0   0     0   0   0     4   4  12     0   8   0     8   0   0     0   0  16     0   0  16     0   0   0     0   0   0     0   0   0     0   0   0     0   0   0     0   0   0     0   0   0     0   0   0     0   0   0     0   0   0     0   0   0     0   0   0     0   0   0     0   0   0     0   0   0     0   0   0     0   0   0     0   0   0     0   0   0     0   0   0     0   0   0     0   0   0     0   0   0     0   0   0     0   0   0     0   0   0     0   0   0     0   0   0     0   0   0     0   0   0
  0   0   0     0   0   0     0   0   0     0   0   0     0   0   0     0   0   0     0   0   0     0   0   0     8   8   8     0   0   0     0   0   0     0   0   0     0   0   0     0   0   0     0   0   0     0   0   0     0   0   0     0   0   0     8   8   8     0   0   0     8   8   8     8   8   8     0   0   0     0   0   0     0   0   0     0   0   0     0   0   0     0   0   0     0   0   0     0   0   0     0   0   0     0   0   0     0   0   0     0   0   0     0   0   0     0   0   0     0   0   0     0   0   0     8   8   0     8   0   8     0   0   0     0   0   4     0   0   4     0   0   0     0   0   0     0   0   0     0   0   0     0   0   0     0   0   0     0   0   0     0   0   0     0   4   0     0   0   0     4   0   8     0   0   0     0   8  16     0   0  32     0   0   0     0   0   0     0   8  48     4   0   0     0   0   0     0   0   8     0   0   8     0   0   0     0   0   4     2   0   0     0   0   0     0   2   0     0   0   0     0   2   0     0   2   0     0   0   0     0   2   0     0   0   0     0   0   0     0   0   0     0   2   0     0   2   0     0   0   0     0   0   0     0   0   0     0   0   0     2   0   0     0   0   0     2   0   0     0   0   0     2   0   0     0   0   0     0   0   0     0   0   0     0   0   0     0   0   0     0   0   0     0   2   0     0   0   0     0   0   0     0   0   0     0   2   0     0   0   0     0   0   0     0   0   0     0   0   0     0   0   2     0   0   2     0   0   0     0   0   0     0   0   0     0   0   0     0   0   0     0   0   0     0   2   0     0   0   0     0   0   0     0   0   0     0   0   0     0   0   0     0   2   0     0   0   0     2   0   4     0   0   0     0   0   4     0   0   4     0   0   0     0   0   0     0   0   0     0   0   0     0   0   0     4   0   8     0   0   0     0   0   0     4   0   8     4   0   8     0   0   0     0   0   0     0   0   0     0   4   0     0   0   0     0   0   0     0   0   0     0   0   0     4   0   8     0   0  32     8   0   0     0   0  32     0   0   0     0   8  16     0   8   0     0   0   0     0   0   0     0   0   0     0   0   0     0   0   0     0   4   0     2   0   4     0   2   0     0   2   0     2   0   4     0   0   0     0   0   0     0   0   0     0   0   4     0   0   0     0   0   0     0   0   0     0   0   0     4   4   0     0   8   0     0   0   0     0   0   0     0   0  16     0   0   0     0   0   0     0   0   0     0   0   0     0   0   0     0   0   0     0   0   0     0   0   0     0   0   0     0   0   0     0   0   0     0   0   0     0   0   0     0   0   0     0   0   0     0   0   0     0   0   0     0   0   0     0   0   0     0   0   0     0   0   0     0   0   0     0   0   0     0   0   0     0   0   0     0   0   0     0   0   0     0   0   0     0   0   0
  0   0   0     0   0   0     0   0   0     0   0   0     0   0   0     0   0   0     0   0   0     8   8   8     8   8   8     0   0   0     0   0   0     0   0   0     0   0   0     0   0   0     8   8   8     0   0   0     0   0   0     0   0   0     0   0   0     8   8   8     8   8   8     0   0   0     0   0   0     0   0   0     0   0   0     0   0   0     0   0   0     0   0   0     0   0   0     0   0   0     0   0   0     0   0   0     0   0   0     0   0   0     0   0   0     0   0   0     0   0   0     0   0   0     0   8   0     0   8   0     0   0   0     0   0   4     0   0   0     0   0   0     0   0   0     0   0   0     0   0   4     0   0   0     0   0   0     0   0   0     0   0   0     0   4   0     0   0   0     0   0   0     4   0   8     0   8  16     0   8  16     0   8  16     0   0  16     4   0   0     0   0   0     0   0   0     0   0   0     0   0   4     0   0   0     0   0   0     0   0   0     0   0   0     0   2   0     0   0   0     0   0   0     0   0   0     0   0   0     0   0   0     0   0   0     0   0   0     0   0   0     0   0   0     0   0   0     0   0   0     0   0   0     0   0   0     0   0   0     0   0   0     0   0   0     0   0   0     0   0   0     0   0   0     0   0   0     0   0   0     0   0   0     0   0   0     0   2   0     0   2   0     0   0   0     0   0   0     0   0   0     0   0   0     0   0   0     0   0   0     0   0   0     0   0   0     0   0   2     0   0   2     0   0   0     0   0   0     0   0   0     0   0   0     0   0   0     0   0   0     0   0   0     0   0   0     0   2   0     0   2   0     0   2   0     0   0   0     0   0   0     0   0   0     0   2   0     0   2   0     0   0   0     0   0   0     0   0   0     0   0   4     0   0   0     0   0   0     0   0   0     0   0   0     4   0   8     4   0   8     4   8   8     0   0   0     4   0   8     0   0   0     4   0   8     0   0   0     0   0   0     0   0   0     0   0   0     0   0   0     4   0   8     4   0  16     0   0  16     0   0  48     0   0  32     0   0  32     8   0   0     0   0   0     0   8   0     0   0   0     0   0   0     0   0   0     4   0   0     0   0   8     0   0   0     0   0   0     0   0   0     0   0   0     0   0   0     0   0   0     0   0   0     0   0   0     0   0   0     0   0   4     0   0   0     0   0   0     0   0   4     4   4   8     0   0   0     0   0   0     8   0   0     0   0   0     0   0   0     0   0   0     0   0   0     0   0   0     0   0   0     0   0   0     0   0   0     0   0   0     0   0   0     0   0   0     0   0   0     0   0   0     0   0   0     0   0   0     0   0   0     0   0   0     0   0   0     0   0   0     0   0   0     0   0   0     0   0   0     0   0   0     0   0   0     0   0   0     0   0   0     0   0   0     0   0   0     0   0   0
  0   0   0     0   0   0     0   0   0     0   0   0     0   0   0     0   0   0     0   0   0     0   0   0     8   8   8     0   0   0     0   0   0     0   0   0     0   0   0     8   8   8     0   0   0     0   0   0     0   0   0     0   0   0     0   0   0     8   8   8     0   0   0     0   0   0     0   0   0     0   0   0     0   0   0     0   0   0     0   0   0     0   0   0     0   0   0     0   0   0     0   0   0     0   0   0     0   0   0     0   0   0     0   0   0     0   0   0     0   0   0     0   0   0     8   8   0     8   8   0     4   4   8     0   0   4     0   0   0     0   0   0     0   0   0     0   0   0     0   4   0     0   0   0     0   0   0     0   0   4     0   0   0     0   0   0     0   4   0     0   0   0     0   0   8     0   8  16     0   0   0     0   0  16     0   0  16     0   0   8     0   0   0     0   0   0     2   0   0     0   0   0     0   0   0     0   0   0     0   0   0     0   0   0     0   0   0     0   0   0     0   0   0     0   0   0     0   0   0     0   0   0     0   0   0     0   0   0     0   0   0     0   0   0     0   0   0     0   0   0     0   0   0     0   0   0     0   2   0     0   2   0     0   2   0     0   2   0     0   0   0     0   0   0     0   0   0     0   2   0     0   0   0     0   2   0     0   0   0     0   0   0     0   0   0     0   0   0     0   0   0     0   0   0     0   0   0     0   0   0     0   0   0     0   0   0     0   0   0     0   0   0     0   0   0     0   0   0     0   0   0     0   0   0     0   0   0     0   0   0     0   0   0     0   0   0     0   0   0     0   2   0     0   2   0     0   0   0     0   0   0     0   0   0     0   0   0     0   0   0     0   2   0     0   0   0     0   0   0     0   0   0     0   0   0     0   0   0     0   0   0     0   4   0     0   0   0     0   0   0     0   0   0     0   0   0     4   0   8     0   0   0     4   0   8     4   0   8     4   0   8     0   4   0     0   4   0     0   4   0     0   0   0     0   0   8     4   0   0     0   0   0     0   8  16     0   0  16     0   0   0     0   0  16     0   8   0     0   0   0     0   0   0     0   0   0     0   0   0     0   0   8     0   4   0     0   0   0     2   0   0     0   0   0     2   0   0     0   0   4     0   0   0     0   0   0     0   0   0     0   0   0     0   0   4     0   0   4     0   0   4     0   0   0     0   0   0     0   0   0     0   0   0     0   8   0     8   0   0     0   0   0     0   0   0     0   0   0     0   0   0     0   0   0     0   0   0     0   0   0     0   0   0     0   0   0     0   0   0     0   0   0     0   0   0     0   0   0     0   0   0     0   0   0     0   0   0     0   0   0     0   0   0     0   0   0     0   0   0     0   0   0     0   0   0     0   0   0     0   0   0     0   0   0     0   0   0     0   0   0
  0   0   0     0   0   0     0   0   0     0   0   0     0   0   0     8   8   8     0   0   0     0   0   0     8   8   8     0   0   0     0   0   0     0   0   0     8   8   8     0   0   0     0   0   0     0   0   0     8   8   8     0   0   8     0   0   0     0   0   8     0   0   0     0   0   0     0   0   0     0   0   0     0   0   0     0   0   0     0   0   0     0   0   0     0   0   0     0   0   0     0   0   0     0   0   0     0   0   0     0   0   0     0   0   0     0   0   0     0   0   0     8   8   0     8   8   0     0   0   0     0   4   0     0   0   4     2   0   0     2   0   4     0   0   0     0   0   0     0   0   0     0   0   0     0   0   0     0   0   0     0   0   4     0   0   0     0   4   0     4   0   8     0   0   0     0   0   0     0   0   0     0   0   0     4   0   8     0   4   4     0   0   0     0   0   0     0   0   0     0   2   0     0   0   0     0   2   0     0   0   0     0   2   0     0   0   0     0   0   0     0   0   0     0   0   0     0   0   0     0   0   0     0   0   0     0   0   2     0   0   0     0   0   0     0   0   0     0   0   0     0   0   0     0   0   0     0   0   0     0   0   0     0   0   0     0   0   2     0   0   0     0   0   0     0   0   0     0   0   0     0   0   0     0   0   0     0   0   0     0   0   0     0   0   0     0   0   0     0   0   0     0   0   0     0   0   0     0   0   0     0   0   0     0   0   0     0   0   0     0   0   0     0   0   0     0   0   0     0   0   0     0   0   0     0   0   0     0   0   0     0   0   0     0   0   0     0   0   0     0   0   0     0   0   0     0   0   0     0   0   0     0   0   0     0   0   0     0   0   0     0   0   0     0   0   0     0   0   0     0   0   0     0   0   0     0   0   0     0   0   4     0   4   0     0   0   0     0   0   0     0   0   0     0   0   8     4   0   0     0   0   0     0   0   0     4   8  24     0   0   0     4   0   8     0   0   0     0   4   0     4   0   8     0   0   8     0   0   8     4   0   0     0   0   0     0   0   0     0   8  16     0   8  16     0   8  16     0   0   0     0   0   0     0   0   0     0   0   0     0   0   0     0   4   4     0   0   4     0   0   0     0   0   0     2   0   0     2   0   0     0   0   4     0   4   0     0   0   0     0   0   0     0   0   0     0   0   0     0   0   0     0   0   4     0   0   4     4   0   0     0   0   0     0   8   0     8   0   0     0   0   0     0   0   0     0   0   0     0   0   0     0   0   0     0   0   0     0   0   0     0   0   0     0   0   0     0   0   0     0   0   0     0   0   0     0   0   0     0   0   0     0   0   0     0   0   0     0   0   0     0   0   0     0   0   0     0   0   0     0   0   0     0   0   0     0   0   0     0   0   0     0   0   0     0   0   0     0   0   0
  0   0   0     0   0   0     0   0   0     8   8   8     0   0   0     0   0   0     0   0   0     0   0   0     8   8   8     0   0   0     0   0   0     0   0   0     0   0   0     0   0   0     0   0   0     0   0   0     0   0   0     0   0   0     0   0   0     0   0   0     0   0   0     0   0   0     0   0   0     0   0   0     0   0   0     0   0   0     0   0   0     0   0   0     0   0   0     0   0   0     0   0   0     0   0   0     0   0   0     0   0   0     0   0   0     0   0   0     8   0   0     0   0   0     0   8   0     0   0   0     0   0   0     0   0   4     2   0   4     2   0   0     0   0   0     0   0   0     0   4   0     0   0   0     0   0   0     0   0   0     0   0   0     0   0   4     0   0   0     0   0   0     0   0  16     0   0   0     4   0   8     0   0   0     0   0   4     2   0   0     0   0   0     0   2   0     0   2   0     0   0   0     0   0   0     0   0   0     0   0   0     0   0   0     0   0   0     0   0   0     0   0   0     0   0   0     0   0   0     0   0   0     0   0   2     0   0   0     0   0   0     0   0   0     0   0   0     0   0   2     0   0   2     0   0   0     0   0   0     0   0   0     0   0   2     0   0   0     0   0   2     0   0   0     0   0   0     0   0   0     0   0   0     0   0   0     0   0   0     0   0   0     0   0   0     0   0   2     0   0   0     0   0   0     0   0   0     0   0   0     0   0   0     0   0   0     0   0   0     0   0   0     0   0   0     0   0   0     0   0   0     0   0   0     0   0   0     0   0   0     0   0   0     0   0   0     0   0   0     0   2   0     0   2   0     0   0   0     0   0   0     0   0   0     0   0   0     0   0   0     0   0   0     0   0   0     0   0   0     0   2   0     0   0   0     0   0   0     2   0   0     0   0   4     0   0   0     0   0   0     0   0   0     0   0   8     0   0   0     0   0   0     4   0   0     4   0   0     0   0   0     0   0   0     0   0   0     0   0   0     0   0   0     4   0   8     4   0   8     0   0   0     4   0   0     0   0   0     0   0   0     0   0   0     0   0   0     0   0   0     0   0   0     0   0   0     0   0   0     0   0   0     0   0   4     0   0   4     0   0   0     0   0   0     2   0   0     2   0   0     0   0   0     0   0   4     0   4   0     0   4   0     0   0   0     0   0   0     0   0   0     0   0   4     0   0   0     0   4   4     0   0   4     0   0   0     0   0   0     0   8   0     8   0  16     0   0  16     8   0  16     0   0   0     8   0   0     8   0   0     0   0   0     0   0   0     0   0   0     0   0   0     0   0   0     0   0   0     0   0   0     0   0   0     0   0   0     0   0   0     0   0   0     0   0   0     0   0   0     0   0   0     0   0   0     0   0   0     0   0   0     0   0   0     0   0   0     0   0   0
  0   0   0     0   0   0     8   8   8     0   0   0     0   0   0     0   0   0     0   0   0     0   0   0     0   0   0     8   8   8     0   0   0     8   8   8     0   0   0     0   0   0     0   0   0     0   0   0     8   8   0     0   0   0     8   8   0     0   0   0     0   0   0     0   0   0     0   0   0     0   0   0     0   0   0     0   0   0     0   0   0     0   0   0     0   0   0     0   0   0     0   0   0     0   0   0     0   0   0     0   0   0     0   0   0     8   0   0     0   0   0     0   8   0     0   8   0     4   0   0     0   0   0     0   0   0     0   0   4     0   0   4     0   4   0     0   0   0     0   0   0     0   0   0     0   0   0     0   0   0     0   0   0     0   0   0     0   4   0     0   0   0     0   0  16     0   0   0     4   0   0     0   4   4     0   0   0     0   0   0     0   0   0     0   0   0     0   0   0     0   0   0     0   0   0     0   0   0     0   0   0     0   0   0     0   0   0     0   0   0     0   0   0     0   0   0     0   0   0     0   0   0     0   0   0     0   0   0     0   0   0     0   0   0     0   0   0     0   0   0     0   0   0     0   0   0     0   0   0     0   0   0     0   0   0     0   0   0     0   0   0     0   0   0     0   0   2     0   0   0     0   0   0     0   0   0     0   0   0     0   0   0     0   0   0     0   0   2     0   0   0     0   0   0     0   0   0     0   0   0     0   0   0     0   0   0     0   0   0     0   0   0     0   0   0     0   0   0     0   0   0     0   0   0     0   0   0     0   0   0     0   0   0     0   0   0     0   0   0     0   2   0     0   0   0     0   0   0     0   0   0     0   0   0     0   0   0     0   0   0     0   0   0     0   0   0     0   0   0     0   0   0     0   0   0     0   0   0     0   0   0     0   0   0     0   0   4     0   0   0     0   0   0     0   0   0     0   0   0     0   0   8     0   0   8     0   0   0     4   0   0     0   0   0     0   0   0     0   0   0     4   0   8     0   0   0     0   0   0     0   0   0     0   0   0     0   0   0     4   0   0     0   0   0     0   0   0     0   0   0     0   0   0     0   0   0     0   0   0     0   0   8     0   0   8     0   0   4     0   0   4     0   0   0     2   0   0     2   0   0     0   0   0     0   0   0     0   0   4     0   4   0     0   0   0     0   0   0     0   0   0     0   0   4     0   0   0     0   0   4     0   0   4     0   0   4     0   0   0     0   4   0     4   4   8     0   8   0     0   8   0     0   0   0     0   0   0     8   0   0     0   0  16     0   0  16     0   0  16     0   0   0     0   0   0     0   0   0     0   0   0     0   0   0     0   0   0     0   0   0     0   0   0     0   0   0     0   0   0     0   0   0     0   0   0     0   0   0     0   0   0     0   0   0     0   0   0     0   0   0
  0   0   0     0   0   0     0   0   0     0   0   0     0   0   0     0   0   0     0   0   0     0   0   0     8   8   8     0   0   0     0   0   0     0   0   0     0   0   0     0   0   0     0   0   0     0   0   0     0   0   8     0   0   8     0   0   0     0   0   0     0   0   0     0   0   0     0   0   0     0   0   0     0   0   0     0   0   0     0   0   0     0   0   0     0   0   0     0   0   0     0   0   0     0   0   0     0   0   0     8   0   0     0   0   0     0   0   0     0   0   0     0   8   0     0   0   0     0   4   0     0   0   0     0   0   4     0   0   4     0   0   0     0   0   0     0   0   0     0   0   0     0   0   0     2   0   0     2   0   0     0   0   0     0   0   0     0   0   8     4   0  16     0   0  16     0   0   0     0   0   0     2   0   0     0   2   0     0   0   0     0   0   0     0   0   0     0   0   0     0   0   0     0   0   0     0   0   0     0   0   0     0   0   0     0   0   0     0   0   0     0   0   0     0   0   0     0   0   2     0   0   0     0   0   0     0   0   0     0   0   0     0   0   0     0   0   0     0   0   0     0   0   0     0   0   0     0   0   2     0   0   0     0   0   0     0   0   0     0   0   0     0   0   0     0   0   0     0   0   0     0   0   0     0   0   2     0   0   2     0   0   0     0   0   0     0   0   0     0   0   0     0   0   0     0   0   0     0   0   0     0   0   0     0   0   0     0   0   0     0   0   0     0   0   0     0   0   0     0   0   0     0   0   0     0   0   0     0   0   0     0   0   0     0   0   0     0   0   0     0   0   0     0   0   0     0   0   0     0   0   0     0   0   0     0   0   0     0   0   0     0   0   0     0   0   0     0   0   0     0   0   0     0   0   0     0   0   0     0   2   0     0   0   0     2   0   0     2   0   0     0   0   0     0   0   4     0   4   0     0   0   0     0   0   0     0   0   0     0   0   0     4   8  24     0   8  16     0   8  16     0   0   0     4   0   8     0   0   0     0   0   0     0   0   0     0   0   0     0   0   0     4   0   8     0   0   0     0   0   0     0   0   0     0   0  16     0   0   0     4   0   0     4   0   0     0   4   0     0   0   4     0   0   0     0   0   0     0   0   0     0   0   0     0   0   0     0   0   0     0   0   0     0   4   0     0   4   0     0   4   0     0   0   4     0   0   0     0   0   0     0   0   0     0   0   0     0   0   0     0   0   4     0   0   0     0   4   0     4   0   0     0   0   0     0   0   0     0   8   0     0   0   0     0   0   0     0   0   0     0   0   0     0   0   0     0   0   0     0   0   0     0   0   0     0   0   0     0   0   0     0   0   0     0   0   0     0   0   0     0   0   0     0   0   0     0   0   0     0   0   0     0   0   0     0   0   0     0   0   0
  0   0   0     0   0   0     0   0   0     0   0   0     0   0   0     0   0   0     0   0   0     8   8   8     8   8   8     8   8   8     0   0   0     0   0   0     0   0   0     0   0   0     0   0   0     0   0   0     0   0   8     0   0   8     8   8   0     0   0   0     0   0   0     0   0   0     0   0   0     0   0   0     0   0   0     0   0   0     0   0   0     0   0   0     0   0   0     0   0   0     0   0   0     0   0   0     0   0   0     0   8   8     8   0   0     0   0   0     0   0   0     0   8   0     0   0   0     4   4   0     0   0   0     0   0   0     0   0   0     0   0   0     0   0   0     0   0   0     0   0   4     2   0   0     2   0   0     0   0   0     0   0   0     0   0   0     0   0   0     4   0   0     4   0   0     0   0   8     0   0   0     0   0   0     0   0   0     0   0   0     0   0   0     0   0   0     0   0   0     0   0   0     0   0   0     0   0   0     0   0   0     0   0   0     0   0   0     0   0   0     0   0   0     0   0   0     0   0   0     0   0   0     0   0   0     0   0   0     0   0   0     0   0   0     0   0   0     0   0   0     0   0   0     0   0   0     0   0   0     0   0   0     0   0   0     0   0   0     0   0   0     0   0   0     0   0   0     0   0   0     0   0   0     0   0   0     0   0   0     0   0   0     0   0   2     0   0   0     0   0   0     0   0   0     0   0   0     0   0   0     0   0   0     0   0   0     0   0   0     0   0   0     0   0   0     0   0   0     0   0   0     0   0   0     0   0   0     0   0   0     0   0   0     0   0   0     0   0   0     0   0   0     0   0   0     0   0   0     0   0   0     0   0   0     0   2   0     0   2   0     0   2   0     0   0   0     0   0   0     0   0   0     0   0   0     0   0   0     0   0   0     0   0   0     0   0   0     0   0   0     2   0   0     0   0   0     0   0   0     0   0   0     0   4   0     0   0   0     0   4   0     0   4   0     4   0   8     0   8   0     0   8   0     0   8   0     0   0   0     0   0   0     0   0   0     0   0   0     0   0   0     0   0   0     4   0   8     0   0   0     0   0   0     0   0   0     0   8  16     4   0   0     0   0   0     0   0   8     0   4   4     0   0   0     0   0   0     0   0   0     0   0   0     0   0   0     0   0   0     0   0   0     0   0   0     0   0   0     0   0   0     0   0   0     0   0   4     0   0   4     0   0   0     0   0   0     0   0   0     0   0   0     0   0   0     0   0   4     0   0   0     0   4   4     0   0   0     0   0   8     0   0   0     0   0   0     0   0   0     0   0   0     0   0   0     0   0   0     0   0   0     0   0   0     0   0   0     0   0   0     0   0   0     0   0   0     0   0   0     0   0   0     0   0   0     0   0   0     0   0   0     0   0   0     0   0   0     0   0   0
  0   0   0     0   0   0     8   8   8     0   0   0     0   0   0     8   8   8     0   0   0     0   0   0     0   0   0     8   8   8     0   0   0     0   0   0     0   0   0     0   0   0     0   0   0     0   0   0     0   0   0     0   0   0     0   0   0     0   0   0     0   0   0     0   0   0     0   0   0     0   0   0     0   0   0     0   0   0     0   0   0     0   0   0     0   0   0     0   0   0     0   0   0     0   0   0     0   0   0     0   8   0     8   0   0     0   0   0     0   0   0     0   8   0     0   0   0     0   4   0     0   0   0     0   0   0     0   0   4     0   0   0     0   0   0     0   0   0     0   0   4     2   0   0     2   0   0     0   0   0     0   0   0     0   4   0     4   0   0     4   0   0     0   0   8     0   4   4     0   2   0     0   0   0     0   0   0     0   0   0     0   0   0     0   0   0     0   0   0     0   0   0     0   0   0     0   0   0     0   0   0     0   0   0     0   0   0     0   0   0     0   0   2     0   0   0     0   0   0     0   0   0     0   0   0     0   0   0     0   0   0     0   0   0     0   0   0     0   0   0     0   0   0     0   0   0     0   0   0     0   0   0     0   0   0     0   0   0     0   0   0     0   0   0     0   0   0     0   0   0     0   0   0     0   0   0     0   0   0     0   0   0     0   0   0     0   0   0     0   0   0     0   0   0     0   0   0     0   0   0     0   0   0     0   0   0     0   0   0     0   0   0     0   0   0     0   0   0     0   0   0     0   0   0     0   0   0     0   0   0     0   0   0     0   0   0     0   0   0     0   0   0     0   2   0     0   2   0     0   2   0     0   2   0     0   2   0     0   0   0     0   0   0     0   0   0     0   0   0     0   0   0     0   0   0     0   0   0     0   0   0     0   2   0     0   0   0     0   0   0     0   0   0     0   0   0     0   0   0     0   0   0     0   0   4     0   0   0     0   0   0     0   0   0     0   4   0     4   0   8     0   0   0     0   8   0     4   8   8     4   0   8     4   0   0     0   0   0     0   0   0     4   0   8     0   0   0     0   0   0     0   8  16     0   0   0     0   0   0     0   0  16     4   0   0     0   0   8     0   0   0     0   0   4     0   0   4     0   0   4     0   0   4     0   0   0     0   0   0     0   0   0     0   0   0     0   0   0     0   0   4     0   0   4     0   0   0     0   0   0     0   0   0     0   0   0     0   0   0     0   0   0     0   0   0     0   0   0     0   0   0     0   0   0     0   0   0     0   0   4     0   0   8     8   8   0     0   0   0     0   0   0     0   0   0     0   0   0     0   0   0     0   0   0     0   0   0     0   0   0     0   0   0     0   0   0     0   0   0     0   0   0     0   0   0     0   0   0     0   0   0     0   0   0     0   0   0     0   0   0
  0   0   0     0   0   0     8   8   8     0   0   0     0   0   0     0   0   0     8   8   8     8   8   8     0   0   0     0   0   0     0   0   0     0   0   0     0   0   0     0   0   0     0   0   0     0   0   0     0   0   8     8   8   0     0   0   0     0   0   0     0   0   0     0   0   0     0   0   0     0   0   0     0   0   0     0   0   0     0   0   0     0   0   0     0   0   0     0   0   0     0   0   0     0   0   0     0   0   0     8   0   0     8   0   0     0   8   0     0   0   0     0   8   0     0   0   0     0   4   4     0   0   0     0   0   0     0   0   0     0   0   0     0   0   0     0   0   0     0   0   4     0   0   4     0   0   0     0   0   0     0   0   0     0   0   0     4   0   0     0   0   8     0   0   0     2   0   0     0   0   0     0   0   0     0   0   0     0   0   0     0   0   0     0   0   0     0   0   0     0   0   0     0   0   0     0   0   0     0   0   0     0   0   0     0   0   0     0   0   0     0   0   2     0   0   0     0   0   0     0   0   0     0   0   0     0   0   0     0   0   0     0   0   0     0   0   0     0   0   0     0   0   0     0   0   0     0   0   0     0   0   0     0   0   0     0   0   0     0   0   0     0   0   0     0   0   0     0   0   0     0   0   0     0   0   0     0   0   0     0   0   0     0   0   2     0   0   0     0   0   0     0   0   0     0   0   0     0   0   0     0   0   0     0   0   0     0   0   0     0   0   0     0   0   0     0   0   0     0   0   0     0   0   0     0   0   0     0   0   0     0   0   0     0   0   0     0   2   0     0   0   0     0   0   0     0   0   0     0   2   0     0   0   0     0   0   0     0   0   0     0   0   0     0   0   0     0   2   0     0   0   0     0   0   0     0   0   0     0   2   0     0   2   0     0   0   0     0   0   0     0   0   0     0   0   0     0   0   0     2   0   0     0   0   0     0   0   0     0   0   4     0   0   4     0   0   0     0   4   4     4   0   8     0   8   0     4   8  24     0   8   0     0   8  16     0   0   0     0   0   8     0   0   0     0   0   0     0   0   0     0   8  16     0   0   0     0   0   0     0   8  16     4   0   0     4   0   8     4   0   8     0   0   0     0   0   0     0   0   0     0   0   0     0   0   4     0   0   0     0   0   0     0   0   0     0   0   0     0   0   4     0   0   0     0   0   0     0   0   0     0   0   0     0   0   0     0   0   0     0   0   0     0   0   0     0   0   0     0   0   0     0   0   0     0   0   0     4   4   4     0   0   0     8   8   8     0   0   0     0   0   0     0   0   0     0   0   0     0   0   0     0   0   0     0   0   0     0   0   0     0   0   0     0   0   0     0   0   0     0   0   0     0   0   0     0   0   0     0   0   0     0   0   0     0   0   0     0   0   0
  0   0   0     0   0   0     0   0   0     0   0   0     0   0   0     0   0   0     0   0   0     0   0   0     0   0   0     0   0   0     0   0   0     0   0   0     0   0   0     0   0   0     0   0   0     0   0   0     0   0   0     0   0   0     0   0   0     0   0   0     0   0   0     0   0   0     0   0   0     0   0   0     0   0   0     0   0   0     0   0   0     0   0   0     0   0   0     0   0   0     0   0   0     0   0   0     0   0   0     8   0   0     0   0   0     0   8   0     0   0   8     0   0   8     0   0   0     0   0   4     0   0   4     0   0   0     0   4   0     0   0   0     0   4   8     0   0   0     0   0   0     0   0   4     0   0   0     0   0   0     0   0   0     0   0   8     4   0   8     0   4   0     0   0   4     0   2   0     0   0   0     0   0   0     0   0   0     0   0   0     0   0   0     0   0   0     0   0   0     0   0   0     0   0   0     0   0   0     0   0   0     0   0   0     0   0   0     0   0   2     0   0   0     0   0   0     0   0   0     0   0   0     0   0   0     0   0   0     0   0   0     0   0   0     0   0   0     0   0   0     0   0   0     0   0   0     0   0   0     0   0   0     0   0   0     0   0   0     0   0   0     0   0   0     0   0   0     0   0   0     0   0   0     0   0   0     0   0   0     0   0   0     0   0   0     0   0   2     0   0   0     0   0   0     0   0   0     0   0   2     0   0   2     0   0   0     0   0   0     0   0   0     0   0   0     0   0   0     0   0   0     0   0   0     0   0   0     0   0   0     0   0   0     0   0   0     0   2   0     0   0   0     0   0   0     0   0   0     0   2   0     0   0   0     0   0   0     0   0   0     0   0   0     0   0   0     0   0   0     0   2   0     0   2   0     0   0   0     0   2   0     0   2   0     0   0   0     0   0   0     0   0   0     0   0   0     0   0   0     0   0   0     0   0   0     0   0   0     0   0   0     0   0   0     0   0   0     0   0   0     0   4   0     0   0   0     0   0   0     4   0   8     0   0   0     0   8  16     0   8  16     0   8  16     0   8  16     0   8  16     0   0   0     0   0   0     0   8  16     0   8  16     0   0   0     4   0   8     4   0   8     0   0   0     0   0   0     0   0   0     0   0   0     0   4   0     0   0   0     0   0   0     0   0   4     0   0   4     0   0   0     0   0   0     0   0   0     0   0   0     0   0   0     0   0   0     0   0   0     0   0   0     0   0   0     0   0   0     0   0   0     0   0   0     0   0   4     4   4   0     0   0   0     0   0   0     0   8   0     0   0   0     0   0   0     0   0   0     0   0   0     0   0   0     0   0   0     0   0   0     0   0   0     0   0   0     0   0   0     0   0   0     0   0   0     0   0   0     0   0   0     0   0   0     0   0   0     0   0   0
  8   8   8     0   0   0     0   0   0     0   0   0     0   0   0     0   0   0     0   0   0     0   0   0     0   0   0     0   0   0     0   0   0     0   0   0     0   0   0     0   0   0     0   0   0     0   0   0     8   8   8     0   0   0     0   0   0     0   0   0     0   0   0     0   0   0     0   0   0     0   0   0     0   0   0     0   0   0     0   0   0     0   0   0     0   0   0     0   0   0     0   0   0     0   0   0     0   0   0     8   0   0     8   0   0     0   0   8     0   0   0     0   0   8     4   0   0     2   0   4     2   0   4     2   0   4     0   4   0     0   0   0     0   4   8     0   0   0     0   0   0     0   0   4     0   0   4     0   0   4     0   4   0     0   0   8     0   0   0     0   4   0     2   0   0     0   2   0     0   0   0     0   0   0     0   0   0     0   0   0     0   0   0     0   0   0     0   0   0     0   0   0     0   0   0     0   0   0     0   0   0     0   0   0     0   0   2     0   0   0     0   0   0     0   0   0     0   0   0     0   0   0     0   0   0     0   0   0     0   0   0     0   0   0     0   0   0     0   0   0     0   0   0     0   0   0     0   0   0     0   0   0     0   0   0     0   0   0     0   0   0     0   0   0     0   0   0     0   0   0     0   0   0     0   0   0     0   0   0     0   0   0     0   0   0     0   0   2     0   0   0     0   0   0     0   0   2     0   0   0     0   0   0     0   0   2     0   0   0     0   0   0     0   0   0     0   0   0     0   0   0     0   0   0     0   0   0     0   0   0     0   0   0     0   0   0     0   0   0     0   2   0     0   0   0     0   2   0     0   0   0     0   2   0     0   0   0     0   0   0     0   0   0     0   0   0     0   0   0     0   0   0     0   2   0     0   0   0     0   0   0     0   0   0     0   0   0     0   0   0     0   0   0     0   0   0     0   0   0     0   0   0     0   0   0     2   0   0     0   0   0     0   0   0     0   0   0     0   0   0     0   0   4     0   0   0     0   0   0     0   0   0     4   0   8     4   0   8     4   0   8     0   0  32     0   0  32     0   0  32     0   0   0     0   0   0     0   0  16     0   0   0     4   0   0     4   0   0     0   0   0     4   0   8     0   4   0     0   4   0     0   0   0     0   0   0     0   0   0     0   4   0     0   0   0     0   0   0     0   0   0     0   0   0     0   0   4     0   0   0     0   0   0     0   0   0     0   0   0     0   0   0     0   0   0     0   0   0     0   0   0     0   0   0     4   4   0     0   0   0     0   0   0     8   8   8     0   0   0     0   0   0     0   0   0     0   0   0     0   0   0     0   0   0     0   0   0     0   0   0     0   0   0     0   0   0     0   0   0     0   0   0     0   0   0     0   0   0     0   0   0     0   0   0     0   0   0     0   0   0
  0   0   0     0   0   0     0   0   0     0   0   0     0   0   0     0   0   0     0   0   0     0   0   0     0   0   0     0   0   0     0   0   0     0   0   0     0   0   0     0   0   0     0   0   0     0   0   0     0   0   0     0   0   0     0   0   0     0   0   0     0   0   0     0   0   0     0   0   0     0   0   0     0   0   0     0   0   0     0   0   0     0   0   0     8   8   0     0   0   8     0   0   0     0   0   8     0   0   0     0   0   0     0   0   0     0   0   0     0   0   0     0   0   0     0   4   0     0   0   0     0   0   4     0   4   4     0   0   0     0   4   8     0   0   0     0   0   0     0   0   0     0   0   4     0   0   0     0   0   0     0   0   8     0   0   0     0   0   0     0   0   0     0   0   0     0   2   0     0   0   0     0   0   0     0   0   0     0   0   0     0   0   0     0   0   0     0   0   0     0   0   0     0   0   0     0   0   0     0   0   0     0   0   0     0   0   0     0   0   0     0   0   0     0   0   0     0   0   2     0   0   0     0   0   0     0   0   0     0   0   0     0   0   0     0   0   0     0   0   0     0   0   0     0   0   0     0   0   0     0   0   0     0   0   0     0   0   0     0   0   0     0   0   0     0   0   0     0   0   0     0   0   0     0   0   0     0   0   0     0   0   0     0   0   0     0   0   0     0   0   0     0   0   0     0   0   0     0   0   0     0   0   0     0   0   0     0   0   2     0   0   0     0   0   0     0   0   0     0   0   0     0   0   0     0   0   0     0   0   0     0   0   0     0   0   0     0   0   0     0   0   0     0   2   0     0   0   0     0   2   0     0   0   0     0   0   0     0   2   0     0   2   0     0   2   0     0   0   0     0   0   0     0   0   0     0   0   0     0   0   0     0   2   0     0   0   0     0   0   0     0   0   0     0   0   0     0   0   0     0   0   0     0   0   0     0   0   0     0   0   0     0   0   0     0   0   0     0   0   0     0   0   0     0   0   0     0   0   0     0   0   0     4   0   8     4   0   8     0   0   0     4   0   8     0   8  48     0   0   0     0   0  32     0   0   0     0   0   0     0   0  16     4   0   8     0   0   8     0   0   0     0   0   0     0   4   0     0   4   0     0   4   0     0   0   0     0   0   0     0   0   0     0   4   0     0   0   0     0   0   0     0   0   0     0   0   4     0   0   0     0   0   0     0   0   0     0   0   0     0   0   0     0   0   0     0   0   0     0   0   0     0   0   4     4   4   0     0   0   8     0   0   0     8   0   0     0   8   0     0   0   0     0   0   0     0   0   0     0   0   0     0   0   0     0   0   0     0   0   0     0   0   0     0   0   0     0   0   0     0   0   0     0   0   0     0   0   0     0   0   0     0   0   0     0   0   0     8   8   8
  0   0   0     0   0   0     0   0   0     0   0   0     0   0   0     0   0   0     0   0   0     0   0   0     0   0   0     0   0   0     0   0   0     0   0   0     0   0   0     0   0   0     0   0   0     0   0   0     0   0   0     0   0   0     0   0   0     0   0   0     0   0   0     0   0   0     0   0   0     0   0   0     0   0   0     0   0   0     0   0   0     0   0   0     8   8   0     0   0   8     0   0   8     0   0   0     8   8   0     0   0   0     0   0   8     4   0   0     4   0   0     0   0   0     0   4   0     0   0   4     0   0   4     0   4   0     0   4   0     0   4   8     0   0   0     0   0   0     0   0   0     0   0   0     0   4   0     0   0   0     0   0   8     0   0   8     0   0   0     2   0   0     0   2   0     0   2   0     0   0   0     0   0   0     0   0   0     0   0   0     0   0   0     0   0   0     0   0   0     0   0   0     0   0   0     0   0   0     0   0   2     0   0   0     0   0   0     0   0   0     0   0   0     0   0   0     0   0   0     0   0   0     0   0   0     0   0   0     0   0   0     0   0   0     0   0   0     0   0   0     0   0   0     0   0   0     0   0   0     0   0   0     0   0   0     0   0   0     0   0   0     0   0   0     0   0   0     0   0   0     0   0   0     0   0   0     0   0   0     0   0   0     0   0   0     0   0   0     0   0   0     0   0   0     0   0   0     0   0   0     0   0   0     0   0   0     0   0   2     0   0   0     0   0   0     0   0   0     0   0   0     0   0   0     0   0   0     0   0   0     0   0   0     0   2   0     0   2   0     0   2   0     0   2   0     0   0   0     0   2   0     0   0   0     0   0   0     0   2   0     0   0   0     0   0   0     0   0   0     0   2   0     0   0   0     0   0   0     0   0   0     0   2   0     0   0   0     0   0   0     0   0   0     0   0   0     0   0   0     0   0   0     0   0   0     0   0   0     0   0   0     2   0   0     0   0   0     0   0   0     0   0   0     0   0   4     0   0   0     0   0   0     0   0   0     0   0   0     0   0   0     0   0   0     0   0   0     0   0   0     0   0   0     0   8  16     0   8   0     0   0   0     4   0  16     4   0   8     4   0   8     4   0   8     0   0   0     0   4   0     0   4   0     0   0   0     0   0   0     0   0   0     0   4   0     0   0   0     0   0   0     0   0   0     0   0   4     0   0   0     0   0   0     0   0   0     0   0   0     0   0   0     0   0   0     0   0   0     0   0   0     0   0   0     4   4   0     0   0   0     8   0   0     0   0   0     0   0   0     0   0   0     0   0   0     0   0   0     0   0   0     0   0   0     0   0   0     0   0   0     0   0   0     0   0   0     0   0   0     0   0   0     0   0   0     0   0   0     0   0   0     0   0   0     0   0   0     8   8   8
  0   0   0     0   0   0     0   0   0     0   0   0     0   0   0     0   0   0     0   0   0     0   0   0     0   0   0     0   0   0     0   0   0     0   0   0     0   0   0     0   0   0     0   0   0     8   8   8     0   0   0     0   0   0     0   0   0     0   0   0     0   0   0     0   0   0     0   0   0     0   0   0     0   0   0     0   0   0     0   0   0     0   0   0     0   0   0     0   0   0     0   0   0     0   0   0     0   0   0     0   0   8     0   4   4     0   0   4     0   4   0     0   4   0     0   4   0     0   0   4     0   0   4     0   0   0     0   0   0     0   0   0     0   0   0     0   0   0     0   0   0     0   0   0     0   0   8     0   0   8     0   0   8     0   0   8     0   0   0     0   0   0     0   2   0     0   2   0     0   2   0     0   0   0     0   0   0     0   0   0     0   0   0     0   0   0     0   0   0     0   0   0     0   0   0     0   0   0     0   0   0     0   0   0     0   0   0     0   0   0     0   0   0     0   0   0     0   0   0     0   0   0     0   0   0     0   0   0     0   0   0     0   0   0     0   0   0     0   0   0     0   0   0     0   0   0     0   0   0     0   0   0     0   0   0     0   0   0     0   0   0     0   0   0     0   0   0     0   0   0     0   0   0     0   0   0     0   0   0     0   0   0     0   0   0     0   0   0     0   0   0     0   0   2     0   0   0     0   0   0     0   0   0     0   0   0     0   0   2     0   0   0     0   0   0     0   0   0     0   0   0     0   0   0     0   0   0     0   0   0     0   0   0     0   0   0     0   0   0     0   0   0     0   0   0     0   0   0     0   0   0     0   0   0     0   0   0     0   0   0     0   2   0     0   2   0     0   0   0     0   2   0     0   0   0     0   2   0     0   0   0     0   0   0     0   0   0     0   0   0     0   0   0     0   0   0     0   0   0     0   0   0     0   0   0     0   0   0     0   0   0     0   0   0     0   0   0     0   0   0     0   0   0     0   0   0     0   0   0     0   0   0     0   4   0     0   0   0     0   0   0     0   0   0     0   0   0     0   0   0     0   0   0     0   0   0     0   0   0     0   0  16     0   0  16     0   0  16     4   0   8     0   4   0     0   4   0     0   0   0     0   4   0     0   0   0     0   0   0     0   4   0     0   4   0     0   4   0     0   4   0     0   0   0     0   0   0     0   0   0     0   0   0     0   0   0     0   0   0     0   0   0     0   0   0     0   0   0     0   0   0     4   4   4     0   0   0     0   0   8     0   0   8     0   0   0     0   0   0     0   0   0     0   0   0     0   0   0     0   0   0     0   0   0     0   0   0     0   0   0     0   0   0     0   0   0     0   0   0     0   0   0     0   0   0     0   0   0     0   0   0     0   0   0     0   0   0     8   8   8
  0   0   0     0   0   0     0   0   0     0   0   0     0   0   0     0   0   0     0   0   0     0   0   0     0   0   0     0   0   0     0   0   0     0   0   0     0   0   0     0   0   0     0   0   0     0   0   0     0   0   0     0   0   0     0   0   0     0   0   0     0   0   0     0   0   0     0   0   0     0   0   0     0   0   0     0   0   0     0   0   0     0   0   0     0   0   0     8   8   8     0   0   0     4   4   4     0   0   0     0   0   0     2   2   0     2   2   0     0   4   4     0   0   0     0   4   0     0   4   0     0   0   0     0   0   0     0   0   0     0   0   0     0   0   0     0   4   8     0   0   0     0   0   0     4   0   0     0   0   0     0   0   8     0   4   0     0   0   0     0   2   0     0   2   0     0   2   0     0   0   0     0   0   0     0   0   0     0   0   0     0   0   0     0   0   0     0   0   0     0   0   0     0   0   0     0   0   0     0   0   0     0   0   0     0   0   0     0   0   0     0   0   0     0   0   0     0   0   0     0   0   0     0   0   0     0   0   0     0   0   0     0   0   0     0   0   0     0   0   0     0   0   0     0   0   0     0   0   0     0   0   0     0   0   0     0   0   0     0   0   0     0   0   0     0   0   0     0   0   0     0   0   0     0   0   0     0   0   0     0   0   0     0   0   0     0   0   0     0   0   0     0   0   0     0   0   0     0   0   0     0   0   0     0   0   0     0   0   0     0   0   2     0   0   0     0   0   0     0   0   0     0   0   0     0   0   0     0   0   0     0   2   0     0   0   0     0   0   0     0   0   0     0   0   0     0   0   0     0   0   0     0   0   0     0   0   0     0   2   0     0   0   0     0   0   0     0   0   0     0   2   0     0   2   0     0   0   0     0   0   0     0   0   0     0   0   0     0   0   0     0   0   0     0   0   0     0   0   0     0   0   0     0   0   0     0   0   0     0   0   0     0   0   0     0   0   0     2   0   0     0   0   0     0   0   0     0   0   0     0   0   4     0   0   0     0   4   0     0   0   0     0   0   0     0   0   0     0   0   0     0   0   0     4   0   8     0   0   0     0   8  48     0   0  32     0   0  32     0   8   0     0   0  16     4   0   8     0   4   0     0   4   0     0   0   0     0   0   0     0   4   0     0   4   0     0   4   0     0   4   0     0   0   0     0   0   0     0   0   4     0   0   0     0   0   0     0   0   0     0   0   0     0   0   0     0   0   0     0   0   0     0   0   0     0   4   0     0   0   0     0   0   0     0   0   0     8   8   8     0   0   0     0   0   0     0   0   0     0   0   0     0   0   0     0   0   0     0   0   0     0   0   0     0   0   0     0   0   0     0   0   0     0   0   0     0   0   0     0   0   0     0   0   0     0   0   0     8   8   8
  0   0   0     0   0   0     0   0   0     0   0   0     0   0   0     0   0   0     0   0   0     0   0   0     0   0   0     0   0   0     0   0   0     0   0   0     0   0   0     0   0   0     8   8   8     0   0   0     0   0   0     0   0   0     0   0   0     0   0   0     0   0   0     0   0   0     0   0   0     0   0   0     0   0   0     0   0   0     0   0   0     0   0   0     0   0   8     0   0   0     4   4   4     0   0   0     0   0   0     2   2   0     2   2   0     2   2   0     0   4   4     0   0   0     0   0   0     0   4   0     0   4   0     0   0   0     0   0   0     0   0   0     0   4   0     0   4   8     0   4   8     4   0   0     0   0   0     0   0   0     0   4   0     0   0   0     0   2   0     0   2   0     0   0   0     0   2   0     0   0   0     0   2   0     0   0   0     0   0   0     0   0   0     0   0   0     0   0   0     0   0   0     0   0   0     0   0   2     0   0   0     0   0   0     0   0   0     0   0   0     0   0   0     0   0   0     0   0   0     0   0   0     0   0   0     0   0   0     0   0   0     0   0   0     0   0   0     0   0   0     0   0   0     0   0   0     0   0   0     0   0   0     0   0   0     0   0   0     0   0   0     0   0   0     0   0   0     0   0   0     0   0   0     0   0   0     0   0   0     0   0   0     0   0   0     0   0   0     0   0   0     0   0   0     0   0   0     0   0   0     0   0   0     0   0   0     0   0   0     0   0   0     0   0   0     0   0   2     0   0   0     0   0   0     0   0   0     0   0   0     0   0   0     0   2   0     0   0   0     0   0   0     0   0   0     0   0   0     0   0   0     0   2   0     0   2   0     0   0   0     0   0   0     0   0   0     0   0   0     0   0   0     0   0   0     0   0   0     0   0   0     0   0   0     0   0   0     0   0   0     0   0   0     0   0   0     0   0   0     0   0   0     0   0   0     0   0   0     0   0   0     0   0   0     0   0   0     0   0   0     2   0   0     0   0   0     0   0   0     0   0   0     0   0   0     0   0   0     0   4   0     0   0   0     0   0   0     0   4   0     0   4   0     0   0   0     4   0   8     0   0   0     0   0   0     0   0   0     0   0  16     0   0  16     0   0  16     0   4   0     0   0   0     0   0   0     0   0   0     0   4   8     0   0   0     0   0   0     0   0   0     0   4   0     0   4   0     0   0   0     0   0   0     0   0   4     0   0   0     0   0   4     0   0   0     0   0   0     0   0   0     0   0   0     4   4   4     0   0   0     0   0   0     0   0   0     8   8   8     0   0   0     0   0   0     0   0   0     0   0   0     0   0   0     0   0   0     0   0   0     0   0   0     0   0   0     0   0   0     0   0   0     0   0   0     0   0   0     0   0   0     0   0   0     0   0   0     8   8   8
  0   0   0     0   0   0     0   0   0     0   0   0     0   0   0     0   0   0     0   0   0     0   0   0     0   0   0     0   0   0     0   0   0     0   0   0     0   0   0     0   0   0     0   0   0     0   0   0     0   0   0     0   0   0     0   0   0     0   0   0     0   0   0     0   0   0     0   0   0     0   0   0     0   0   0     0   0   0     0   0   0     8   8   0     0   0   0     0   0   8     4   4   4     0   0   0     0   0   0     6   6   4     4   4   4     4   0   0     4   0   0     0   0   0     0   0   0     0   0   0     0   4   0     0   4   0     0   4   8     0   0   0     0   4   0     0   4   0     0   0   8     0   8  16     0   0   0     0   0   8     0   4   0     2   0   0     0   0   0     0   0   0     0   0   0     0   2   0     0   0   0     0   0   0     0   0   0     0   0   0     0   0   0     0   0   0     0   0   0     0   0   0     0   0   0     0   0   0     0   0   0     0   0   0     0   0   0     0   0   0     0   0   0     0   0   0     0   0   0     0   0   0     0   0   0     0   0   0     0   0   0     0   0   0     0   0   0     0   0   0     0   0   0     0   0   0     0   0   0     0   0   0     0   0   0     0   0   0     0   0   0     0   0   0     0   0   0     0   0   0     0   0   0     0   0   0     0   0   0     0   0   0     0   0   0     0   0   0     0   0   0     0   0   0     0   0   0     0   0   0     0   0   0     0   0   0     0   0   0     0   0   0     0   0   0     0   0   0     0   0   0     0   0   0     0   0   0     0   0   0     0   2   0     0   2   0     0   0   0     0   0   0     0   0   0     0   0   0     0   0   0     0   2   0     0   2   0     0   0   0     0   0   0     0   0   0     0   0   0     0   0   0     0   0   0     0   0   0     0   0   0     0   0   0     0   0   0     0   0   0     0   0   0     0   0   0     0   0   0     0   0   0     0   0   0     0   0   0     0   0   0     0   0   0     0   0   0     0   0   0     2   0   0     2   0   0     0   0   0     0   0   0     0   0   0     0   0   0     0   0   0     0   0   0     0   4   0     0   0   0     0   0   0     0   0   0     0   4   0     0   4   0     0   0   0     0   0   8     4   0   8     0   0   0     0   0   0     0   0   0     0   0   8     0   0   0     0   0   0     0   0   0     0   0   8     0   0   0     0   0   0     0   0   0     0   0   0     0   0   0     0   0   4     0   0   4     0   4   0     0   0   0     0   4   0     0   0   4     0   0   0     0   4   4     4   0   0     0   0   0     0   8   8     8   8   8     0   0   0     0   0   0     0   0   0     0   0   0     0   0   0     0   0   0     0   0   0     0   0   0     0   0   0     0   0   0     0   0   0     0   0   0     0   0   0     0   0   0     0   0   0     0   0   0     0   0   0     8   8   8
  0   0   0     0   0   0     0   0   0     0   0   0     0   0   0     0   0   0     0   0   0     0   0   0     0   0   0     0   0   0     0   0   0     0   0   0     0   0   0     8   8   8     0   0   0     0   0   0     0   0   0     0   0   0     8   8   0     8   8   0     0   0   0     0   0   0     0   0   0     0   0   0     0   0   0     0   0   0     0   0   0     0   0   0     0   0   0     0   0   0     8   8   8     0   0   8     0   0   0     0   0   0     0   0   0     0   0   0     0   0   8     0   0   0     0   0   0     0   0   0     0   0   8     0   4   8     0   4   8     0   0   0     0   4   0     0   4   0     0   0   8     0   8  16     0   0   8     0   0   0     0   0   0     0   2   0     0   0   0     0   0   0     0   0   0     0   0   0     0   0   0     0   0   0     0   0   0     0   0   0     0   0   0     0   0   0     0   0   0     0   0   0     0   0   2     0   0   2     0   0   0     0   0   0     0   0   0     0   0   0     0   0   0     0   0   0     0   0   0     0   0   0     0   0   0     0   0   0     0   0   0     0   0   0     0   0   0     0   0   0     0   0   0     0   0   0     0   0   0     0   0   0     0   0   0     0   0   0     0   0   0     0   0   0     0   0   0     0   0   0     0   0   0     0   0   0     0   0   0     0   0   0     0   0   0     0   0   0     0   0   0     0   0   0     0   0   0     0   0   0     0   0   0     0   0   0     0   0   0     0   0   0     0   0   0     0   0   2     0   0   0     0   0   0     0   0   0     0   2   0     0   0   0     0   0   0     0   2   0     0   2   0     0   0   0     0   0   0     0   0   0     0   0   0     0   0   0     0   0   0     0   0   0     0   0   0     0   0   0     0   0   0     0   0   0     0   0   0     0   0   0     0   0   0     0   0   0     0   0   0     0   0   0     0   0   0     0   0   0     0   0   0     0   0   0     0   0   0     0   0   0     0   0   0     0   0   0     0   0   0     0   0   0     0   0   0     0   0   0     0   0   0     0   0   0     0   0   0     0   0   0     0   0   0     0   0   4     0   0   0     0   0   0     0   0   0     0   0   0     0   0   0     0   4   0     0   0   0     0   0   0     0   0   8     0   0   0     0   0   0     0   0   0     0   0   0     0   0   0     0   0   0     0   0   0     0   0   0     0   0   0     0   0   0     0   0   0     0   4   0     0   0   4     0   0   4     0   4   0     0   0   0     0   0   0     0   0   0     0   4   0     0   0   8     0   8   8     8   0   0     0   0   0     0   0   0     0   0   0     0   0   0     0   0   0     0   0   0     0   0   0     0   0   0     0   0   0     0   0   0     0   0   0     0   0   0     0   0   0     0   0   0     0   0   0     0   0   0     0   0   0     0   0   0     0   0   0     8   8   8
  0   0   0     0   0   0     0   0   0     0   0   0     0   0   0     0   0   0     0   0   0     0   0   0     0   0   0     0   0   0     0   0   0     0   0   0     0   0   0     0   8   8     0   0   0     0   0   0     0   0   0     8   0   0     0   0   0     0   0   8     0   0   0     0   0   0     0   0   0     0   0   0     0   0   0     0   0   0     8   0   0     8   8   0     0   8   0     0   0   0     0   0   0     0   0   0     8   8   0     0   0   0     0   0   0     0   0   0     4   0   0     0   0   0     0   0   0     0   0   0     4   0   0     0   0   0     0   0   0     0   0   0     0   4   0     0   4   0     4   0   8     0   8  16     0   0   0     0   4   0     0   0   0     0   2   0     0   0   0     0   0   0     0   0   0     0   0   0     0   0   0     0   0   0     0   0   0     0   0   0     0   0   0     0   0   0     0   0   0     0   0   2     0   0   2     0   0   2     0   0   2     0   0   0     0   0   0     0   0   0     0   0   0     0   0   0     0   0   0     0   0   0     0   0   0     0   0   0     0   0   0     0   0   0     0   0   0     0   0   0     0   0   0     0   0   0     0   0   0     0   0   0     0   0   0     0   0   0     0   0   0     0   0   0     0   0   0     0   0   0     0   0   0     0   0   0     0   0   0     0   0   0     0   0   0     0   0   0     0   0   0     0   0   0     0   0   0     0   0   0     0   0   0     0   0   0     0   0   2     0   0   2     0   0   2     0   0   0     0   0   0     0   0   0     0   0   0     0   2   0     0   2   0     0   0   0     0   0   0     0   0   0     0   0   0     0   0   0     0   0   0     0   0   0     0   0   0     0   0   0     0   0   0     0   0   0     0   0   0     0   0   0     0   0   0     0   0   0     0   0   0     0   0   0     0   0   0     0   0   0     0   0   0     0   0   0     0   0   0     0   0   0     0   0   0     0   0   0     0   0   0     0   0   0     0   0   0     0   0   0     0   0   0     0   0   0     0   0   0     2   0   0     2   0   0     0   0   0     2   0   0     0   0   0     0   0   0     0   0   0     0   0   0     0   0   0     0   0   0     0   0   0     0   0   0     0   4   0     0   0   0     4   0   8     4   0   8     4   0   0     4   0   0     0   0   8     0   0   0     0   0   0     0   4   0     0   0   0     0   0   0     0   0   0     0   4   0     0   0   0     0   0   4     0   0   4     0   0   0     0   0   0     0   0   0     0   0   0     0   0   0     0   0   0     0   8   0     0   0   0     0   0   0     0   0   0     0   0   0     0   0   0     0   0   0     0   0   0     0   0   0     0   0   0     0   0   0     0   0   0     0   0   0     0   0   0     0   0   0     0   0   0     0   0   0     0   0   0     0   0   0     0   0   0     0   0   0     8   8   8
  0   0   0     0   0   0     0   0   0     0   0   0     0   0   0     0   0   0     0   0   0     0   0   0     0   0   0     0   0   0     0   0   0     0   0   0     0   0   0     0   0   8     0   0   0     0   8   0     0   8   0     0   0   0     8   0   8     0   0   0     0   0   0     8   8   8     0   0   0     0   0   0     0   0   0     8   0   0     0   8   0     0   0   0     0   0   0     0   8   0     8   0   0     0   0   0     0   0   0     4   4   4     0   4   4     0   4   0     0   0   0     0   0   0     0   0   0     0   4   0     0   0   0     4   0   0     0   0   0     0   0   4     0   4   4     0   4   4     4   0   8     0   0   0     0   4   0     0   0   0     2   0   4     0   2   0     0   2   0     0   0   0     0   2   0     0   0   0     0   0   0     0   0   0     0   0   0     0   0   0     0   0   0     0   0   0     0   0   0     0   0   2     0   0   2     0   0   0     0   0   0     0   0   0     0   0   0     0   0   0     0   0   0     0   0   0     0   0   0     0   0   0     0   0   0     0   0   0     0   0   0     0   0   0     0   0   0     0   0   0     0   0   0     0   0   0     0   0   0     0   0   0     0   0   0     0   0   0     0   0   0     0   0   0     0   0   0     0   0   0     0   0   0     0   0   0     0   0   0     0   0   0     0   0   0     0   0   0     0   0   0     0   0   0     0   0   0     0   0   0     0   0   0     0   0   2     0   0   0     0   0   0     0   0   0     0   0   0     0   0   0     0   0   0     0   0   0     0   0   0     0   0   0     0   0   0     0   0   0     0   2   0     0   0   0     0   0   0     0   0   0     0   0   0     0   0   0     0   0   0     0   0   0     0   0   0     0   0   0     0   0   0     0   0   0     0   0   0     0   0   0     0   0   0     0   0   0     0   0   0     0   0   0     0   0   0     0   0   0     0   0   0     0   0   0     0   0   0     0   0   0     0   0   0     0   0   0     0   0   0     0   0   0     0   0   0     0   0   0     0   0   0     0   0   0     2   0   0     2   0   0     2   0   0     0   0   0     2   0   0     0   0   0     0   0   0     0   0   0     0   0   0     0   4   0     0   0   0     0   0   0     0   0   0     0   0   0     0   0   0     0   0   0     0   0   8     0   0   0     0   4   0     0   0   0     0   0   0     0   0   0     0   4   0     0   0   0     0   0   0     0   0   0     0   0   0     0   0   0     0   0   0     0   0   0     0   0   0     0   0   8     8   8   0     0   0  16     0   0   0     0   0   0     0   0   0     0   0   0     0   0   0     0   0   0     0   0   0     0   0   0     0   0   0     0   0   0     0   0   0     0   0   0     0   0   0     0   0   0     0   0   0     0   0   0     0   0   0     0   0   0     0   0   0     0   0   0     8   8   8
  0   0   0     0   0   0     0   0   0     0   0   0     0   0   0     0   0   0     0   0   0     0   0   0     0   0   0     0   0   0     0   0   0     0   0   0     8   0   0     0   0   8     0   0   0     0   0   8     0   8   0     0   0   0     0   0   8     8   0   0     0   0   0     0   0   8     0   0   8     0   0   0     8   0   0     8   0   0     8   0   0     8   8   0     8   8   0     0   0   0     0   0   0     0   8   8     0   0   0     0   0   4     0   4   4     0   0   0     0   0   0     0   0   0     0   0   0     4   4   8     0   0   0     4   0   0     0   0   8     0   0   0     0   4   0     0   4   0     4   0   8     0   4   0     0   0   0     0   0   0     2   0   0     0   2   0     0   2   0     0   0   0     0   0   0     0   0   0     0   0   0     0   0   0     0   0   0     0   0   0     0   0   0     0   0   0     0   0   0     0   0   0     0   0   0     0   0   0     0   0   0     0   0   0     0   0   0     0   0   0     0   0   0     0   0   0     0   0   0     0   0   0     0   0   0     0   0   0     0   0   0     0   0   0     0   0   0     0   0   0     0   0   0     0   0   0     0   0   0     0   0   0     0   0   0     0   0   0     0   0   0     0   0   0     0   0   0     0   0   0     0   0   0     0   0   0     0   0   0     0   0   0     0   0   0     0   0   0     0   0   2     0   0   2     0   0   2     0   0   0     0   0   0     0   0   0     0   0   2     0   0   2     0   0   2     0   0   2     0   0   0     0   0   0     0   0   0     0   0   0     0   0   0     0   0   0     0   0   0     0   0   0     0   0   0     0   0   0     0   0   0     0   0   0     0   0   0     0   0   0     0   0   0     0   0   0     0   0   0     0   0   0     0   0   0     0   0   0     0   0   0     0   0   0     0   0   0     0   0   0     0   0   0     0   0   0     0   0   0     0   0   0     0   0   0     0   0   0     0   0   0     0   0   0     0   0   0     0   0   0     0   0   0     0   0   0     0   0   0     0   0   0     2   0   0     2   0   0     2   0   0     0   0   0     2   0   0     2   0   0     0   2   0     0   2   0     0   2   0     0   0   0     0   0   4     0   0   0     0   4   0     0   0   0     0   0   0     0   0   0     0   0   0     0   0   0     0   0   0     0   0   0     0   0   0     0   0   0     0   0   0     0   0   0     0   4   0     0   0   0     0   0   0     0   4   0     0   4   0     4   0   0     0   0   0     0   0   0     0   0   8     0   0   0     0   0   0     0   0   0     0   0   0     0   0   0     0   0   0     0   0   0     0   0   0     0   0   0     0   0   0     0   0   0     0   0   0     0   0   0     0   0   0     0   0   0     0   0   0     0   0   0     0   0   0     0   0   0     0   0   0     0   0   0     0   0   0     8   8   8
  0   0   0     0   0   0     0   0   0     0   0   0     0   0   0     0   0   0     0   0   0     0   0   0     0   0   0     0   0   0     0   0   0     0   0   0     0   0   8     0   0   8     0   0   8     0   0   8     0   0   8     0   0   0     0   8   8     0   8   8     8   0   8     0   0   0     0   0   0     0   0   0     0   0   0     0   8   0     0   8   0     0   0   8     0   0   0     0   0   0     4   0   0     0   0   0     0   4   0     0   0   0     0   0   0     0   0   0     0   0   0     0   0   0     0   0   0     0   4   0     0   0   0     4   0   0     0   0   0     0   4   0     0   4   0     0   0   8     0   0   0     0   4   0     0   0   0     0   0   0     0   0   0     0   0   0     0   2   0     0   0   0     0   0   0     0   0   0     0   0   0     0   0   0     0   0   0     0   2   0     0   0   0     0   0   0     0   0   0     0   0   0     0   0   2     0   0   0     0   0   0     0   0   0     0   0   0     0   0   0     0   0   0     0   0   0     0   0   0     0   0   0     0   0   0     0   0   0     0   0   0     0   0   0     0   0   0     0   0   0     0   0   0     0   0   0     0   0   0     0   0   0     0   0   0     0   0   0     0   0   0     0   0   0     0   0   0     0   0   0     0   0   0     0   0   0     0   0   0     0   0   0     0   0   0     0   0   0     0   0   0     0   0   0     0   0   2     0   0   0     0   0   0     0   0   0     0   0   0     0   0   0     0   0   0     0   0   0     0   0   0     0   0   0     0   0   0     0   2   0     0   0   0     0   0   0     0   2   0     0   0   0     0   0   0     0   2   0     0   2   0     0   0   0     0   0   0     0   0   0     0   0   0     0   0   0     0   0   0     0   0   0     0   0   0     0   0   0     0   0   0     0   0   0     0   0   0     0   0   0     0   0   0     0   0   0     0   0   0     0   0   0     0   0   0     0   0   0     0   0   0     0   0   0     0   0   0     0   0   0     0   0   0     0   0   0     0   0   0     0   0   0     2   0   0     0   0   0     0   0   0     0   0   0     0   0   0     2   0   0     0   2   0     0   2   0     0   2   0     0   2   0     0   2   0     2   0   0     0   0   0     0   0   0     0   0   0     0   0   0     0   0   0     0   4   0     0   0   0     0   0   0     0   0   0     0   0   0     0   0   0     0   0   0     0   4   0     0   0   0     0   0   0     4   0   0     0   0   0     0   0   8     0   0   0     0   0   0     8   8   0     8   8   0     0   0   0     0   0   0     0   0   0     0   0   0     0   0   0     0   0   0     0   0   0     0   0   0     0   0   0     0   0   0     0   0   0     0   0   0     0   0   0     0   0   0     0   0   0     0   0   0     0   0   0     0   0   0     0   0   0     0   0   0     0   0   0     0   0   0
  0   0   0     0   0   0     0   0   0     0   0   0     0   0   0     0   0   0     0   0   0     0   0   0     0   0   0     0   0   0     0   0   0     8   0   8     0   8   0     0   0   0     0   0   0     8   0   0     8   0   0     0   8   8     0   8   8     8   8   8     8   8   0     0   0   8     0   0   8     4   4   0     4   4   4     0   0   4     4   4   4     4   4   4     4   4   4     0   4   4     0   4   4     0   0   4     0   0   0     0   0   0     0   0   0     0   0   0     0   0   0     0   0   0     0   4   0     0   0   0     0   0  16     4   0  24     0   4   0     0   4   0     0   0   0     0   0   8     0   0   0     0   4   0     0   0   0     0   0   0     0   0   0     0   0   0     0   2   0     0   0   0     0   0   0     0   0   0     0   0   0     0   0   0     0   0   0     0   0   0     0   0   0     0   0   0     0   0   0     0   0   0     0   0   2     0   0   2     0   0   0     0   0   0     0   0   0     0   0   0     0   0   0     0   0   0     0   0   0     0   0   0     0   0   0     0   0   0     0   0   0     0   0   0     0   0   0     0   0   0     0   0   0     0   0   0     0   0   0     0   0   0     0   0   0     0   0   0     0   0   0     0   0   0     0   0   0     0   0   0     0   0   0     0   0   0     0   0   0     0   0   0     0   0   0     0   0   0     0   0   0     0   0   0     0   0   0     0   0   0     0   0   0     0   0   0     0   0   0     0   0   0     0   0   2     0   0   0     0   0   0     0   2   0     0   0   0     0   0   0     0   0   0     0   0   0     0   0   0     0   0   0     0   0   0     0   0   0     0   0   0     0   0   0     0   0   0     0   0   0     0   0   0     0   0   0     0   0   0     0   0   0     0   0   0     0   0   0     0   0   0     0   0   0     0   0   0     0   0   0     0   0   0     0   0   0     0   0   0     0   0   0     0   0   0     0   0   0     0   0   0     0   0   0     0   0   0     0   0   0     0   0   0     0   0   0     0   0   0     0   0   0     2   0   0     0   0   0     0   0   0     0   0   0     0   0   0     0   0   0     2   0   0     0   0   0     0   0   0     0   2   0     0   2   0     0   0   0     0   0   0     0   0   0     0   0   0     0   0   4     0   0   4     0   0   0     0   0   0     0   0   0     0   0   0     0   0   0     0   0   0     0   0   4     0   0   0     0   4   0     0   0   0     0   0   0     0   0   0     0   0   0     0   0   8     8   8   0     0   0   0     0   0   0     0   0   0     0   0   0     0   0   0     0   0   0     0   0   0     0   0   0     0   0   0     0   0   0     0   0   0     0   0   0     0   0   0     0   0   0     0   0   0     0   0   0     0   0   0     0   0   0     0   0   0     0   0   0     0   0   0     0   0   0     0   0   0     0   0   0
  8   0   8     0   0   0     0   0   0     0   0   0     0   0   0     0   0   0     0   0   0     0   0   0     0   0   0     0   0   0     8   8   8     0   0   0     0   0   0     0   0   0     0   8   8     0   0   0     0   0   0     0   0   0     8   0   0     0   0   8     8   8   8     0   0   0     0   0   8     0   0   4     0   0   0     0   0   0     0   0   0     0   0   0     0   0   0     0   0   0     0   0   0     0   0   0     0   0   0     0   0   0     0   0   0     0   0   0     0   0   0     0   4   0     0   0   0     0   0   0     0   0  16     4   0  24     0   0   0     0   0   0     0   0   0     0   0   0     0   0   0     0   0   0     0   0   0     2   0   0     0   0   0     0   0   0     0   0   0     0   0   0     0   0   0     0   0   0     0   0   0     0   0   0     0   0   0     0   2   0     0   0   0     0   0   0     0   0   0     0   0   0     0   0   0     0   0   0     0   0   2     0   0   0     0   0   0     0   0   0     0   0   0     0   0   0     0   0   0     0   0   0     0   0   0     0   0   0     0   0   0     0   0   0     0   0   0     0   0   0     0   0   0     0   0   0     0   0   0     0   0   0     0   0   0     0   0   0     0   0   0     0   0   0     0   0   0     0   0   0     0   0   0     0   0   0     0   0   0     0   0   2     0   0   2     0   0   2     0   0   0     0   0   0     0   0   0     0   0   0     0   0   2     0   0   0     0   0   0     0   0   0     0   0   0     0   2   0     0   0   0     0   0   0     0   0   0     0   0   0     0   0   0     0   0   0     0   0   0     0   0   0     0   2   0     0   0   0     0   0   0     0   0   0     0   2   0     0   0   0     0   0   0     0   0   0     0   0   0     0   0   0     0   0   0     0   0   0     0   0   0     0   0   0     0   0   0     0   0   0     0   0   0     0   0   0     0   0   0     0   0   0     0   0   0     0   0   0     0   0   0     0   0   0     0   0   0     0   0   0     0   0   0     0   0   0     0   0   0     0   0   0     2   0   0     0   0   0     0   0   0     0   0   0     0   0   0     0   0   0     0   0   0     0   0   0     0   0   0     0   0   0     0   0   0     0   0   0     0   0   0     0   0   0     2   0   0     0   0   0     2   0   0     0   0   0     0   0   4     0   0   0     0   0   0     0   0   0     0   0   4     0   0   4     0   0   4     0   0   0     0   0   0     4   0   0     0   0   0     0   0   0     0   0   8     0   0   0     0   0  16     0   0   0     0   0   0     0   0   0     0   0   0     0   0   0     0   0   0     0   0   0     0   0   0     0   0   0     0   0   0     0   0   0     0   0   0     0   0   0     0   0   0     0   0   0     0   0   0     0   0   0     0   0   0     0   0   0     0   0   0     0   0   0     0   0   0     0   0   0
  0   0   0     0   0   0     0   0   0     0   0   0     0   0   0     0   0   0     0   0   0     0   0   0     0   0   0     0   8   8     0   0   0     0   0   0     0   0   0     0   0   0     0   0   0     0   0   8     0   8   8     0   0   0     0   0   0     0   0   0     0   0   0     0   0   0     8   8   8     0   0   4     0   0   0     0   0   0     0   0   0     0   0   0     0   0   0     0   0   0     0   0   0     0   0   0     0   0   0     0   0   0     0   0   0     0   0   0     0   0   0     0   0   0     0   0   0     0   0   0     0   0  16     0   8  16     0   0   0     0   0   0     0   4   0     0   0   0     0   0   0     0   0   0     0   0   4     2   0   0     0   0   0     0   2   0     0   0   0     0   0   0     0   0   0     0   0   0     0   0   0     0   0   0     0   0   0     0   2   0     0   2   0     0   0   0     0   0   0     0   0   0     0   0   0     0   0   0     0   0   0     0   0   0     0   0   0     0   0   0     0   0   0     0   0   0     0   0   0     0   0   0     0   0   0     0   0   0     0   0   0     0   0   0     0   0   0     0   0   0     0   0   0     0   0   0     0   0   0     0   0   0     0   0   0     0   0   0     0   0   0     0   0   0     0   0   0     0   0   0     0   0   0     0   0   0     0   0   0     0   0   0     0   0   0     0   0   0     0   0   0     0   0   0     0   0   2     0   0   2     0   0   0     0   0   2     0   0   0     0   2   0     0   2   0     0   2   0     0   2   0     0   2   0     0   2   0     0   2   0     0   2   0     0   2   0     0   2   0     0   2   0     0   2   0     0   2   0     0   0   0     0   0   0     0   2   0     0   0   0     0   0   0     0   0   0     0   0   0     0   0   0     0   0   0     0   0   0     0   0   0     0   0   0     0   0   0     2   0   0     2   0   0     0   0   0     0   0   0     0   0   0     0   0   0     0   0   0     0   0   0     0   0   0     0   0   0     0   0   0     0   0   0     0   0   0     0   0   0     0   0   0     0   0   0     0   0   0     0   0   0     2   0   0     2   0   0     2   0   0     0   0   0     0   0   0     0   0   0     0   0   0     2   0   0     2   0   0     2   0   0     0   0   0     0   0   0     0   0   0     0   0   0     0   0   0     2   0   0     0   0   0     0   0   0     0   0   0     0   0   4     0   0   4     0   0   4     0   0   4     0   0   0     0   0   0     4   0   0     0   0   8     0   8   0     8   0   0     0   0   0     0   0   0     0   0   0     0   0   0     0   0   0     0   0   0     0   0   0     0   0   0     0   0   0     0   0   0     0   0   0     0   0   0     0   0   0     0   0   0     0   0   0     0   0   0     0   0   0     0   0   0     0   0   0     0   0   0     0   0   0     0   0   0     0   0   0     0   0   0
  0   0   0     0   0   0     0   0   0     0   0   0     0   0   0     0   0   0     0   0   0     0   0   0     8   0   0     0   0   0     0   0   0     0   0   0     0   0   0     0   0   0     0   0   0     0   0   0     0   0   8     0   8   8     8   0   0     0   0   0     0   0   0     0   0   0     0   0   0     4   4   4     0   0   0     0   0   0     0   0   0     0   0   0     0   0   0     0   0   0     0   0   0     0   0   0     0   0   0     0   0   0     0   0   0     0   0   4     0   0   0     0   4   0     0   4   0     4   0   8     0   0   0     0   0  16     0   0   0     0   0   0     0   0   0     0   0   0     0   4   0     0   0   0     0   0   4     0   0   0     0   0   0     0   2   0     0   0   0     0   0   0     0   0   0     0   2   0     0   0   0     0   0   0     0   0   0     0   0   0     0   2   0     0   2   0     0   0   0     0   0   0     0   0   0     0   0   0     0   0   0     0   0   0     0   0   0     0   0   0     0   0   0     0   0   0     0   0   0     0   0   0     0   0   0     0   0   0     0   0   0     0   0   0     0   0   0     0   0   0     0   0   0     0   0   0     0   0   0     0   0   0     0   0   0     0   0   0     0   0   0     0   0   0     0   0   0     0   0   0     0   0   0     0   0   0     0   0   0     0   0   0     0   0   0     0   0   0     0   0   0     0   0   0     0   0   0     0   0   0     0   0   0     0   0   0     0   0   0     0   2   0     0   0   0     0   0   0     0   0   0     0   0   0     0   0   0     0   2   0     0   2   0     0   2   0     0   2   0     0   2   0     0   2   0     0   0   0     0   0   0     0   0   0     0   0   0     0   0   0     0   0   0     0   0   0     0   0   0     0   0   0     0   0   0     0   0   0     0   0   0     0   0   0     0   0   0     0   0   0     0   0   0     0   0   0     0   0   0     0   0   0     0   0   0     0   0   0     0   0   0     0   0   0     0   0   0     0   0   0     0   0   0     0   0   0     0   0   0     0   0   0     0   0   0     0   0   0     0   0   0     2   0   0     0   0   0     2   0   0     0   0   0     0   0   0     0   0   0     0   0   0     0   0   0     0   0   0     0   0   0     0   0   0     2   0   0     0   0   0     0   0   0     0   0   0     2   0   0     0   0   0     0   0   4     0   0   0     0   0   0     0   0   0     0   0   4     0   0   4     0   0   0     0   4   0     0   0   0     0   0   8     0   8   0     0   0   0     0   0   0     0   0   0     0   0   0     0   0   0     0   0   0     0   0   0     0   0   0     0   0   0     0   0   0     0   0   0     0   0   0     0   0   0     0   0   0     0   0   0     0   0   0     0   0   0     0   0   0     0   0   0     0   0   0     0   0   0     0   0   0     0   0   0     0   0   0     0   8   0
  0   0   0     0   0   0     0   0   0     0   0   0     0   0   0     0   0   0     0   0   0     0   0   0     8   0   0     0   0   0     0   0   0     0   0   0     0   8   0     0   8   0     0   0   0     0   0   0     0   8   8     0   0   0     0   0   0     0   0   0     0   0   0     0   0   0     0   0   0     4   0   0     0   4   4     4   4   4     0   0   0     0   0   0     0   0   0     0   0   0     0   0   0     0   0   0     0   0   0     0   0   0     0   0   0     0   0   4     0   0   0     0   4   0     0   0   0     4   0   8     0   0   0     0   8  16     0   4   0     0   4   0     0   0   0     0   4   0     0   0   0     0   0   0     0   0   0     0   0   0     0   0   0     0   2   0     0   0   0     0   0   0     0   0   0     0   2   0     0   2   0     0   2   0     0   2   0     0   2   0     0   2   0     0   0   0     0   0   0     0   0   0     0   0   0     0   0   0     0   0   0     0   0   0     0   0   0     0   0   2     0   0   0     0   0   0     0   0   0     0   0   0     0   0   0     0   0   0     0   0   0     0   0   0     0   0   0     0   0   0     0   0   0     0   0   0     0   0   0     0   0   0     0   0   0     0   0   0     0   0   0     0   0   0     0   0   0     0   0   0     0   0   0     0   0   0     0   0   0     0   0   0     0   0   0     0   0   0     0   0   2     0   0   0     0   0   0     0   0   0     0   0   0     0   2   0     0   0   0     0   0   0     0   0   0     0   0   0     0   0   0     0   0   0     0   0   0     0   0   0     0   2   0     0   2   0     0   0   0     0   0   0     0   0   0     0   0   0     0   0   0     0   0   0     0   0   0     0   0   0     0   2   0     0   2   0     0   0   0     0   0   0     0   0   0     0   0   0     0   0   0     0   0   0     0   0   0     0   0   0     0   0   0     0   0   0     0   0   0     0   0   0     0   0   0     0   0   0     0   0   0     0   0   0     0   0   0     0   0   0     0   0   0     2   0   0     2   0   0     2   0   0     2   0   0     0   0   0     0   0   0     0   0   0     0   0   0     2   0   0     0   0   0     0   0   0     0   0   0     0   0   0     0   0   0     0   0   0     0   0   0     0   0   0     0   0   0     0   0   0     2   0   4     2   0   0     0   0   0     0   0   0     0   0   4     0   0   4     0   0   0     0   0   0     0   0   0     0   0   0     0   0   4     0   0   4     0   0   0     4   0   8     0   0   0     0   0   0     0   0   0     0   0   0     0   0   0     0   0   0     0   0   0     0   0   0     0   0   0     0   0   0     0   0   0     0   0   0     0   0   0     0   0   0     0   0   0     0   0   0     0   0   0     0   0   0     0   0   0     0   0   0     0   0   0     0   0   0     0   0   0     0   0   0     0   0   0     8   8   8
  0   0   0     0   0   0     0   0   0     0   0   0     0   0   0     0   0   0     0   0   0     0   0   0     8   0   8     0   0   0     0   0   0     0   0   0     0   0   0     0   0   0     0   8   0     0   0   0     8   0   0     8   0   0     8   0   0     0   0   0     0   0   0     0   0   0     0   0   0     0   0   0     0   0   0     0   0   0     0   0   0     0   4   0     0   0   0     0   0   0     0   0   0     0   0   0     0   0   0     0   0   0     0   0   0     0   0   0     0   0   0     0   4   0     0   0   0     0   0   0     0   0  32     0   8  16     0   4   0     0   0   0     0   0   0     0   0   0     0   0   4     0   0   4     2   0   0     0   0   0     0   0   0     0   0   0     0   2   0     0   0   0     0   0   0     0   0   0     0   2   0     0   0   0     0   0   0     0   0   0     0   0   0     0   0   0     0   0   0     0   0   0     0   0   0     0   0   0     0   0   0     0   0   0     0   0   0     0   0   0     0   0   2     0   0   0     0   0   0     0   0   0     0   0   0     0   0   0     0   0   0     0   0   0     0   0   0     0   0   0     0   0   0     0   0   0     0   0   0     0   0   0     0   0   0     0   0   0     0   0   0     0   0   0     0   0   0     0   0   0     0   0   0     0   0   0     0   0   0     0   0   0     0   0   2     0   0   0     0   0   0     0   0   0     0   0   2     0   0   0     0   0   0     0   0   0     0   0   0     0   0   0     0   0   0     0   0   0     0   0   0     0   0   0     0   0   0     0   0   0     0   0   0     0   0   0     0   0   0     0   0   0     0   0   0     0   0   0     0   0   0     0   0   0     0   0   0     0   0   0     0   2   0     0   2   0     0   0   0     0   0   0     0   0   0     0   0   0     0   0   0     0   0   0     0   0   0     0   0   0     0   0   0     0   0   0     0   0   0     0   0   0     0   0   0     0   0   0     0   0   0     0   0   0     0   0   0     0   0   0     0   0   0     0   0   0     0   0   0     0   0   0     0   0   0     0   0   0     2   0   0     0   0   0     0   0   0     0   0   0     0   0   0     0   0   0     0   0   0     2   0   0     0   0   0     0   0   0     0   0   0     0   0   0     0   0   0     0   0   0     0   0   0     0   0   0     0   0   0     0   0   4     0   0   0     0   0   0     0   4   0     0   4   0     0   4   0     0   0   0     0   0   0     0   0   4     0   0   4     0   4   4     0   0   8     0   0   0     0   0   0     0   0   0     0   0   0     0   0   0     0   0   0     0   0   0     0   0   0     0   0   0     0   0   0     0   0   0     0   0   0     0   0   0     0   0   0     0   0   0     0   0   0     0   0   0     0   0   0     0   0   0     0   0   0     0   0   0     0   0   0     0   0   0     0   0   0     8   8   8
  0   0   0     0   0   0     0   0   0     0   0   0     0   0   0     0   0   0     0   0   0     0   0   0     8   0   0     0   8   0     0   0   0     0   0   0     0   0   8     0   0   8     0   0   8     0   0   8     8   0   0     0   0   0     8   0   0     0   0   0     0   0   0     0   0   0     0   0   0     0   0   0     0   0   0     0   0   0     0   4   0     0   0   4     0   0   0     0   0   0     0   0   0     0   0   0     0   0   0     0   0   0     0   0   0     0   0   0     0   0   0     0   4   0     0   0   0     4   8  24     0   0  32     4   8  24     0   0   0     0   0   0     0   0   0     0   0   0     0   0   0     0   0   0     2   0   0     0   0   0     0   0   0     0   0   0     0   0   0     0   2   0     0   0   0     0   2   0     0   2   0     0   0   0     0   0   0     0   0   0     0   0   0     0   0   0     0   0   0     0   0   0     0   0   0     0   0   0     0   0   0     0   0   0     0   0   0     0   0   0     0   0   0     0   0   0     0   0   0     0   0   0     0   0   0     0   0   0     0   0   0     0   0   0     0   0   0     0   0   0     0   0   0     0   0   0     0   0   0     0   0   0     0   0   0     0   0   0     0   0   0     0   0   0     0   0   0     0   0   0     0   0   0     0   0   2     0   0   0     0   0   0     0   0   0     0   0   0     0   0   2     0   0   0     0   0   0     0   0   0     0   0   0     0   0   0     0   0   2     0   0   0     0   0   0     0   0   0     0   0   0     0   2   0     0   0   0     0   0   0     0   0   0     0   0   0     0   0   0     0   0   0     0   0   0     0   2   0     0   2   0     0   0   0     0   0   0     0   0   0     0   2   0     0   2   0     0   0   0     0   0   0     0   0   0     0   0   0     0   0   0     0   0   0     0   0   0     0   0   0     0   0   0     0   0   0     0   0   0     0   0   0     0   0   0     0   0   0     0   0   0     0   0   0     0   0   0     0   0   0     0   0   0     0   0   0     2   0   0     2   0   0     2   0   0     2   0   0     0   0   0     0   0   0     0   0   0     0   0   0     0   0   0     0   0   4     0   0   4     0   0   0     0   0   0     0   0   0     0   0   0     0   0   0     0   0   0     0   0   0     0   0   4     0   4   0     0   4   0     0   4   0     0   4   0     0   4   0     4   4   8     4   0   8     0   0   0     0   4   0     0   0   4     0   0   0     0   0   0     0   0   4     0   0   0     0   0   0     0   0   0     0   0   0     0   0   0     0   0   0     0   0   0     0   0   0     0   0   0     0   0   0     0   0   0     0   0   0     0   0   0     0   0   0     0   0   0     0   0   0     0   0   0     0   0   0     0   0   0     0   0   0     0   0   0     0   0   0     0   0   0     0   0   0     0   0   0     8   8   8
  8   8   8     0   0   0     0   0   0     0   0   0     0   0   0     0   0   0     0   0   0     8   0   0     8   0   8     0   0   0     0   0   0     8   0   0     0   0   0     0   0   0     8   0   0     8   0   0     0   0   0     8   0   0     0   0   0     0   0   0     0   0   0     0   0   0     0   0   0     0   0   0     0   0   0     4   4   0     0   0   4     0   0   0     0   0   0     0   0   0     0   0   4     0   0   0     0   4   0     0   0   0     0   0   0     0   0   0     0   0   0     0   4   0     0   0   0     0   0   0     0   0   0     4   8  24     0   0   0     0   0   4     0   0   0     0   0   0     0   0   0     0   0   0     2   0   0     0   0   0     0   0   0     0   0   0     0   0   0     0   0   0     0   0   0     0   0   0     0   0   0     0   0   0     0   0   0     0   0   0     0   0   0     0   0   0     0   0   0     0   0   0     0   0   0     0   0   0     0   0   0     0   0   0     0   0   0     0   0   0     0   0   0     0   0   0     0   0   0     0   0   0     0   0   2     0   0   0     0   0   0     0   0   0     0   0   0     0   0   0     0   0   0     0   0   0     0   0   0     0   0   0     0   0   0     0   0   0     0   0   0     0   0   0     0   0   0     0   0   2     0   0   0     0   0   0     0   0   0     0   0   0     0   0   2     0   0   0     0   0   0     0   0   0     0   0   0     0   0   0     0   0   2     0   0   2     0   0   0     0   0   0     0   0   0     0   0   0     0   0   0     0   0   0     0   0   0     0   0   0     0   0   0     0   0   0     0   0   0     0   0   0     0   0   0     0   2   0     0   2   0     0   0   0     0   0   0     0   0   0     0   0   0     0   0   0     0   0   0     0   0   0     0   0   0     0   0   0     0   0   0     0   0   0     0   0   0     0   0   0     0   0   0     0   0   0     0   0   0     0   0   0     0   0   0     0   0   0     0   0   0     0   0   0     0   0   0     0   0   0     0   0   0     0   0   0     0   0   0     2   0   0     0   0   0     0   0   0     0   0   0     0   0   0     0   0   0     0   0   0     0   0   0     0   0   0     0   0   0     0   0   0     0   0   0     0   0   0     0   0   4     0   0   0     0   0   0     0   0   0     0   0   0     0   0   0     0   4   0     0   4   8     4   0   8     4   0   0     0   0   0     4   0   8     0   0   0     0   4   0     0   0   0     0   0   4     0   0   0     0   0   0     0   0   0     0   0   4     0   0   8     0   0   8     8   8   0     0   0   0     0   0   0     0   0   0     0   0   0     0   0   0     0   0   0     0   0   0     0   0   0     0   0   0     0   0   0     0   0   0     0   0   0     0   0   0     0   0   0     0   0   0     0   0   0     0   0   0     0   0   0     0   0   0     0   0   0     8   8   8
  8   8   8     0   0   0     0   0   0     0   0   0     0   0   0     0   0   0     0   0   0     8   0   8     8   0   8     0   0   0     8   0   8     0   0   0     0   0   0     0   0   0     0   0   0     8   0   0     0   0   0     8   0   0     8   0   0     0   0   0     0   0   0     0   0   0     0   0   0     0   0   0     0   0   0     0   0   0     0   0   0     0   0   0     0   0   0     0   0   4     0   4   0     0   4   0     0   4   0     0   4   0     0   4   0     0   0   0     0   0   0     0   4   0     0   0   0     4   0   8     0   0  16     4   4   8     0   0   0     0   0   0     0   0   0     0   0   0     0   0   4     0   0   4     2   0   0     0   0   0     0   0   0     0   0   0     0   0   0     0   0   0     0   0   0     0   0   0     0   0   0     0   0   0     0   0   0     0   0   0     0   0   0     0   0   0     0   0   0     0   0   0     0   0   0     0   0   0     0   0   0     0   0   0     0   0   0     0   0   0     0   0   0     0   0   0     0   0   0     0   0   0     0   0   0     0   0   2     0   0   0     0   0   2     0   0   2     0   0   2     0   0   2     0   0   2     0   0   2     0   0   2     0   0   2     0   0   2     0   0   2     0   0   2     0   0   0     0   0   0     0   0   0     0   0   2     0   0   0     0   0   0     0   0   0     0   0   0     0   0   0     0   0   0     0   0   0     0   0   2     0   0   0     0   0   0     0   0   0     0   0   0     0   2   0     0   0   0     0   0   0     0   0   0     0   2   0     0   2   0     0   0   0     0   2   0     0   0   0     0   0   0     0   0   0     0   0   0     0   0   0     0   0   0     0   0   0     0   0   0     0   0   0     0   0   0     0   0   0     0   0   0     0   0   0     0   0   0     0   0   0     0   0   0     0   0   0     0   0   0     0   0   0     0   0   0     0   0   0     0   0   0     0   0   0     0   0   0     0   0   0     0   0   0     0   0   0     0   0   0     0   0   0     0   0   0     0   0   0     0   0   0     0   0   0     0   0   0     0   0   0     0   0   0     0   0   0     0   0   0     0   0   0     0   0   0     0   0   0     0   0   0     0   0   0     0   0   0     0   0   0     0   0   0     0   0   4     0   0   0     0   0   0     0   0   4     0   4   0     0   0   0     0   0   8     0   0   8     0   0   0     0   0   0     0   0   0     0   0   0     0   0   0     0   0   4     0   0   0     0   0   0     0   0   0     4   4   4     0   0   0     0   0   0     0   0   8     8   8   0     0   0   0     0   0   0     0   0   0     0   0   0     0   0   0     0   0   0     0   0   0     0   0   0     0   0   0     0   0   0     0   0   0     0   0   0     0   0   0     0   0   0     0   0   0     0   0   0     0   0   0     0   0   0     0   0   0     8   8   8
  0   0   0     0   0   0     0   0   0     0   0   0     0   0   0     0   0   0     8   0   0     0   8   0     0   0   8     0   0   0     0   0   0     0   0   0     0   0   0     0   0   0     0   0   0     0   0   0     0   0   0     8   0   0     8   0   0     0   0   0     0   0   0     0   0   0     0   0   0     0   0   0     4   4   4     0   0   0     0   0   0     0   0   0     0   0   0     0   0   0     0   0   0     0   0   0     0   4   0     0   4   0     0   4   0     0   4   0     0   4   0     0   4   0     0   4   0     0   4   0     0   0   0     0   4   0     0   0   0     0   0   0     0   0   0     0   0   0     0   0   0     0   0   0     2   0   0     0   0   0     0   0   0     0   0   0     0   0   0     0   0   0     0   0   0     0   0   0     0   0   0     0   0   0     0   0   0     0   0   0     0   0   0     0   0   0     0   0   0     0   0   0     0   0   0     0   0   0     0   0   0     0   0   0     0   0   0     0   0   0     0   0   0     0   0   0     0   0   0     0   0   0     0   0   0     0   0   0     0   0   0     0   0   0     0   0   0     0   0   0     0   0   0     0   0   0     0   0   0     0   0   0     0   0   0     0   0   0     0   0   2     0   0   2     0   0   2     0   0   0     0   0   0     0   0   0     0   0   0     0   0   0     0   0   0     0   0   0     0   0   0     0   0   0     0   0   2     0   0   0     0   0   0     0   2   0     0   0   0     0   0   0     0   0   0     0   2   0     0   0   0     0   0   0     0   0   0     0   0   0     0   0   0     0   2   0     0   0   0     0   0   0     0   0   0     0   0   0     0   0   0     0   0   0     0   0   0     0   0   0     0   0   0     0   0   0     0   0   0     0   0   0     0   0   0     0   0   0     0   0   0     0   0   0     0   0   0     0   0   0     0   0   0     0   0   0     0   0   0     0   0   0     0   0   0     0   0   0     0   0   0     0   0   0     2   0   0     2   0   0     2   0   0     0   0   0     0   0   0     2   0   0     0   0   0     2   0   0     2   0   0     0   0   0     0   0   0     0   0   0     0   0   0     0   0   0     0   0   0     0   0   0     0   0   0     0   0   4     0   0   0     0   4   0     0   0   0     0   4   0     0   0   4     0   0   0     0   4   0     0   4   0     0   0   0     0   0   0     0   0   0     0   0   0     0   0   0     0   0   0     0   0   0     0   4   0     0   0   4     0   0   4     0   0   0     4   4   4     0   0   0     0   0   0     0   0   8     8   8   0     0   0   0     0   0   0     0   0   0     0   0   0     0   0   0     0   0   0     0   0   0     0   0   0     0   0   0     0   0   0     0   0   0     0   0   0     0   0   0     0   0   0     0   0   0     0   0   0     0   0   0     0   0   0     0   0   0     0   0   0
  0   0   0     0   0   0     0   0   0     0   0   0     8   0   0     0   8   8     0   0   0     0   0   0     0   0   8     8   0   0     0   0   0     0   0   0     0   0   0     0   0   0     0   0   0     0   0   0     0   0   0     0   0   0     0   0   0     0   0   0     0   0   0     0   0   0     0   0   0     0   0   0     4   4  12     0   0   0     2   0   0     2   2   2     0   2   2     2   0   0     0   0   0     0   0   0     0   0   0     0   0   0     0   0   0     0   4   0     0   0   0     0   4   0     0   0   0     0   0   0     0   0   0     0   0   0     0   0   0     0   0   0     0   0   0     0   0   4     0   0   0     0   0   0     2   0   0     0   0   0     0   0   0     0   0   0     0   0   0     0   2   0     0   0   0     0   0   0     0   0   0     0   0   0     0   0   0     0   0   0     0   0   0     0   0   0     0   0   0     0   0   0     0   0   0     0   0   0     0   0   0     0   0   0     0   0   0     0   0   0     0   0   0     0   0   2     0   0   2     0   0   0     0   0   2     0   0   2     0   0   2     0   0   2     0   0   0     0   0   0     0   0   0     0   0   0     0   0   2     0   0   2     0   0   0     0   0   0     0   0   0     0   0   0     0   0   0     0   0   0     0   0   0     0   0   0     0   0   0     0   0   0     0   0   0     0   0   0     0   0   2     0   0   2     0   0   0     0   0   0     0   0   0     0   2   0     0   2   0     0   2   0     0   2   0     0   2   0     0   2   0     0   0   0     0   0   0     0   0   0     0   0   0     0   2   0     0   0   0     0   0   0     0   0   0     0   0   0     0   0   0     0   2   0     0   2   0     0   2   0     0   0   0     0   0   0     0   0   0     0   0   0     0   0   0     0   0   0     0   0   0     0   0   0     0   0   0     0   0   0     0   0   0     0   0   0     0   0   0     0   0   0     0   0   0     0   0   0     0   0   0     0   0   0     0   0   0     0   0   0     0   0   0     0   0   0     0   0   0     0   0   0     0   0   0     2   0   0     2   0   0     0   0   0     0   0   0     0   0   0     0   0   0     0   0   0     0   0   0     0   0   0     0   0   0     0   0   4     0   0   0     0   0   0     0   0   0     0   0   0     0   0   0     0   0   4     0   0   0     0   0   0     0   0   0     0   0   0     0   0   0     0   0   0     0   0   4     0   0   0     0   0   4     0   0   4     0   0   4     0   4   0     0   0   0     0   0   8     0   0   8     0   0   8     0   0   0     8   8   0     0   0   0     0   0   0     0   0   0     0   0   0     0   0   0     0   0   0     0   0   0     0   0   0     0   0   0     0   0   0     0   0   0     0   0   0     0   0   0     0   0   0     0   0   0     0   0   0     0   0   0     0   0   0     0   0   0     0   0   0
  0   0   0     0   0   0     0   0   0     0   0   0     0   8   8     0   0   0     0   0   0     0   0   0     0   8   8     0   0   0     8   0   0     0   0   0     0   0   0     8   0   0     8   0   0     0   0   0     8   0   0     0   0   0     0   0   0     0   0   0     0   0   0     0   0   0     0   0   0     0   0   0     0   0   0     4   4   0     2   0   0     2   2   2     2   2   2     2   0   0     0   0   0     0   0   0     0   0   4     0   0   4     0   0   4     0   4   0     0   0   0     0   0   4     2   0   0     2   0   4     0   0   0     0   0   4     0   0   0     0   0   0     0   0   0     0   0   0     0   0   0     0   0   0     2   0   0     0   0   0     0   0   0     0   0   0     0   0   0     0   0   0     0   0   0     0   0   0     0   2   0     0   2   0     0   0   0     0   0   0     0   0   0     0   0   0     0   0   0     0   0   0     0   0   0     0   0   0     0   0   0     0   0   0     0   0   0     0   0   0     0   0   2     0   0   0     0   0   0     0   0   0     0   0   0     0   0   0     0   0   0     0   0   0     0   0   0     0   0   0     0   0   0     0   0   0     0   0   0     0   0   0     0   0   0     0   0   0     0   0   0     0   0   0     0   0   0     0   0   0     0   0   0     0   0   0     0   0   0     0   0   0     0   0   0     0   2   0     0   2   0     0   2   0     0   0   0     0   0   2     0   0   0     0   0   0     0   0   0     0   2   0     0   2   0     0   2   0     0   0   0     0   0   0     0   0   0     0   0   0     0   0   0     0   2   0     0   0   0     0   0   0     0   0   0     0   0   0     0   2   0     0   2   0     0   2   0     0   2   0     0   2   0     0   2   0     0   0   0     0   0   0     0   0   0     0   0   0     0   0   0     0   0   0     0   0   0     0   0   0     0   0   0     0   0   0     0   0   0     0   0   0     0   0   0     0   0   0     0   0   0     2   0   0     0   0   0     0   0   0     0   0   0     2   0   0     0   0   0     0   0   0     0   0   0     0   0   0     0   0   0     0   0   0     2   0   0     0   0   0     0   0   0     0   0   0     0   0   0     0   0   0     0   0   0     0   0   0     0   0   0     0   0   4     0   0   4     0   0   0     0   0   0     0   0   0     0   0   0     0   0   0     0   0   0     0   0   0     0   0   0     0   0   0     0   0   0     0   0   0     0   0   0     0   0   4     0   0   0     0   4   0     0   0   0     0   0   0     8   0   0     0   8   0     0   8   0     0   0   0     0   0   0     0   0   0     0   0   0     0   0   0     0   0   0     0   0   0     0   0   0     0   0   0     0   0   0     0   0   0     0   0   0     0   0   0     0   0   0     0   0   0     0   0   0     0   0   0     0   0   0     0   0   0     0   0   0     0   0   0
  0   0   0     0   0   0     0   0   0     8   0   0     0   0   0     0   0   0     0   0   0     0   0   0     0   0   0     0   8   8     0   0   0     8   0   0     8   0   0     0   0   0     0   0   0     0   0   0     8   0   0     0   0   0     0   0   0     8   0   0     8   0   0     0   0   8     0   0   8     0   0   0     0   0   8     0   0   8     4   0   0     0   0   0     2   0   0     2   0   0     0   0   0     0   0   0     0   0   0     0   0   0     0   0   0     0   0   4     0   0   0     0   0   0     2   0   0     2   0   0     0   0   0     0   0   0     0   0   0     0   0   0     0   0   0     0   0   0     0   0   0     0   0   0     0   0   0     0   0   0     0   0   0     0   0   0     0   0   0     0   2   0     0   0   0     0   2   0     0   0   0     0   0   0     0   0   0     0   0   0     0   0   0     0   0   0     0   0   0     0   0   0     0   0   0     0   0   0     0   0   0     0   0   0     0   0   0     0   0   0     0   0   2     0   0   0     0   0   0     0   0   0     0   0   0     0   0   0     0   0   0     0   0   0     0   0   0     0   0   0     0   0   0     0   0   0     0   0   0     0   0   0     0   0   0     0   0   0     0   0   0     0   0   2     0   0   2     0   0   0     0   0   0     0   0   0     0   0   2     0   0   0     0   0   0     0   0   0     0   0   0     0   0   0     0   0   2     0   0   2     0   0   0     0   0   0     0   0   0     0   0   0     0   0   0     0   0   0     0   2   0     0   0   0     0   0   0     0   0   0     0   0   0     0   0   0     0   0   0     0   2   0     0   0   0     0   0   0     0   2   0     0   0   0     0   2   0     0   0   0     0   2   0     0   2   0     0   0   0     0   0   0     0   0   0     0   0   0     0   0   0     0   0   0     0   0   0     0   0   0     0   0   0     0   0   0     0   0   0     2   0   0     0   0   0     0   0   0     0   0   0     0   0   0     0   0   0     0   0   0     2   0   0     0   0   0     0   0   0     0   0   0     0   0   0     0   0   0     0   0   0     0   0   0     0   0   0     2   0   0     2   0   0     0   0   0     0   0   0     0   0   0     0   0   0     0   0   0     0   0   0     0   0   0     0   0   0     0   0   0     0   0   0     0   0   0     2   0   0     0   0   0     0   2   0     0   0   0     2   0   0     0   0   0     0   0   0     0   0   0     0   0   0     0   0   0     0   0   4     4   0   8     0   0   0     0   0   0     8   0   0     8   0   0     0   8   0     0   0   0     0   0   0     0   0   0     0   0   0     0   0   0     0   0   0     0   0   0     0   0   0     0   0   0     0   0   0     0   0   0     0   0   0     0   0   0     0   0   0     0   0   0     0   0   0     0   0   0     0   0   0     0   0   0     0   0   0     0   0   0
  0   0   0     0   0   0     0   0   0     0   0   0     0   0   0     0   0   0     0   0   0     0   0   0     0   0   0     0   0   0     0   0   8     0   8   8     8   0   8     0   0   0     0   0   0     0   0   0     0   0   0     0   0   0     0   0   0     0   0   0     0   0   8     0   0   0     0   0   0     0   0   0     0   0   0     4   0   0     0   4   0     0   0   0     0   0   4     0   0   0     0   0   0     0   0   0     0   0   0     0   0   0     0   0   4     0   0   4     2   0   0     2   0   0     0   0   0     0   0   0     0   0   0     0   0   0     0   0   0     0   0   0     0   0   0     0   0   0     0   0   0     0   0   0     0   0   0     0   0   0     0   0   0     0   0   0     0   0   0     0   0   0     0   2   0     0   2   0     0   0   0     0   0   0     0   0   0     0   0   0     0   0   0     0   0   0     0   0   0     0   0   0     0   0   0     0   0   0     0   0   0     0   0   0     0   0   0     0   0   0     0   0   0     0   0   2     0   0   0     0   0   0     0   0   0     0   0   0     0   0   0     0   0   2     0   0   2     0   0   2     0   0   0     0   0   2     0   0   0     0   0   2     0   2   2     0   0   0     0   0   0     0   0   0     0   0   0     0   0   0     0   0   0     0   0   0     0   0   0     0   0   0     0   0   0     0   0   0     0   0   0     0   0   0     0   0   0     0   0   0     0   0   0     0   0   0     0   0   0     0   0   0     0   0   0     0   0   0     0   0   0     0   0   0     0   0   0     0   0   0     0   0   0     0   0   0     0   0   0     0   0   0     0   0   0     0   0   0     0   0   0     0   2   0     0   2   0     0   0   0     0   2   0     0   0   0     0   0   0     0   0   0     0   0   0     0   0   0     0   0   0     0   0   0     0   0   0     0   0   0     0   0   0     0   0   0     0   0   0     0   0   0     0   0   0     0   0   0     0   0   0     0   0   0     0   0   0     2   0   0     0   0   0     0   0   0     0   0   0     0   0   0     0   0   0     0   0   0     0   0   0     0   0   0     0   0   0     2   0   0     2   0   0     0   0   0     2   0   0     0   0   0     0   0   0     0   0   0     0   0   0     0   0   0     0   0   0     0   0   0     2   0   0     2   0   0     2   0   0     2   0   0     0   2   0     0   0   0     2   0   0     0   0   0     0   0   0     0   0   0     0   0   0     0   0   0     0   0   0     0   0   0     0   0   0     0   0   8     0   8   0     8   0   0     0   0   0     0   0   0     0   0   0     0   0   0     0   0   0     0   0   0     0   0   0     0   0   0     0   0   0     0   0   0     0   0   0     0   0   0     0   0   0     0   0   0     0   0   0     0   0   0     0   0   0     0   0   0     0   0   0     0   0   0     0   0   0     0   0   0
  0   0   0     0   0   0     8   8   8     0   0   0     0   0   0     0   0   0     0   0   0     0   0   0     0   0   0     0   0   0     0   0   0     0   0   0     0   0   0     0   0   0     0   0   0     0   0   0     8   0   0     0   0   0     0   0   0     0   0   0     0   0   8     0   0   0     0   0   0     0   0   0     4   0   8     0   4   4     0   0   4     0   0   0     0   0   0     0   0   0     0   0   0     0   0   0     0   0   0     0   0   0     0   0   0     2   0   0     0   0   0     2   0   0     2   0   0     0   0   0     0   0   0     0   0   0     0   0   0     0   0   0     0   0   0     0   0   0     0   0   0     2   0   0     0   0   0     0   0   0     0   0   0     0   0   0     0   0   0     0   0   0     0   0   0     0   0   0     0   0   0     0   0   0     0   0   0     0   2   0     0   2   0     0   2   0     0   2   0     0   2   0     0   2   0     0   2   0     0   2   0     0   2   0     0   2   0     0   0   0     0   0   0     0   0   0     0   0   0     0   0   0     0   0   2     0   0   0     0   0   0     0   0   0     0   0   0     0   0   0     0   0   0     0   0   0     0   0   0     0   0   0     0   2   0     0   0   0     0   0   0     0   0   0     0   0   2     0   0   0     0   0   2     0   0   2     0   0   0     0   0   0     0   0   2     0   0   0     0   0   0     0   0   0     0   0   2     0   0   0     0   0   0     0   0   0     0   0   0     0   0   0     0   0   0     0   0   0     0   0   0     0   0   0     0   0   0     0   0   0     0   0   0     0   0   0     0   0   0     0   2   0     0   0   0     0   0   0     0   0   0     0   0   0     0   2   0     0   2   0     0   0   0     0   0   0     0   0   0     0   0   0     0   0   0     0   0   0     0   0   0     0   0   0     0   0   0     0   0   0     2   0   0     2   0   0     0   0   0     0   0   0     0   0   0     0   0   0     0   0   0     0   0   0     0   0   0     0   0   0     0   0   0     0   0   0     0   0   0     0   0   0     0   0   0     0   0   0     0   0   0     0   0   0     0   0   0     0   0   0     0   0   0     0   0   0     2   0   0     0   0   0     0   0   0     0   0   0     0   0   0     0   0   0     0   0   0     0   0   0     0   0   0     0   0   0     0   0   0     2   0   0     2   2   0     2   0   0     0   0   0     0   0   0     0   0   0     0   0   0     0   0   0     0   0   0     0   0   4     4   4   0     0   0   8     0   0   8     8   8   0     0   0   0     0   0   0     0   0   0     0   0   0     0   0   0     0   0   0     0   0   0     0   0   0     0   0   0     0   0   0     0   0   0     0   0   0     0   0   0     0   0   0     0   0   0     0   0   0     0   0   0     0   0   0     0   0   0     0   0   0     0   0   0     0   0   0     8   8   8
  8   8   8     8   8   8     0   0   0     0   0   0     0   0   0     0   0   0     0   0   0     0   0   0     0   0   0     0   0   0     0   0   0     8   8   8     0   0   0     0   0   0     0   0   0     0   0   0     8   0   0     0   0   0     0   8   0     0   0   0     0   0   8     0   0   0     0   0   0     0   0   0     0   0   0     0   0   0     0   0   0     0   0   0     0   0   0     0   0   0     0   0   0     0   0   0     0   0   0     0   0   0     2   0   0     0   2   0     0   0   0     0   0   0     0   0   0     0   0   0     0   0   0     0   0   0     0   0   0     0   0   0     0   0   0     0   0   0     0   0   4     2   0   0     0   0   0     0   0   0     0   0   0     0   0   0     0   0   0     0   0   0     0   0   0     0   2   0     0   0   0     0   2   0     0   0   0     0   0   0     0   0   0     0   2   0     0   2   0     0   2   0     0   2   0     0   2   0     0   2   0     0   2   0     0   2   0     0   0   2     0   0   2     0   0   2     0   0   2     0   0   2     0   0   2     0   0   2     0   0   2     0   0   2     0   0   2     0   0   2     0   0   2     0   0   2     0   0   2     0   0   2     0   0   2     0   0   0     0   0   0     0   0   0     0   0   0     0   0   0     0   0   2     0   0   0     0   0   0     0   0   0     0   0   0     0   0   0     0   0   0     0   0   0     0   0   0     0   0   0     0   0   0     0   0   0     0   0   0     0   0   0     0   0   0     0   0   0     0   0   0     0   0   0     0   0   0     0   0   0     0   0   0     0   0   0     0   0   0     0   0   0     0   0   0     0   0   0     0   0   0     0   0   0     0   2   0     0   0   0     0   0   0     0   0   0     0   0   0     0   0   0     0   0   0     0   0   0     0   0   0     0   0   0     0   0   0     0   0   0     2   0   0     2   0   0     0   0   0     0   0   0     0   0   0     0   0   0     0   0   0     0   0   0     0   0   0     0   0   0     0   0   0     0   0   0     0   0   0     0   0   0     0   0   0     0   0   0     0   0   0     0   0   0     0   0   0     0   0   0     0   0   0     0   0   0     0   0   0     0   0   0     0   0   0     0   0   0     0   0   0     0   0   0     0   0   0     2   0   0     2   0   0     2   0   0     0   0   0     0   0   0     0   0   0     0   0   0     0   0   0     0   0   0     0   0   0     0   0   0     0   0   0     0   0   0     0   0   4     0   0   0     0   0   8     0   0   0     8   0   0     0   0   0     0   0   0     0   0   0     0   0   0     0   0   0     0   0   0     0   0   0     0   0   0     0   0   0     0   0   0     0   0   0     0   0   0     0   0   0     0   0   0     0   0   0     0   0   0     0   0   0     0   0   0     0   0   0     0   0   0     0   0   0     0   0   0     0   0   0
  0   0   0     0   0   0     0   0   0     0   0   0     0   0   0     0   0   0     0   0   0     0   0   0     0   0   0     0   0   0     0   0   0     0   0   0     0   0   0     0   0   0     0   0   0     0   0   0     0   0   0     0   0   0     0   0   0     0   0   8     0   0   0     0   0   0     0   0   0     0   0   0     0   0   0     4   0   0     0   0   0     0   0   0     0   0   0     0   0   0     0   0   0     0   0   0     0   0   0     0   0   0     2   0   0     0   2   0     0   2   0     0   0   0     2   0   0     2   0   0     2   0   0     0   0   0     0   0   0     0   0   0     0   0   0     0   0   4     0   0   0     0   0   0     0   0   0     0   0   0     0   0   0     0   0   0     0   0   0     0   0   0     0   2   0     0   2   0     0   0   0     0   0   0     0   0   0     0   2   0     0   0   0     0   0   0     0   0   0     0   0   0     0   0   0     0   0   0     0   0   0     0   0   0     0   0   2     0   0   0     0   0   0     0   0   0     0   0   0     0   0   0     0   0   0     0   0   0     0   0   0     0   0   0     0   0   0     0   0   0     0   0   0     0   0   0     0   0   0     0   0   0     0   0   2     0   0   2     0   0   0     0   0   0     0   0   0     0   0   0     0   0   0     0   0   2     0   0   0     0   0   0     0   0   0     0   0   0     0   0   0     0   0   0     0   0   0     0   0   0     0   0   0     0   0   0     0   0   0     0   0   0     0   0   0     0   0   0     0   0   0     0   0   0     0   2   0     0   2   0     0   0   0     0   0   0     0   0   0     0   0   0     0   0   0     2   0   0     2   0   0     2   0   4     0   0   4     0   0   4     0   0   0     0   0   0     0   0   0     0   0   0     0   0   0     0   0   0     0   0   0     0   0   0     0   0   0     0   0   0     2   0   0     2   0   0     0   0   0     0   0   0     0   0   0     0   0   0     0   0   0     2   0   0     2   0   0     0   0   0     0   0   0     0   0   0     0   0   0     0   0   0     0   2   0     0   2   0     0   0   0     0   0   0     0   0   0     0   0   0     2   0   0     2   0   0     0   0   0     0   0   0     0   0   0     0   0   0     0   0   0     0   0   0     0   0   0     2   0   0     0   0   0     0   0   0     0   0   0     2   0   0     2   0   0     0   0   0     2   0   0     0   0   0     0   0   0     0   0   0     0   0   0     0   4   0     0   0   0     0   0   0     0   0   0     8   0   0     0   0   0     0   0   0     0   0   0     0   0   0     0   0   0     0   0   0     0   0   0     0   0   0     0   0   0     0   0   0     0   0   0     0   0   0     0   0   0     0   0   0     0   0   0     0   0   0     0   0   0     0   0   0     0   0   0     0   0   0     0   0   0     0   0   0     0   0   0     0   0   0
  0   0   0     0   0   0     0   0   0     0   0   0     0   0   0     0   0   0     0   0   0     0   0   0     0   0   0     8   8   8     0   0   0     0   0   0     0   0   0     0   0   0     0   0   0     8   8   0     0   0   0     0   0   8     0   0   8     0   0   0     0   0   0     0   0   0     0   0   0     0   0   0     8   0   0     0   8   8     4   4   4     0   0   4     0   0   0     0   0   0     0   0   0     0   0   0     0   0   0     0   0   0     2   0   0     0   0   0     0   0   0     0   0   0     0   0   0     0   0   0     0   0   0     0   0   0     0   0   0     0   0   0     0   0   0     0   0   0     0   0   0     2   0   0     0   0   0     0   0   0     0   0   0     0   0   0     0   0   0     0   0   0     0   2   0     0   2   0     0   2   0     0   0   0     0   0   0     0   2   0     0   0   0     0   0   0     0   0   0     0   0   0     0   0   0     0   0   0     0   0   0     0   0   0     0   0   2     0   0   0     0   0   0     0   0   0     0   0   0     0   0   0     0   0   0     0   0   0     0   0   0     0   0   0     0   0   0     0   0   0     0   0   0     0   0   0     0   0   0     0   0   0     0   0   0     0   0   2     0   0   0     0   0   2     0   0   2     0   0   0     0   0   0     0   0   2     0   0   0     0   0   0     0   0   0     0   0   0     0   0   0     0   2   0     0   0   0     0   2   0     0   0   0     0   0   0     0   0   0     0   0   0     0   0   0     0   2   0     0   2   0     0   2   0     0   0   0     0   0   0     0   0   0     0   0   0     2   0   0     0   0   0     0   0   4     0   4   0     0   4   0     0   0   0     0   0   8     0   0   0     0   0   8     0   0   0     0   0   0     0   0   0     0   0   0     0   0   0     0   0   0     0   0   0     0   0   0     0   0   0     0   0   0     2   0   0     2   0   0     0   0   0     0   0   0     0   0   0     0   0   0     2   0   0     2   0   0     0   0   0     0   0   0     0   0   0     0   0   0     0   0   0     0   2   0     0   0   0     0   0   0     0   0   2     0   0   2     0   0   2     0   0   0     0   0   0     2   0   0     0   0   0     0   0   0     0   0   0     0   0   0     0   0   0     0   0   0     0   0   0     0   0   0     0   0   0     0   0   0     2   0   0     2   0   0     2   0   0     2   0   0     0   0   0     0   0   0     0   0   0     0   0   0     4   0   0     0   0   0     0   0   0     0   8   0     8   0   0     0   0   0     0   0   0     0   0   0     0   0   0     0   0   0     0   0   0     0   0   0     0   0   0     0   0   0     0   0   0     0   0   0     0   0   0     0   0   0     0   0   0     0   0   0     0   0   0     0   0   0     0   0   0     0   0   0     0   0   0     0   0   0     0   0   0     0   0   0     0   0   0
  0   0   0     0   0   0     0   0   0     0   0   0     0   0   0     0   0   0     0   0   0     0   0   0     0   0   0     8   8   8     8   8   8     8   8   8     8   8   8     8   8   8     8   8   8     0   0   0     0   0   0     0   0   0     0   0   0     0   0   0     0   0   0     0   0   0     0   0   0     0   0   0     0   0   0     0   0   8     0   0   8     4   0   0     0   0   0     0   0   4     0   0   0     0   0   0     0   0   0     0   0   0     2   0   0     0   0   0     0   0   0     0   0   0     0   0   0     0   0   0     0   0   0     0   0   0     0   0   0     0   0   0     0   0   0     0   0   0     0   0   0     0   0   0     0   0   0     0   0   0     0   0   0     0   0   0     0   0   0     0   0   0     0   0   0     0   0   0     0   0   0     0   0   0     0   0   0     0   0   0     0   0   0     0   0   0     0   0   0     0   0   0     0   0   0     0   0   0     0   0   0     0   0   0     0   0   0     0   0   2     0   0   0     0   0   0     0   0   0     0   0   2     0   0   0     0   0   0     0   0   0     0   0   0     0   0   0     0   0   0     0   0   0     0   0   0     0   0   0     0   0   0     0   0   0     0   0   0     0   0   0     0   0   2     0   0   2     0   0   0     0   0   0     0   0   0     0   0   0     0   0   2     0   0   2     0   0   0     0   0   0     0   0   0     0   0   0     0   0   0     0   2   0     0   2   0     0   2   0     0   0   0     0   0   0     0   0   0     0   0   0     0   0   0     0   0   0     2   0   0     0   0   0     0   0   0     0   0   0     0   0   0     0   0   0     0   0   0     0   0   0     0   0   8     0   0   0     0   0   8     0   0   0     0   0   0     0   0   0     0   0   0     0   0   0     0   0   0     0   0   0     0   0   0     0   0   0     0   0   0     0   0   0     2   0   0     0   0   0     0   0   0     0   0   0     0   0   0     0   0   0     2   0   0     2   0   0     0   0   0     0   0   0     0   0   0     0   0   0     0   0   0     0   0   0     0   0   0     0   0   0     0   0   2     0   0   0     0   0   0     0   2   0     0   0   0     0   0   0     0   0   0     2   0   0     0   0   0     0   0   0     0   0   0     0   0   0     0   0   0     0   0   0     0   0   0     0   0   0     0   0   0     0   0   0     2   0   0     0   0   0     0   0   0     0   0   4     0   0   0     0   4   0     4   0   0     0   0   0     0   0   0     0   0   0     8   0   0     0   0   0     0   0   0     0   0   0     0   0   0     0   0   0     0   0   0     0   0   0     0   0   0     0   0   0     0   0   0     0   0   0     0   0   0     0   0   0     0   0   0     0   0   0     0   0   0     0   0   0     0   0   0     0   0   0     0   0   0     0   0   0     0   0   0     0   0   0     0   0   0
  0   0   0     0   0   0     0   0   0     0   0   0     0   0   0     0   0   0     0   0   0     8   8   8     8   8   8     8   8   8     8   8   8     8   8   8     8   8   8     8   8   8     8   8   8     0   0   0     0   0   0     0   0   0     0   0   0     0   0   0     0   0   0     0   0   0     0   0   0     0   0   0     8   0   0     0   8   0     0   8   0     0   0   8     0   0   0     0   4   4     0   0   0     0   0   0     0   0   0     2   0   0     0   2   0     0   2   0     0   0   0     0   0   0     0   0   0     0   0   0     0   0   0     0   0   0     0   0   0     0   0   0     0   0   0     0   0   0     0   0   0     2   0   0     0   0   0     0   0   0     0   0   0     0   0   0     0   0   0     0   0   0     0   0   0     0   0   0     0   0   0     0   0   0     0   0   0     0   2   0     0   0   0     0   0   0     0   0   0     0   0   0     0   0   0     0   0   0     0   0   0     0   0   0     0   0   0     0   0   0     0   0   0     0   0   0     0   0   0     0   0   0     0   0   0     0   0   2     0   0   0     0   0   0     0   0   2     0   0   0     0   0   0     0   0   0     0   0   0     0   0   0     0   0   0     0   0   0     0   0   0     0   0   2     0   0   2     0   0   0     0   0   0     0   0   0     0   0   0     0   0   0     0   0   0     0   0   0     0   0   0     0   0   0     0   0   0     0   0   0     0   0   0     0   0   0     0   0   0     0   0   0     2   0   0     2   0   0     2   0   0     0   0   0     0   0   4     0   0   4     0   0   0     0   0   0     0   0   0     0   0   0     0   0   8     0   0   8     0   0   0     0   0   0     0   0   0     0   0   0     0   0   0     0   0   0     0   0   0     0   0   0     0   0   0     0   0   0     0   0   0     0   0   0     0   0   0     0   0   0     2   0   0     0   0   0     0   0   0     0   0   0     2   0   0     0   0   0     2   0   0     2   0   0     2   0   4     0   0   0     0   0   0     0   0   0     0   0   0     0   0   0     0   0   0     0   0   0     0   0   2     0   0   2     0   0   0     0   0   0     0   0   0     0   0   0     0   0   0     0   0   0     0   0   0     0   0   0     0   0   0     2   0   0     2   0   0     0   0   0     0   0   0     2   0   0     0   0   0     0   0   0     0   0   0     0   0   0     0   0   4     0   4   0     0   4   0     0   0   0     0   4   0     0   0   0     0   0   0     0   0   0     0   8   8     0   0   0     0   0   0     0   0   0     0   0   0     0   0   0     0   0   0     0   0   0     0   0   0     0   0   0     0   0   0     0   0   0     0   0   0     0   0   0     0   0   0     0   0   0     0   0   0     0   0   0     0   0   0     0   0   0     0   0   0     0   0   0     0   0   0     0   0   0     0   0   0     0   0   0
  0   0   0     0   0   0     0   0   0     0   0   0     0   0   0     0   0   0     8   8   8     0   0   0     0   0   0     0   0   0     0   0   0     8   8   8     8   8   8     8   8   8     8   8   8     0   0   0     0   0   0     0   0   0     0   0   0     0   0   0     0   0   0     0   0   0     0   0   0     0   0   0     8   8   0     0   0   0     0   0   0     0   0   8     4   0   0     0   4   4     0   0   0     0   0   0     0   0   0     0   0   0     0   2   0     0   2   0     0   0   0     0   0   0     0   0   0     0   0   0     0   0   0     0   0   0     0   0   0     0   0   0     0   0   0     0   0   0     0   0   0     0   0   0     0   0   0     0   0   0     0   0   0     0   0   0     0   0   0     0   0   0     0   0   0     0   0   0     0   0   0     0   0   0     0   0   0     0   0   0     0   2   0     0   0   0     0   0   0     0   0   0     0   0   0     0   0   0     0   0   0     0   0   0     0   0   0     0   0   0     0   0   0     0   0   2     0   0   2     0   0   0     0   0   2     0   0   0     0   0   0     0   0   0     0   0   0     0   0   0     0   0   0     0   0   0     0   0   2     0   0   2     0   0   0     0   2   0     0   0   0     0   0   2     0   0   2     0   0   0     0   0   0     0   0   0     0   0   0     0   0   0     0   0   0     0   2   0     0   0   0     0   0   0     0   0   0     0   0   0     0   0   0     0   0   0     2   0   0     0   0   4     0   4   4     0   0   4     0   4   0     0   0   0     0   4   0     0   0   0     0   0   0     0   0   0     0   0   8     0   0   0     0   0   0     0   0   0     0   0   0     0   4   0     0   0   4     0   0   0     0   0   0     0   0   0     0   0   0     0   0   0     0   0   0     0   0   0     0   0   0     0   0   0     0   0   0     0   0   0     0   0   0     0   0   0     0   0   0     2   0   0     2   0   0     2   0   0     0   0   4     0   0   0     2   0   0     0   0   0     0   0   0     0   0   0     0   0   0     0   0   0     0   0   0     0   0   0     0   0   2     0   0   2     0   0   0     0   0   0     0   0   0     0   0   0     0   0   0     0   0   0     0   0   0     0   2   0     0   2   0     0   2   0     0   0   0     0   0   0     0   0   0     0   0   0     0   0   0     0   0   0     0   0   0     0   0   0     0   0   4     0   0   0     0   0   0     0   0   0     4   0   0     0   0   0     0   0   0     0   0   0     0   0   0     0   0   0     0   0   0     0   0   0     0   0   0     0   0   0     0   0   0     0   0   0     0   0   0     0   0   0     0   0   0     0   0   0     0   0   0     0   0   0     0   0   0     0   0   0     0   0   0     0   0   0     0   0   0     0   0   0     0   0   0     0   0   0     0   0   0     0   0   0     0   0   0     0   0   0
  0   0   0     0   0   0     0   0   0     0   0   0     0   0   0     0   0   0     0   0   0     0   0   0     0   0   0     0   0   0     0   0   0     0   0   0     0   0   0     0   0   0     0   0   0     0   0   0     0   0   0     0   0   0     0   0   0     0   0   0     0   0   0     0   0   0     0   0   0     0   0   0     0   0   0     8   0   0     0   0   0     0   0   0     4   0   0     0   0   0     0   0   0     0   0   0     0   0   0     2   0   0     2   0   0     2   0   0     0   0   0     0   0   0     0   0   0     0   0   0     0   0   0     0   0   0     0   0   0     0   0   0     0   0   0     0   0   0     0   0   0     0   0   0     0   0   0     0   0   0     0   0   0     0   0   0     0   0   0     0   0   0     0   0   0     0   2   0     0   2   0     0   0   0     0   0   0     0   0   0     0   0   0     0   0   0     0   0   0     0   0   0     0   0   0     0   0   0     0   0   0     0   0   0     0   0   0     0   0   0     0   0   0     0   0   2     0   0   2     0   0   2     0   0   2     0   0   2     0   0   2     0   0   0     0   0   0     0   0   0     0   0   0     0   0   0     0   0   0     0   0   0     0   0   0     0   0   0     0   2   0     0   0   0     0   0   0     0   0   0     0   0   0     0   0   0     0   0   0     0   0   0     0   2   0     0   0   0     0   0   0     0   0   0     0   0   0     0   0   0     0   0   0     0   0   4     0   4   0     0   0   0     0   0   0     0   0   0     0   0   0     0   0   0     0   0   0     0   0   0     0   0   0     0   0   0     0   0   0     0   0   0     0   0   0     0   0   0     0   0   0     2   0   0     2   0   0     0   0   0     0   0   0     0   0   0     0   0   0     0   0   0     0   0   0     0   0   0     0   0   0     0   0   0     0   0   0     0   0   0     2   0   0     0   0   0     2   0   0     2   0   0     2   0   0     0   0   0     0   0   0     0   0   4     2   0   0     0   0   0     0   0   0     0   0   0     0   0   0     0   0   0     0   0   0     0   2   0     0   0   2     0   0   2     0   0   2     0   0   2     0   0   2     0   2   2     0   0   0     0   0   0     0   0   0     0   0   0     0   2   0     0   2   0     0   2   0     0   0   0     0   0   0     2   0   0     0   0   0     0   0   0     0   0   0     0   0   0     0   0   0     0   4   0     0   4   0     4   0   0     0   0   0     4   0   0     4   0   0     0   0   0     8   8   8     0   0   0     0   0   0     0   0   0     0   0   0     0   0   0     0   0   0     0   0   0     0   0   0     0   0   0     0   0   0     0   0   0     0   0   0     0   0   0     0   0   0     0   0   0     0   0   0     0   0   0     0   0   0     0   0   0     0   0   0     0   0   0     0   0   0     0   0   0     0   0   0     0   0   0
  0   0   0     0   0   0     0   0   0     0   0   0     0   0   0     0   0   0     8   8   8     8   8   8     0   0   0     0   0   0     0   0   0     0   0   0     8   8   8     0   0   0     0   0   0     0   0   0     0   0   0     0   0   0     0   0   0     0   0   0     0   0   0     0   0   0     0   0   0     0   0   0     0   0   0     0   0   8     0   0   0     0   0   0     0   0   0     4   4   4     0   0   0     0   0   0     0   0   0     0   0   0     0   0   0     0   0   0     0   0   0     0   0   0     0   0   0     0   0   0     0   0   0     0   0   0     0   0   0     0   0   0     0   0   0     0   0   0     0   0   0     2   0   0     0   0   0     0   0   0     0   0   0     0   0   0     0   0   0     0   0   0     0   0   0     0   2   0     0   2   0     0   2   0     0   0   0     0   2   0     0   2   0     0   0   0     0   0   0     0   0   0     0   0   2     0   0   0     0   0   2     0   0   0     0   0   0     0   0   0     0   0   0     0   0   0     0   0   2     0   0   2     0   0   2     0   0   2     0   0   2     0   0   0     0   0   0     0   0   0     0   0   0     0   0   0     0   0   0     0   0   0     0   2   0     0   0   0     0   2   0     0   0   0     0   0   0     0   0   0     0   0   0     0   0   0     0   0   0     0   0   0     0   0   0     0   0   0     0   0   0     0   0   0     0   0   0     0   0   0     0   0   0     0   0   0     0   0   0     0   4   0     0   4   0     0   0   0     0   0   0     0   0   0     0   0   0     0   0   0     0   0   0     0   0   0     0   0   0     0   0   0     0   0   0     0   0   0     0   4   0     2   0   4     2   0   0     0   0   0     0   0   0     0   0   0     0   0   0     0   0   0     0   0   0     0   0   0     0   0   0     2   0   0     2   0   0     0   0   0     2   0   0     0   0   0     0   0   0     2   0   0     0   0   0     0   0   4     0   0   0     0   0   4     0   0   0     0   0   0     0   0   0     0   0   0     0   0   0     0   0   0     0   0   0     0   0   0     0   0   2     0   0   2     0   0   2     0   0   0     0   0   2     0   0   2     0   0   0     2   0   0     2   0   0     2   0   0     2   0   0     0   2   0     0   0   0     0   2   0     0   0   0     0   2   0     0   0   0     2   0   0     0   0   0     0   0   0     0   0   0     0   4   0     0   4   0     0   0   0     4   4   0     4   4   0     4   0   0     0   0   0     0   0   0     0   0   0     0   0   0     0   0   0     0   0   0     0   0   0     0   0   0     0   0   0     0   0   0     0   0   0     0   0   0     0   0   0     0   0   0     0   0   0     0   0   0     0   0   0     0   0   0     0   0   0     0   0   0     0   0   0     0   0   0     0   0   0     0   0   0     0   8   0     0   0   0     8   8   8
  8   8   8     0   0   0     0   0   0     0   0   0     0   0   0     0   0   0     0   0   0     0   0   0     0   0   0     0   0   0     0   0   0     0   0   0     8   8   8     0   0   0     0   0   0     0   0   0     0   0   0     0   0   0     0   0   0     0   0   0     0   0   0     0   0   0     0   0   0     0   0   0     8   8   8     0   0   0     0   0   0     0   0   0     0   0   0     0   0   0     4   4   4     0   0   4     0   0   0     0   0   0     0   0   0     0   0   0     0   0   0     0   0   0     0   0   0     0   0   0     0   0   0     0   0   0     0   0   4     0   0   0     0   0   0     0   0   0     0   0   0     0   0   0     0   0   0     0   0   0     0   0   0     0   0   0     0   0   0     0   0   0     0   0   0     0   0   0     0   2   0     0   2   0     0   2   0     0   0   0     0   0   0     0   0   0     0   0   0     0   0   0     0   0   2     0   0   2     0   0   0     0   2   0     0   0   0     0   0   0     0   2   0     0   0   0     0   0   0     0   0   0     0   0   0     0   0   0     0   0   0     0   0   0     0   0   0     0   0   0     0   0   0     0   0   0     0   0   0     0   2   0     0   0   0     0   0   0     0   2   0     0   0   0     0   0   0     0   0   0     0   0   0     0   0   0     0   0   0     0   0   0     0   0   0     0   0   0     0   0   0     0   0   0     0   0   0     0   0   0     2   0   0     0   0   0     0   0   0     0   4   0     0   4   0     0   0   0     0   0   0     0   0   0     0   0   0     0   0   0     0   0   0     0   0   8     0   0   8     0   0   8     0   0   0     0   0   0     0   4   0     0   0   4     0   0   0     2   0   0     2   0   0     0   0   0     0   0   0     0   0   0     0   0   0     0   0   0     0   0   0     0   0   0     2   0   4     2   0   0     0   0   0     0   0   0     0   0   0     0   0   0     2   0   0     0   0   0     0   0   0     2   0   0     0   0   0     0   0   0     0   0   0     0   0   0     0   0   0     0   0   0     0   2   0     0   0   0     0   0   0     0   0   0     0   0   0     0   0   0     0   0   2     0   0   2     0   2   2     2   0   0     0   0   0     2   0   0     0   0   0     2   0   0     2   2   0     0   2   0     0   2   0     0   2   0     0   2   0     0   0   0     2   0   0     0   0   0     0   4   4     0   0   4     0   0   0     4   4   0     4   4   0     0   4   0     0   0   0     0   0   0     0   0   8     0   0   0     0   0   0     0   0   0     0   0   0     0   0   0     0   0   0     0   0   0     0   0   0     0   0   0     0   0   0     0   0   0     0   0   0     0   0   0     0   0   0     0   0   0     0   0   0     0   0   0     0   0   0     0   0   0     0   0   0     0   0   0     0   0   0     8   0   8     0   0   0     0   0   0
  8   8   8     0   0   0     0   0   0     0   0   0     0   0   0     0   0   0     0   0   0     0   0   0     8   8   8     0   0   0     0   0   0     0   0   0     0   0   0     0   0   0     0   0   0     0   0   0     0   0   0     0   0   0     0   0   0     0   0   0     0   0   0     0   0   0     0   0   0     0   0   0     8   8   8     0   0   0     0   0   0     0   0   0     0   0   0     0   0   0     0   0   0     0   0   0     4   4   0     0   0   0     0   0   0     0   0   0     0   0   0     0   0   0     0   0   0     0   0   0     0   0   0     0   0   0     0   0   0     0   0   0     0   0   0     0   0   0     0   0   0     2   0   0     0   0   0     0   0   0     0   0   0     0   0   0     0   0   0     0   0   0     0   0   0     0   0   0     0   0   0     0   0   0     0   2   0     0   0   0     0   0   0     0   2   0     0   0   0     0   2   0     0   2   0     0   2   2     0   2   0     0   0   0     0   0   0     0   0   0     0   0   0     0   0   0     0   0   0     0   2   0     0   2   0     0   0   0     0   0   0     0   0   0     0   0   0     0   0   0     0   0   0     0   0   0     0   0   0     0   0   0     0   0   0     0   0   0     0   0   0     0   0   0     0   0   0     0   0   0     0   0   0     0   0   0     0   0   0     0   2   0     0   0   0     0   0   0     0   0   0     0   0   0     0   0   0     2   0   0     0   0   4     0   0   0     0   0   0     0   4   0     0   4   0     0   0   0     0   0   0     0   0   0     0   0   0     0   0   0     0   0   0     0   0   0     4   8   0     0   4   8     0   4   0     0   4   4     2   4   4     0   0   4     0   0   4     0   0   4     0   0   4     2   0   0     0   0   0     0   0   0     0   0   0     0   0   0     2   0   0     0   0   4     0   0   0     0   0   0     0   0   0     0   0   0     2   0   0     0   0   0     0   0   0     2   0   4     0   0   0     0   0   0     0   0   0     0   0   0     0   0   0     0   0   0     0   0   0     0   0   0     0   0   0     0   0   0     0   0   0     0   0   0     0   0   0     0   0   0     0   0   2     0   0   2     0   2   2     0   0   0     0   0   0     0   0   0     0   0   0     0   0   0     0   0   0     0   2   0     0   2   0     0   0   0     0   2   0     0   2   0     2   0   0     0   0   0     0   0   4     0   0   0     0   4   0     0   0   0     0   0   0     4   0   0     0   0   0     0   0   0     0   0   8     8   8   0     0   0   0     0   0   0     0   0   0     0   0   0     0   0   0     0   0   0     0   0   0     0   0   0     0   0   0     0   0   0     0   0   0     0   0   0     0   0   0     0   0   0     0   0   0     0   0   0     0   0   0     0   0   0     0   0   0     0   0   0     8   8   8     0   0   0     0   0   0     0   0   0
  8   8   8     0   0   0     0   0   0     0   0   0     0   0   0     0   0   0     0   0   0     8   8   8     8   8   8     0   0   0     0   0   0     8   8   8     0   0   0     0   0   0     0   0   0     0   0   0     0   0   0     0   0   0     0   0   0     0   0   0     0   0   0     0   0   0     0   0   0     0   0   0     0   0   0     0   0   0     0   0   0     0   0   0     0   0   0     0   0   0     0   0   0     0   0   0     0   0   0     0   0   4     0   0   0     0   0   0     0   0   0     0   0   0     0   0   0     0   0   0     0   0   0     0   0   0     0   0   0     0   0   0     0   0   0     0   0   0     2   0   0     0   0   0     0   0   0     0   0   0     0   0   0     0   0   0     0   0   0     0   0   0     0   0   0     0   0   0     0   0   0     0   0   0     0   0   0     0   0   0     0   0   0     0   0   0     2   0   0     2   0   4     2   0   4     2   0   4     2   0   0     2   0   0     0   0   0     0   0   0     0   0   0     0   0   0     2   0   0     2   0   0     2   0   0     2   0   0     0   0   0     0   0   0     0   0   0     0   0   0     0   0   0     0   0   0     0   0   0     0   0   0     0   0   0     0   0   0     0   0   0     0   0   0     0   0   0     0   0   0     0   0   0     0   0   0     0   0   0     0   2   0     0   0   0     0   0   0     0   0   0     0   0   0     0   0   0     0   0   0     0   0   0     0   0   0     0   0   0     0   0   0     0   0   0     0   0   0     0   0   0     0   0   0     4   8  16     0   0   0     4   8   8     0   0   4     0   0   4     2   0   0     0   0   0     0   0   0     0   0   0     0   0   0     0   0   0     2   0   0     0   0   0     0   0   0     0   0   4     2   0   0     0   0   0     0   0   0     2   0   0     0   0   0     0   0   0     0   0   0     0   0   0     0   0   4     2   0   0     0   0   0     2   0   0     2   0   0     0   0   0     0   0   0     0   0   0     0   0   0     2   0   0     0   0   0     0   0   0     0   0   0     0   2   0     0   0   0     0   0   0     0   0   0     0   0   0     0   0   0     0   0   0     0   0   2     0   0   0     0   0   0     0   0   0     2   0   0     0   0   0     0   0   0     0   0   0     2   0   0     0   0   0     0   0   0     0   0   0     0   2   0     0   0   0     0   0   0     0   0   0     0   0   4     0   0   0     0   4   0     4   0   0     4   0   0     0   0   0     0   0   0     0   0   0     8   0   0     0   0   0     0   0   0     0   0   0     0   0   0     0   0   0     0   0   0     0   0   0     0   0   0     0   0   0     0   0   0     0   0   0     0   0   0     0   0   0     0   0   0     0   0   0     0   0   0     0   0   0     0   0   0     0   0   0     0   0   0     8   8   8     0   0   0     0   0   0     0   0   0
  0   0   0     0   0   0     0   0   0     0   0   0     0   0   0     0   0   0     8   8   8     0   0   0     0   0   0     0   0   0     0   0   0     8   8   8     0   0   0     0   0   0     0   0   0     0   0   0     0   0   0     0   0   0     0   0   0     0   0   0     0   0   0     0   0   0     8   8   8     0   0   0     0   0   0     0   0   0     0   0   0     0   0   0     0   0   0     0   0   0     0   0   0     0   0   0     4   4   0     4   4   0     0   0   4     0   0   0     0   0   0     0   0   0     0   0   0     0   0   0     0   0   0     0   0   0     0   0   0     0   0   0     0   0   0     2   0   0     2   0   0     0   0   0     0   0   0     0   0   0     0   0   0     0   0   0     0   0   0     0   0   0     0   0   0     0   0   0     0   0   0     0   0   0     0   2   0     0   2   0     0   0   0     2   0   0     0   0   4     0   0   0     0   4   0     0   4   0     0   4   0     0   4   0     0   0   4     0   4   4     0   0   4     0   4   4     0   4   4     0   4   4     0   4   4     0   0   0     0   0   0     2   0   4     0   0   0     0   0   0     0   0   0     0   0   0     0   0   0     0   0   0     0   0   0     0   0   0     0   0   0     0   0   0     0   0   0     0   0   0     0   0   0     0   0   0     0   0   0     0   0   0     0   0   0     0   0   0     0   0   0     0   0   4     0   0   0     0   0   0     0   0   0     0   0   8     0   0   0     0   0   0     0   0   0     0   0   8     0   0   8     0   0   0     0   0   0     0   0   4     2   0   0     0   0   0     0   0   0     0   0   0     0   0   0     0   0   0     0   0   0     0   0   0     0   0   0     0   0   0     0   0   0     2   0   4     0   0   0     0   0   0     0   0   0     2   0   0     2   0   0     0   0   4     0   0   0     0   0   0     0   0   0     0   0   0     2   0   4     2   0   4     2   0   0     2   0   0     0   0   0     0   0   0     0   0   0     0   0   0     2   0   0     0   0   0     0   0   0     0   0   0     0   0   0     0   0   0     0   2   0     0   2   0     0   2   0     0   0   2     0   0   0     0   0   2     0   0   0     0   0   0     0   0   0     0   0   0     2   0   0     2   0   0     0   0   0     0   0   0     2   0   0     2   0   0     2   0   0     2   0   0     0   0   0     0   0   0     0   0   4     0   0   0     0   4   0     4   4   0     4   0   0     0   0   0     0   0   0     0   0   8     0   0   8     0   0   0     0   0   0     0   0   0     0   0   0     0   0   0     0   0   0     0   0   0     0   0   0     0   0   0     0   0   0     0   0   0     0   0   0     0   0   0     0   0   0     0   0   0     0   8   0     0   8   0     0   8   0     0   0   0     0   0   0     0   0   0     0   0   8     0   0   0     0   0   0     0   0   0
  0   0   0     0   0   0     8   8   8     0   0   0     0   0   0     8   8   8     0   0   0     0   0   0     0   0   0     0   0   0     0   0   0     8   8   8     0   0   0     0   0   0     0   0   0     0   0   0     0   0   0     0   0   0     0   0   0     0   0   0     0   0   0     0   0   0     0   0   0     0   0   0     0   0   0     0   0   0     0   0   0     8   8   0     0   0   0     0   0   0     0   0   0     0   0   0     0   0   0     0   0   0     4   4   0     0   0   0     0   0   4     0   0   0     0   0   4     0   0   0     0   0   0     0   0   0     0   0   0     0   0   0     0   0   0     2   0   0     0   0   0     0   0   0     0   0   0     0   0   0     0   0   0     0   0   0     0   0   0     0   0   0     0   0   0     0   0   0     0   0   0     0   2   0     0   2   0     0   2   0     0   0   0     0   0   0     0   0   0     0   0   0     0   0   0     0   0   0     0   0   0     0   0   0     0   0   0     0   0   8     0   0   0     0   0   0     0   0   0     0   0   8     0   0   0     0   0   0     0   0   0     0   0   0     0   0   4     0   0   0     0   0   0     0   0   0     0   0   0     0   0   0     0   0   0     0   0   0     0   0   0     0   0   0     0   0   0     0   0   0     0   0   0     0   0   0     0   0   0     0   0   0     0   0   0     0   0   0     2   0   4     0   4   0     0   0   0     0   0   0     0   0   0     0   0   0     0   0   8     0   4   0     0   4   0     0   0   0     0   0   0     0   4   8     2   0   4     0   0   0     0   0   0     0   0   0     0   0   0     0   0   0     0   0   0     0   0   0     2   0   0     2   0   0     0   0   0     0   0   0     0   0   0     2   0   0     0   0   0     0   0   0     0   0   4     2   0   4     2   0   0     0   0   4     0   0   0     0   0   0     0   0   0     0   0   0     0   0   4     0   0   4     2   0   0     0   0   0     0   0   0     0   0   0     0   0   0     0   0   0     0   0   0     0   0   0     0   0   0     0   0   0     0   0   0     0   2   0     0   2   0     0   0   0     0   0   0     0   0   0     0   0   0     0   0   0     0   2   2     0   0   0     0   0   0     0   0   0     0   0   0     0   0   0     0   0   0     0   0   0     0   0   0     0   0   0     0   0   0     0   0   0     0   0   0     0   0   4     0   0   0     0   4   0     4   0   0     0   0   0     0   0   0     0   0   8     0   0   0     0   0   0     0   8   0     8   0   0     0   0   0     0   0   0     0   0   0     0   0   0     0   0   0     0   0   0     0   0   0     0   0   0     0   0   0     0   0   0     0   0   0     0   0   0     0   0   0     0   0   0     0   8   0     0   8   0     0   0   0     0   0   0     0   0   0     0   0   0     0   0   0     0   0   0     0   0   0     0   0   0
  0   0   0     0   0   0     0   0   0     8   8   8     0   0   0     0   0   0     8   8   8     0   0   0     0   0   0     8   8   8     8   8   8     0   0   0     0   0   0     0   0   0     0   0   0     0   0   0     0   0   0     0   0   0     0   0   0     0   0   0     8   8   8     0   0   0     0   0   0     0   0   0     0   0   0     8   8   0     8   8   8     0   0   0     8   8   8     0   0   0     0   0   0     0   0   0     0   0   0     0   0   0     4   4   0     0   0   4     0   0   4     0   0   0     0   0   0     0   0   0     0   0   0     0   0   0     0   0   0     0   0   0     2   0   0     0   2   0     0   0   0     0   0   0     0   0   0     0   2   0     0   2   0     0   0   0     0   0   0     0   0   0     0   0   0     0   0   0     0   0   0     0   0   0     0   0   0     0   0   0     0   0   0     0   0   0     0   4   0     0   0   0     0   0   0     0   0   0     0   0   0     0   0   0     0   0   0     0   0   0     0   0   0     0   0   0     0   0   0     0   0   8     0   0   0     0   0   0     0   4   0     0   0   0     0   0   0     0   0   4     2   0   0     0   0   0     0   0   0     0   0   0     0   0   0     0   0   0     0   2   0     0   0   0     0   0   0     0   0   0     0   0   0     0   2   0     0   0   0     0   0   0     0   0   0     0   0   0     0   0   0     0   4   0     0   0   8     0   0   0     0   0   0     0   0   8     0   4   0     0   0   0     0   4   0     0   0   0     0   0   0     2   0   4     0   0   0     0   0   0     0   0   0     0   0   0     2   0   0     2   0   0     0   4   4     0   0   0     0   4   0     4   4   8     0   4   4     0   4   4     2   0   0     2   0   4     0   0   4     0   4   0     0   4   0     0   4   0     0   0   0     0   0   4     0   0   0     0   0   0     2   0   4     2   0   0     0   0   0     0   0   0     0   2   0     0   2   0     0   2   0     0   0   0     2   0   4     0   0   0     0   0   0     0   0   0     0   0   0     0   0   0     0   0   0     0   0   0     0   2   0     0   2   0     0   2   0     0   0   2     0   0   2     0   0   2     0   2   2     0   0   0     0   0   0     0   0   0     2   0   0     0   0   0     0   0   0     0   0   0     0   0   0     2   0   0     0   0   0     0   0   0     0   0   0     0   0   0     0   4   0     0   8   0     0   0   0     0   0   0     0   0   0     0   0   8     0   0   8     0   0   0     0   8   0     8   0   0     0   0   0     0   0   0     0   0   0     0   0   0     0   0   0     0   0   0     0   0   0     0   0   0     0   0   0     0   0   0     0   0   0     0   0   0     0   0   0     0   0   0     0   0   0     0   0   0     0   8   0     0   0   0     0   0   0     8   8   0     0   0   0     0   0   0     0   0   0     0   0   0
  0   0   0     0   0   0     0   0   0     0   0   0     8   8   8     0   0   0     8   8   8     0   0   0     0   0   0     0   0   0     8   8   8     0   0   0     0   0   0     0   0   0     0   0   0     0   0   0     0   0   0     0   0   0     0   0   0     0   0   0     0   0   0     0   0   0     0   0   0     0   0   0     8   8   8     0   0   0     0   0   0     0   0   0     0   0   0     8   8   8     0   0   0     8   8   0     0   0   8     0   0   0     4   4   0     4   4   4     0   0   0     0   0   4     0   0   4     0   0   0     0   0   0     0   0   0     0   0   0     0   0   0     2   0   0     0   2   0     2   0   0     0   0   0     0   2   0     0   0   0     0   0   0     0   2   0     0   0   0     0   0   0     0   0   0     0   0   0     0   0   0     0   0   0     0   0   0     0   0   0     0   0   0     0   0   4     0   4   0     0   0   8     0   0   0     0   4   0     0   4   0     0   4   0     0   0   0     0   0   8     0   0   8     0   0   8     0   0   8     0   0   8     0   0   0     0   0   0     0   0   0     0   4   0     0   4   0     0   4   0     0   0   0     0   0   4     2   0   4     2   0   0     0   0   0     0   0   0     0   2   0     0   0   0     0   0   0     0   0   2     0   0   2     0   0   2     0   0   0     0   0   0     0   0   0     2   0   4     0   4   0     0   0   0     0   0   8     0   0   8     0   0   8     0   4   0     0   0   0     0   0   0     0   0   0     0   4   0     2   0   0     0   0   0     0   0   0     0   0   0     0   0   0     0   0   0     0   0   0     4   0   0     0   0   0     0   0   0     0   0   0     0   8 112     0   0   8     0   0   0     0   0   4     0   0   4     0   0   4     0   4   0     0   0   0     0   0   0     0   0   4     0   0   0     0   0   0     0   0   0     0   0   0     0   0   0     0   0   0     0   0   0     0   2   0     0   2   0     0   2   0     0   0   0     0   0   0     0   0   0     0   0   0     0   0   0     0   0   0     0   0   0     0   0   0     0   0   0     0   0   0     0   2   0     0   0   0     0   0   0     0   0   0     0   0   0     0   0   0     0   2   2     0   0   0     0   0   0     2   0   0     0   0   0     0   0   0     0   0   0     2   0   0     0   0   0     0   0   0     2   0   0     2   0   0     0   0   0     0   4   0     0   0  16     0   8   0     0   8   0     0   8   0     0   0   0     0   0   0     0   0   0     0   8   0     8   0   0     0   0   0     0   0   0     0   0   0     0   0   0     0   0   0     0   0   0     0   0   0     0   0   0     0   0   0     0   0   0     0   0   0     0   0   0     0   0   0     0   0   0     0   0   0     0   0   0     0   0   0     0   0   0     0   0   0     8   8   8     0   0   0     0   0   0     0   0   0     0   0   0
  0   0   0     0   0   0     0   0   0     0   0   0     0   0   0     0   0   0     0   0   0     0   0   0     0   0   0     8   8   8     0   0   0     0   0   0     0   0   0     0   0   0     0   0   0     0   0   0     0   0   0     8   8   8     0   0   0     0   0   0     0   0   0     0   0   0     0   0   0     0   0   0     0   0   0     0   0   0     0   0   0     0   0   0     0   0   0     0   0   0     0   0   0     0   0   0     8   8   8     0   0   8     0   0   0     0   0   8     4   4   0     0   0   0     0   0   0     0   0   0     0   0   0     0   0   0     0   0   0     0   0   0     0   0   0     2   0   0     0   0   0     0   0   0     0   0   0     0   0   0     0   0   0     0   2   0     0   0   0     0   0   0     0   0   0     0   0   0     0   0   0     0   0   0     0   0   0     0   0   0     0   0   0     2   0   4     0   0   0     0   0   0     0   0   0     0   0   0     0   0   0     0   4   0     0   0   0     0   0   8     0   0   0     0   0   8     0   0   8     4   0   8     0   0   0     0   0   0     0   0   0     0   0   0     0   0   0     0   0   0     0   0   0     0   0   0     0   4   0     0   0   0     0   0   4     2   0   0     0   0   0     0   2   0     0   0   2     0   0   0     0   0   0     0   0   2     0   0   0     0   0   0     0   0   0     2   0   0     0   0   0     0   0   0     0   0   0     0   0   0     0   0   0     0   4   0     0   0   0     0   0   0     0   0   0     2   0   4     0   0   0     0   0   0     0   0   0     0   0   0     0   2   0     2   2   0     0   4   4     0   0   0     0   0   0     0   0   0     0   0   8     0   0   0     0   0   0     0   4   4     0   0   0     0   0   0     0   0   0     0   4   0     0   4   0     0   4   0     0   0   0     0   0   4     0   0   4     2   0   4     0   0   0     0   0   0     0   0   0     0   0   0     0   0   0     0   0   0     0   0   0     0   0   0     0   0   0     0   0   0     0   0   0     0   0   0     0   0   0     0   0   0     0   0   0     0   0   0     0   0   0     0   0   0     0   2   0     0   0   0     0   0   2     0   0   0     0   0   0     0   2   2     0   0   0     2   0   0     0   0   0     2   0   0     2   0   0     0   0   0     0   0   0     0   0   0     0   0   0     0   0   0     0   0   0     2   0   0     0   4   4     0   8   0     0   0   0     0   0   0     0   0   0     0   8   0     0   0   0     0   8   0     8   0   0     0   0  16     0   0   0     0   0   0     0   0   0     0   0   0     0   0   0     0   0   0     0   0   0     0   0   0     0   0   0     0   0   0     0   0   0     0   0   0     0   0   0     0   0   0     0   0   0     0   0   0     0   0   0     0   0   0     0   0   0     0   0   0     0   0   0     0   0   0     0   0   0     0   0   0
  0   0   0     0   0   0     0   0   0     0   0   0     0   0   0     8   8   8     8   8   8     0   0   0     0   0   0     0   0   0     0   0   0     0   0   0     0   0   0     0   0   0     0   0   0     0   0   0     0   0   0     8   8   8     0   0   0     0   0   0     0   0   0     0   0   0     0   0   0     0   0   0     8   8   8     0   0   0     0   0   0     0   0   0     0   0   0     0   0   0     0   0   0     0   0   0     0   0   0     0   0   0     0   0   0     0   0   0     0   0   0     0   0   0     0   0   0     0   0   0     0   0   0     0   0   0     0   0   0     0   0   0     0   0   0     0   0   0     0   0   0     0   2   0     0   0   0     0   0   2     0   0   2     0   2   0     0   0   0     0   0   0     0   0   0     0   0   0     0   0   0     0   0   0     0   0   0     0   0   0     0   0   0     0   0   0     0   0   0     0   0   0     0   0   0     0   0   0     0   4   0     0   0   0     0   0   8     0   0   8     0   0   0     0   0   0     0   0   0     4   0   0     0   0   0     0   0   0     0   0   8     4   8  24     0   0   8     0   0   8     0   0   8     0   0   0     0   0   0     0   0   0     0   4   0     0   0   0     0   0   0     0   0   0     0   0   2     0   0   0     0   0   0     0   0   0     0   0   0     0   0   0     0   0   0     2   0   4     0   0   0     0   4   0     0   4   0     0   0   0     0   0   0     0   0   0     0   0   0     0   0   0     0   0   4     2   0   0     2   0   0     0   0   0     0   0   0     0   2   2     0   0   0     0   0   2     0   2   0     0   4   0     4   0   0     4   0   0     4   0   0     0   0   0     0   4   4     0   0   0     0   0   0     2   0   0     2   0   0     0   0   4     0   0   0     0   0   0     0   0   0     0   0   0     0   0   0     0   0   0     0   0   0     0   0   0     0   0   0     0   2   0     0   2   0     0   0   0     0   0   0     0   0   0     0   0   0     0   0   0     0   0   0     0   0   0     0   0   0     0   0   0     2   0   0     0   0   0     0   0   0     0   0   0     0   2   0     0   0   0     0   0   2     0   0   0     0   0   0     0   0   2     0   2   0     2   0   0     0   0   0     0   0   0     0   0   0     0   0   0     0   0   0     0   0   0     0   0   0     0   0   0     0   0   0     2   0   0     0   4   4     0   8  16     0   0   0     0   0   0     0   0   0     0   8   0     8   8   0     8   0   0     0   0   0     0   0  16     0   0   0     0   0   0     0   0   0     0   0   0     0   0   0     0   0   0     0   0   0     0   0   0     0   0   0     0   0   0     0   0   0     0   0   0     0   0   0     0   0   0     0   0   0     0   0   0     0   0   0     0   0   0     0   0   0     0   0   0     0   0   0     0   0   0     0   0   0     0   0   0
  0   0   0     0   0   0     0   0   0     0   0   0     0   0   0     8   8   8     8   8   8     8   8   8     0   0   0     0   0   0     0   0   0     0   0   0     0   0   0     0   0   0     0   0   0     0   0   0     0   0   0     0   0   0     0   0   0     0   0   0     0   0   0     0   0   0     0   0   0     0   0   0     8   8   8     0   0   0     0   0   0     0   0   0     0   0   0     0   0   0     0   0   0     0   0   0     0   0   0     0   0   0     8   8   0     0   0   8     0   0   0     0   0   4     0   0   0     0   0   0     0   0   0     0   0   0     0   0   0     0   0   0     0   0   0     0   0   0     0   0   0     0   2   0     0   0   2     0   0   0     0   0   0     0   0   0     0   0   0     0   0   0     0   0   0     0   0   0     0   0   0     0   0   0     0   0   0     0   0   0     0   0   0     0   0   0     2   0   4     0   0   0     0   0   0     0   4   0     0   0   8     0   0   0     0   0   0     0   0   0     0   4   4     2   4   4     2   4   4     0   4   4     0   4   4     0   4  12     0   4   8     4   8  16     4   8  16     4   8  16     0   0   0     0   0   0     0   0   0     0   0   0     0   0   0     0   0   4     2   0   0     0   2   0     0   0   0     0   0   0     0   0   0     0   0   2     0   0   0     0   0   0     0   0   0     2   0   0     0   0   0     0   0   4     0   0   0     0   0   4     0   0   4     0   0   4     2   0   4     2   0   4     2   0   4     2   0   0     2   0   0     0   0   0     0   0   0     0   0   2     0   0   0     0   0   0     0   0   0     0   0   0     0   0   4     0   0   0     0   0   0     0   0   0     0   0   0     0   0   0     0   0   0     0   0   0     0   0   0     2   0   4     0   0   0     0   0   0     2   0   4     2   0   0     0   0   4     2   0   0     2   0   4     0   0   0     0   2   0     0   0   0     0   0   0     0   2   0     0   0   0     0   0   0     0   0   0     0   0   0     0   0   0     0   0   0     0   0   0     0   0   0     0   0   0     2   0   0     0   0   0     0   0   0     0   0   0     0   2   0     0   2   0     0   0   2     0   0   2     0   0   2     0   2   0     0   0   0     0   0   0     0   0   0     0   0   4     0   0   0     0   0   4     0   0   4     0   0   0     0   0   0     2   0   0     2   0   0     0   0   0     0   0   0     0   0   0     0   0   0     0   0   0     0   0   0     0   8   0     8   0   0     0   0   0     0   0   0     0   0   0     0   0   0     0   0   0     0   0   0     0   0   0     0   0   0     0   0   0     0   0   0     0   0   0     0   0   0     0   0   0     0   0   0     0   0   0     0   0   0     0   0   0     0   0   0     0   0   0     0   0   0     0   0   0     0   0   0     0   0   0     0   0   0     0   0   0     0   0   0
  0   0   0     8   8   8     0   0   0     0   0   0     0   0   0     0   0   0     0   0   0     0   0   0     0   0   0     0   0   0     0   0   0     0   0   0     0   0   0     0   0   0     0   0   0     0   0   0     0   0   0     0   0   0     0   0   0     0   0   0     0   0   0     0   0   0     0   0   0     0   0   0     0   0   0     0   0   0     0   0   0     0   0   0     0   0   0     0   0   0     0   0   0     0   0   0     0   0   0     8   8   0     0   0   8     0   0   0     4   4   0     0   0   4     0   0   0     0   0   0     0   0   0     0   0   0     0   0   0     0   0   0     0   0   0     0   0   0     2   0   0     0   2   0     0   0   0     0   0   0     0   0   0     0   0   0     0   0   0     0   0   0     0   0   0     0   0   0     0   0   0     0   0   0     0   0   0     0   0   0     0   0   0     0   0   0     0   0   0     2   0   4     0   0   0     0   0   0     0   0   0     0   0   8     2   0   0     0   0   0     0   0   0     0   0   0     0   0   0     2   0   0     0   0   0     0   0   0     0   0   0     0   0   0     0   0   4     0   0   8     0   0   8     0   0   0     0   0   0     0   0   0     0   0   8     0   4   0     2   0   0     0   0   0     0   0   2     0   0   0     0   0   0     0   0   0     0   0   0     0   0   0     0   0   0     2   0   0     0   0   0     0   0   0     2   0   0     2   0   0     0   0   0     0   0   0     0   2   0     0   0   0     0   0   0     2   0   0     0   0   0     0   0   0     0   2   0     0   0   0     0   0   0     0   0   0     0   0   0     0   0   0     2   0   0     2   0   0     2   0   0     2   0   0     0   0   0     0   2   0     0   2   0     0   0   0     0   0   0     0   0   0     0   0   0     0   0   0     0   0   0     0   0   0     0   0   0     0   0   0     0   0   0     0   2   0     0   0   0     0   0   0     0   0   0     0   0   0     0   0   0     0   2   0     0   0   0     0   0   0     0   0   0     0   0   0     0   0   0     0   0   0     0   0   0     0   0   0     0   0   0     0   0   0     0   0   0     0   0   0     2   0   0     0   0   0     0   0   0     0   0   0     0   0   0     0   0   0     2   0   0     0   0   0     0   0   0     0   0   0     0   0   0     0   0   4     0   0   0     0   0   0     0   0   0     0   0   0     0   0   0     4   0   8     4   0   8     0   0   0     0   0   0     0   0   0     0   0   8     0   0   8     0   0   0     8   8   0     0   0   0     0   0   0     0   0   0     0   0   0     0   0   0     0   0   0     0   0   0     0   0   0     0   0   0     0   0   0     0   0   0     0   0   0     0   0   0     0   0   0     0   0   0     0   0   0     0   0   0     0   0   0     0   0   0     0   0   0     0   0   0     0   0   0     0   0   0     0   0   0
  0   0   0     0   0   0     0   0   0     0   0   0     0   0   0     0   0   0     0   0   0     0   0   0     0   0   0     0   0   0     0   0   0     0   0   0     0   0   0     0   0   0     0   0   0     0   0   0     0   0   0     0   0   0     0   0   0     8   8   8     0   0   0     8   8   8     8   8   8     8   8   8     0   0   0     0   0   0     0   0   0     0   0   0     0   0   0     0   0   0     0   0   0     0   0   0     8   8   0     0   0   8     0   0   0     0   0   0     4   4   0     0   0   4     0   0   0     0   0   0     0   0   0     0   0   0     0   0   0     0   0   0     0   0   0     2   0   0     0   0   0     0   0   0     0   0   0     0   0   0     0   0   2     0   0   2     0   2   0     0   0   0     0   0   0     0   0   0     0   0   0     0   0   0     0   0   0     0   0   0     0   0   0     0   0   0     0   0   0     2   0   4     0   0   0     0   0   8     2   4  12     0   0   0     0   0   0     0   0   0     0   0   0     0   0   0     0   0   0     2   0   0     0   0   0     0   0   0     0   0   0     0   0   4     0   0   4     0   4   4     0   0   0     0   4   4     0   4   4     0   4   8     0   4   0     0   0   0     2   0   0     0   0   0     0   0   2     0   0   0     0   0   0     0   0   0     0   0   0     0   0   0     0   0   0     0   0   0     0   0   0     2   0   0     0   0   0     0   0   0     0   0   0     0   2   0     0   0   2     0   0   0     0   0   0     0   0   0     0   0   0     0   0   0     0   0   0     0   0   2     0   0   0     0   0   0     0   0   0     0   0   0     0   0   0     0   0   0     0   0   0     0   2   2     0   0   0     0   2   0     0   2   0     0   0   0     0   0   0     0   0   0     0   0   0     0   2   0     0   2   0     0   2   0     0   0   0     0   0   0     0   0   0     0   2   0     0   0   0     0   0   0     0   0   0     0   0   0     0   2   0     0   2   0     0   0   0     0   0   0     0   0   0     0   0   0     0   0   0     0   0   0     0   0   0     0   0   0     0   0   0     0   0   0     0   0   0     0   0   0     0   0   0     0   0   0     0   0   0     0   0   0     0   0   0     0   0   0     2   0   0     0   0   0     0   0   0     0   0   0     0   0   4     0   0   0     0   0   0     0   0   0     0   0   0     0   4   4     4   0   0     4   0   0     0   0   0     4   0   8     0   0   0     0   0   0     0   0   8     0   0   8     0   0   0     0   0   8     8   8   0     0   0   0     0   0   0     0   0   0     0   0   0     0   0   0     0   0   0     0   0   0     0   0   0     0   0   0     0   0   0     0   0   0     0   0   0     0   0   0     0   0   0     0   0   0     0   0   0     0   0   0     0   0   0     0   0   0     0   0   0     0   0   0     0   0   0     0   0   0
  0   0   0     0   0   0     0   0   0     0   0   0     0   0   0     0   0   0     0   0   0     0   0   0     0   0   0     8   8   8     0   0   0     0   0   0     0   0   0     0   0   0     0   0   0     0   0   0     8   8   8     0   0   0     0   0   0     0   0   0     0   0   0     0   0   0     0   0   0     0   0   0     0   0   0     0   0   0     0   0   0     0   0   0     0   0   0     0   0   0     0   0   0     0   0   0     0   8   0     8   0   0     0   0   8     0   0   0     0   0   0     0   0   0     0   0   0     4   4   0     4   4   0     0   0   0     0   0   0     0   0   0     0   0   0     2   0   0     0   2   0     0   0   0     0   0   0     0   0   2     0   0   0     0   0   0     0   2   0     0   0   0     0   0   0     0   0   0     0   0   0     0   0   0     0   0   0     0   0   0     0   0   0     0   0   0     0   0   0     0   0   0     0   0   0     0   4   0     0   0   0     0   0   0     0   0   0     0   0   0     0   0   0     0   0   0     0   0   0     0   0   0     2   0   0     0   0   0     4   4  12     0   4   4     0   0   0     0   4   4     0   4   4     0   4   4     0   4   4     0   0   4     0   0   4     2   0   0     0   0   0     0   0   0     0   0   2     0   0   0     0   0   0     0   0   0     0   0   0     0   0   0     0   0   0     0   0   0     0   0   0     0   0   0     0   0   0     0   0   0     0   2   0     0   0   0     0   0   2     0   0   0     0   0   0     0   0   0     0   0   0     0   0   0     0   2   0     0   0   0     0   0   2     0   0   0     0   0   0     0   0   0     0   0   0     0   2   2     0   2   2     0   2   2     0   0   0     0   0   0     0   0   0     0   0   0     0   0   0     0   0   0     0   0   0     0   0   0     0   0   0     0   0   0     0   0   0     0   2   0     0   0   0     0   0   0     0   0   2     0   0   0     0   0   0     0   0   0     0   0   0     0   0   0     0   0   0     0   0   0     0   0   0     0   0   0     0   0   0     2   0   0     0   0   0     0   0   0     2   0   0     0   0   0     0   0   0     0   0   0     0   0   0     2   0   0     2   0   0     2   0   0     0   0   0     2   0   0     0   0   0     0   0   0     0   0   0     0   0   0     2   0   0     0   0   0     2   0   0     2   0   0     0   0   0     0   0   0     0   0   0     0   0   0     0   0   0     0   0   0     4   0   8     0   0   0     0   0   0     0   0   8     0   0   8     0   0   8     0   0   0     8   8   0     0   0   0     0   0   0     0   0   0     0   0   0     0   0   0     0   0   0     0   0   0     0   0   0     0   0   0     0   0   0     0   0   0     0   0   0     0   0   0     0   0   0     0   0   0     0   0   0     8   8   8     0   0   0     0   0   0     0   0   0     0   0   0     0   0   0
  0   0   0     0   0   0     0   0   0     0   0   0     0   0   0     8   8   8     8   8   8     0   0   0     8   8   8     0   0   0     0   0   0     0   0   0     0   0   0     0   0   0     0   0   0     0   0   0     8   8   8     8   8   8     8   8   8     0   0   0     0   0   0     0   0   0     0   0   0     0   0   0     0   0   0     0   0   0     0   0   0     0   0   0     0   0   0     0   0   0     0   0   0     0   0   0     0   0   0     8   8   0     8   0   8     0   0   0     0   0   0     0   0   0     0   0   0     0   0   0     0   0   4     0   0   0     0   0   0     0   0   0     2   0   0     0   2   0     0   0   0     0   2   0     0   0   0     0   0   0     0   0   0     0   0   0     0   0   2     0   0   0     0   0   0     0   0   0     0   0   0     0   0   0     0   0   0     0   0   0     0   0   0     0   0   0     0   0   0     2   0   4     0   0   0     0   0   0     0   0   0     0   0   0     0   0   0     0   0   0     0   0   0     0   4   0     0   4   4     0   4   4     0   4   4     4   8   8     0   8   0     0   0   0     0   4   0     0   0   0     0   0   0     0   0   0     0   0   4     0   0   4     2   0   4     0   0   0     0   2   0     0   0   0     0   0   2     0   0   0     0   0   0     0   0   0     0   0   0     0   0   2     0   0   0     0   0   0     0   0   0     0   0   0     0   0   0     0   0   0     0   0   0     0   2   0     0   0   2     0   0   0     0   0   0     0   0   2     0   0   0     0   0   0     0   0   0     0   2   0     0   2   0     0   2   0     0   2   0     0   2   2     0   2   2     0   2   2     0   2   2     0   0   0     0   0   0     0   0   0     0   0   0     0   0   0     0   2   0     0   0   0     0   0   0     0   0   0     0   0   0     0   0   0     0   0   0     0   2   0     0   2   0     0   0   0     0   0   2     0   0   0     0   0   2     0   0   0     0   0   0     0   0   0     0   0   0     0   0   0     0   0   0     0   0   0     2   0   0     0   0   0     0   0   0     0   0   0     0   0   0     0   0   0     2   0   0     0   0   0     0   0   0     0   0   0     0   0   0     0   0   0     0   2   2     0   2   0     0   2   0     0   0   0     2   0   0     0   0   0     2   0   0     0   0   0     2   0   0     2   0   0     0   0   0     0   0   0     0   8  16     0   0   8     4   0   0     4   0   0     4   0   0     0   0   8     0   0   0     0   0   0     0   0   0     0   0   0     8   8   0     0   8   0     0   0   0     0   0   0     0   0   0     0   0   0     0   0   0     0   0   0     0   0   0     0   0   0     0   0   0     0   0   0     0   0   0     0   0   0     0   0   0     0   0   0     0   0   0     0   0   0     0   0   0     0   0   0     0   0   0     0   0   0     0   0   0     0   0   0
  0   0   0     0   0   0     0   0   0     0   0   0     0   0   0     8   8   8     0   0   0     8   8   8     0   0   0     8   8   8     0   0   0     0   0   0     0   0   0     0   0   0     0   0   0     0   0   0     0   0   0     0   0   0     0   0   0     0   0   0     0   0   0     0   0   0     0   0   0     0   0   0     0   0   0     0   0   0     0   0   0     0   0   0     0   0   0     0   0   0     0   0   0     0   0   0     0   0   0     0   8   0     0   0   0     0   0   0     0   0   8     0   0   0     0   0   0     0   0   0     0   0   0     0   0   0     0   0   0     0   0   0     2   2   0     0   0   0     0   0   0     0   2   0     0   2   0     0   0   0     0   0   0     0   0   0     0   0   2     0   0   0     0   2   0     0   0   0     0   0   0     0   0   0     0   0   0     0   0   0     0   0   0     0   0   0     0   0   0     2   0   0     2   0   4     0   0   0     0   0   0     0   0   0     0   0   0     0   0   0     0   0   4     0   0   0     0   0   0     4   0   0     4   0   0     0   0   0     0   8   8     0   0   0     0   4   0     2   0   4     0   0   0     0   0   0     2   0   4     0   0   0     0   0   0     0   0   0     0   0   0     0   0   0     0   0   0     0   0   0     0   0   0     0   0   0     0   0   0     0   0   2     0   2   0     0   0   0     0   0   0     0   0   0     0   0   0     0   0   0     0   0   0     0   0   0     0   0   0     0   0   0     0   0   2     0   0   0     0   0   0     0   2   0     0   0   0     0   0   0     0   0   0     0   2   0     0   2   0     0   0   0     0   0   0     0   0   0     0   0   0     0   0   0     0   0   0     0   0   0     0   0   0     0   0   0     0   0   0     0   0   2     0   0   2     0   0   0     0   0   0     0   0   0     0   0   0     0   0   0     0   0   0     0   0   0     0   0   2     0   0   0     0   0   0     0   0   0     0   0   0     0   0   0     0   0   0     0   0   0     0   0   0     0   0   0     0   0   0     0   0   0     0   0   0     2   0   0     2   0   0     0   0   0     0   0   0     0   0   0     0   0   0     0   2   0     0   0   2     0   0   2     0   0   0     0   0   0     0   0   0     0   0   2     0   0   2     0   2   2     2   0   0     0   0   0     0   0   0     0   0   0     0   4   4     4   0   8     0   0   8     0   0   8     0   0   0     0   0   0     0   0   0     0   0   8     0   8   0     8   8   0     0   0   0     0   8   0     0   0   0     0   0   0     0   0   0     0   0   0     0   0   0     0   0   0     0   0   0     0   0   0     0   0   0     0   0   0     0   0   0     0   0   0     0   0   0     0   0   0     0   0   0     0   0   0     0   0   0     8   8   8     0   0   0     0   0   0     0   0   0     0   0   0     0   0   0     0   0   0
  0   0   0     0   0   0     0   0   0     0   0   0     0   0   0     0   0   0     0   0   0     0   0   0     0   0   0     8   8   8     0   0   0     0   0   0     0   0   0     0   0   0     0   0   0     0   0   0     0   0   0     0   0   0     0   0   0     0   0   0     0   0   0     0   0   0     0   0   0     0   0   0     0   0   0     0   0   0     0   0   0     0   0   0     0   0   0     0   0   0     0   0   0     0   0   0     0   0   0     0   0   0     0   0   0     0   8   0     8   8   0     0   0   8     0   0   0     0   0   4     0   0   0     0   0   0     0   0   0     0   0   0     0   2   0     0   0   0     0   0   0     2   0   0     2   2   2     0   0   0     0   0   0     0   0   0     0   0   2     0   0   0     0   2   0     0   0   0     0   0   0     0   0   0     0   0   0     0   0   0     0   0   0     0   0   0     0   0   0     0   0   0     0   0   4     2   0   0     0   0   0     0   0   0     2   0   0     0   2   2     2   2   2     0   4   4     0   0   0     0   0   0     0   0   0     0   0   0     0   0   0     0   0   0     2   0   0     0   0   0     0   0   0     0   0   0     0   0   0     0   0   0     0   0   0     0   0   0     0   0   0     0   0   0     0   0   0     0   0   0     0   0   0     0   0   0     0   0   0     0   0   2     0   0   0     0   0   0     0   0   0     0   0   0     0   0   0     0   0   0     0   0   0     0   0   0     0   0   0     0   2   0     0   0   0     0   0   0     0   0   0     0   2   0     0   0   0     0   0   0     0   2   0     0   0   0     0   0   0     0   0   2     0   0   0     0   2   0     0   0   0     0   0   0     0   0   0     0   0   0     0   0   0     0   0   0     0   0   2     0   0   0     0   0   0     0   0   2     0   0   0     0   2   0     0   0   0     0   0   0     0   0   0     0   0   0     0   0   0     0   0   0     0   0   0     0   0   0     0   0   0     0   0   0     0   0   0     0   0   0     0   0   0     0   0   0     0   0   0     0   0   0     2   0   0     2   0   0     2   0   0     2   0   0     0   0   0     0   0   0     0   0   0     0   2   0     0   0   0     0   0   0     0   0   0     0   0   0     0   0   0     0   0   0     0   0   0     0   0   0     0   0   2     0   0   0     0   0   0     0   0   0     0   4   4     0   0   0     0   0   0     0   0   0     0   0   0     0   0   0     0   0   0     0   0   8     0   8   0     0   0   0     0   0   0     0   0   0     0   0   0     0   0   0     0   0   0     0   0   0     0   0   0     0   0   0     0   0   0     0   0   0     0   0   0     0   0   0     0   0   0     0   0   0     0   0   0     0   0   0     0   0   0     0   0   0     8   8   8     8   8   8     8   8   8     8   8   8     0   0   0     0   0   0     0   0   0     0   0   0
  0   0   0     0   0   0     0   0   0     0   0   0     0   0   0     0   0   0     0   0   0     0   0   0     0   0   0     0   0   0     8   8   8     0   0   0     8   8   8     0   0   0     8   8   8     0   0   0     0   0   0     0   0   0     0   0   0     0   0   0     0   0   0     0   0   0     0   0   0     0   0   0     0   0   0     0   0   0     0   0   0     0   0   0     0   0   0     0   0   0     0   0   0     0   0   0     0   0   0     0   0   0     0   0   0     0   8   0     0   0   8     0   0   8     0   0   0     0   4   4     0   0   0     0   0   0     0   0   0     0   0   0     2   0   0     0   2   0     0   2   0     0   0   0     0   0   0     0   0   0     0   0   0     0   0   0     0   0   0     0   0   0     0   2   0     0   0   0     0   0   0     0   0   0     0   0   0     0   0   0     0   0   0     0   0   0     0   0   0     0   0   0     0   0   4     0   0   4     0   0   4     0   0   4     2   0   0     0   2   2     0   2   2     0   0   0     0   0   4     0   0   0     0   0   0     0   0   0     0   0   0     0   0   4     0   2   0     0   2   0     0   2   0     0   2   0     0   0   0     0   0   2     0   0   2     0   0   2     0   0   0     0   0   2     0   0   0     0   0   0     0   0   0     0   0   0     0   0   0     0   0   0     0   2   0     0   0   0     0   0   0     0   0   0     0   0   0     0   0   0     0   0   0     0   0   0     0   0   0     0   0   0     0   0   0     0   0   0     0   0   0     0   2   0     0   0   0     0   0   0     0   2   0     0   0   0     0   0   0     0   0   2     0   0   2     0   0   2     0   0   2     0   0   2     0   2   2     0   0   2     0   0   0     0   0   0     0   0   0     0   0   2     0   0   2     0   0   0     0   0   0     0   2   0     0   0   0     0   0   0     0   0   0     0   0   0     0   0   2     0   0   0     0   0   0     0   0   0     0   0   0     0   0   0     0   0   0     0   0   0     0   0   0     0   0   0     2   0   0     0   0   0     0   0   0     2   0   0     0   0   0     0   0   0     0   0   0     0   0   0     0   0   0     0   2   0     0   0   0     0   0   2     0   0   0     0   0   0     0   0   0     0   0   0     0   0   0     0   0   0     0   0   2     0   0   0     0   0   0     0   0   0     0   0   0     0   0   0     0   0   0     0   0   0     0   0   8     0   0   8     0   0   8     0   0   0     0   0   0     0   0   0     0   0   0     0   0   0     0   0   0     0   0   0     0   0   0     0   0   0     0   0   0     0   0   0     0   0   0     0   0   0     0   0   0     0   0   0     0   0   0     0   0   0     0   0   0     0   0   0     0   0   0     0   0   0     8   8   8     8   8   8     8   8   8     8   8   8     0   0   0     0   0   0     0   0   0     0   0   0
  0   0   0     0   0   0     0   0   0     0   0   0     0   0   0     0   0   0     0   0   0     0   0   0     0   0   0     0   0   0     0   0   0     8   8   8     0   0   0     0   0   0     8   8   8     0   0   0     0   0   0     0   0   0     0   0   0     0   0   0     0   0   0     0   0   0     0   0   0     0   0   0     0   0   0     0   0   0     8   8   8     0   0   0     0   0   0     0   0   0     0   0   0     0   0   0     0   0   0     0   0   0     0   0   0     8   8   8     0   0   0     0   0   0     0   0   0     0   4   4     0   0   0     0   0   0     0   0   0     0   0   0     0   0   0     0   0   0     0   0   0     0   0   0     0   0   0     0   0   0     0   0   0     0   0   0     0   0   0     0   0   0     0   2   0     0   0   0     0   0   0     0   0   0     0   0   0     0   0   0     2   0   0     0   0   0     0   0   0     0   0   4     0   0   4     0   0   4     0   0   0     2   0   0     0   0   0     0   0   0     0   0   0     0   0   0     2   0   0     0   0   0     0   0   4     0   0   4     0   0   0     0   2   0     0   0   0     0   0   2     0   0   0     0   2   0     0   0   0     0   0   2     0   0   2     0   0   2     0   0   0     0   0   2     0   0   0     0   0   0     0   0   0     0   0   0     0   0   0     0   0   0     0   2   0     0   0   0     0   0   0     0   0   0     0   0   0     0   0   0     0   0   0     0   0   0     0   0   0     0   0   0     0   2   0     0   0   0     0   0   0     0   2   0     0   0   0     0   0   0     0   0   0     0   0   0     0   0   0     0   0   2     0   0   2     0   0   2     0   0   2     0   0   2     0   0   2     0   0   2     0   0   0     0   0   0     0   0   0     0   0   0     0   0   0     0   0   0     0   2   0     0   0   0     0   0   0     0   2   0     0   0   0     0   0   0     0   0   2     0   0   2     0   0   0     0   0   0     0   2   0     0   0   0     0   0   0     0   0   0     0   0   0     0   0   0     2   0   0     0   0   0     0   0   0     0   0   0     0   0   0     2   0   0     0   2   0     0   0   0     0   2   0     0   0   0     0   2   0     0   2   0     0   0   0     0   2   0     0   2   2     0   2   2     0   0   2     0   0   2     0   2   0     0   0   0     0   0   0     0   0   0     0   0   4     0   0   0     0   8   0     0   0   0     0   8   0     0   0   0     0   0   0     0   0   0     0   0   8     8   8   8     0   0   0     0   0   0     0   0   0     0   0   0     0   0   0     0   0   0     0   0   0     0   0   0     0   0   0     0   0   0     0   0   0     0   0   0     0   0   0     0   0   0     0   0   0     0   0   0     0   0   0     0   0   0     0   0   0     0   0   0     8   8   8     0   0   0     0   0   0     0   0   0     0   0   0     8   8   8
  0   0   0     0   0   0     0   0   0     0   0   0     0   0   0     0   0   0     0   0   0     0   0   0     0   0   0     8   8   8     0   0   0     8   8   8     0   0   0     0   0   0     0   0   0     0   0   0     0   0   0     0   0   0     0   0   0     0   0   0     0   0   0     0   0   0     0   0   0     0   0   0     0   0   0     8   8   8     0   0   0     8   8   8     0   0   0     0   0   0     0   0   0     0   0   0     0   0   0     8   8   8     0   0   0     0   0   0     0   0   0     0   0   0     0   0   0     4   0   0     0   4   4     0   0   0     0   0   0     0   0   0     0   0   0     0   0   0     2   0   0     0   0   0     0   0   0     0   0   0     0   0   0     0   0   0     0   0   0     0   0   2     0   2   0     0   0   0     0   0   0     0   0   0     0   0   0     0   0   0     2   0   0     0   0   0     0   0   0     0   0   0     0   0   4     0   0   4     2   0   4     0   0   0     0   2   0     0   2   0     0   0   0     0   2   0     0   2   0     0   0   0     2   2   0     0   2   0     0   2   2     0   2   2     0   2   2     0   2   0     0   0   0     0   2   0     0   0   0     0   0   2     0   0   0     0   0   0     0   0   0     0   0   2     0   0   0     0   0   0     0   0   0     0   0   0     0   0   0     0   0   2     0   2   0     0   0   0     0   0   0     0   0   0     0   0   0     0   0   0     0   0   0     0   0   0     0   0   0     0   0   0     0   0   0     0   2   0     0   2   0     0   0   0     0   0   0     0   0   0     0   0   0     0   0   0     0   0   0     0   0   0     0   0   0     0   0   0     0   0   2     0   0   2     0   0   2     0   0   2     0   0   0     0   2   0     0   0   0     0   0   0     0   2   0     0   2   0     0   2   0     0   0   0     0   0   0     0   0   0     0   0   0     0   0   0     0   0   0     0   0   2     0   0   0     0   0   0     0   2   0     0   2   0     0   0   0     0   0   0     0   0   0     0   0   0     2   0   0     0   0   0     0   0   0     0   0   0     0   0   0     2   2   0     0   0   0     0   0   0     0   2   0     0   0   0     0   0   0     0   0   0     0   0   0     0   0   0     2   0   0     0   0   0     0   0   0     0   0   0     0   0   0     0   0   0     0   0   0     0   0   0     0   0   0     0   0   0     0   0   0     0   0   0     0   0   0     0   8   0     0   0   0     0   0   0     0   0   8     8   8   8     0   0   0     0   0   0     0   0   0     0   0   0     0   0   0     0   0   0     0   0   0     0   0   0     0   0   0     0   0   0     0   0   0     0   0   0     0   0   0     0   0   0     0   0   0     0   0   0     0   0   0     8   8   8     8   8   8     0   0   0     0   0   0     0   0   0     0   0   0     0   0   0     0   0   0     0   0   0
  0   0   0     0   0   0     0   0   0     0   0   0     0   0   0     0   0   0     0   0   0     0   0   0     0   0   0     0   0   0     0   0   0     0   0   0     0   0   0     8   8   8     0   0   0     0   0   0     0   0   0     0   0   0     0   0   0     0   0   0     0   0   0     0   0   0     0   0   0     0   0   0     0   0   0     0   0   0     0   0   0     0   0   0     8   8   8     0   0   0     0   0   0     8   8   8     0   0   0     0   0   0     0   0   0     0   0   0     0   0   0     0   0   0     0   0   0     0   0   0     0   0   0     4   4   4     0   0   0     0   0   0     0   0   0     2   0   0     2   0   0     0   0   0     0   0   0     0   0   0     0   0   0     0   0   0     0   0   0     0   0   2     0   2   0     0   0   0     0   0   0     0   0   0     0   0   0     0   0   0     0   0   0     2   0   0     0   0   0     0   0   0     0   0   0     0   0   0     0   0   0     0   2   0     0   0   0     0   0   0     0   2   0     0   0   2     0   0   2     0   0   0     0   2   0     0   2   0     0   2   2     0   2   2     0   0   0     0   0   0     0   0   0     0   0   0     0   0   0     0   0   2     0   0   0     0   0   0     0   0   0     0   0   0     0   0   0     0   0   0     0   0   0     0   0   0     0   0   0     0   0   2     0   2   0     0   0   0     0   0   0     0   0   0     2   0   0     0   0   0     0   0   0     0   0   0     0   0   0     0   0   0     0   0   0     0   0   0     0   0   0     0   0   0     0   2   0     0   0   0     0   0   0     0   0   0     0   0   0     0   2   0     0   0   0     0   0   0     0   0   0     0   2   0     0   2   0     0   0   0     0   0   0     0   0   0     0   0   0     0   0   0     0   0   0     0   2   0     0   2   0     0   0   0     0   2   0     0   0   0     0   0   0     0   0   0     0   0   0     0   0   0     0   0   0     0   0   0     0   0   0     0   0   0     0   0   0     0   0   0     0   0   0     2   0   0     0   0   0     0   0   0     0   0   0     0   0   0     0   0   0     2   2   0     0   2   0     0   0   0     0   2   0     0   2   0     2   0   0     0   0   0     0   0   0     0   0   0     2   0   0     0   0   0     0   0   0     0   0   0     0   0   0     0   0   0     0   0   0     0   0   0     0   0   0     0   8   0     0   0   0     0   0   0     0   0   0     0   0   0     0   0   0     8   8   0     8   8   0     0   0   0     0   0   0     0   0   0     0   0   0     0   0   0     0   0   0     0   0   0     0   0   0     0   0   0     0   0   0     0   0   0     0   0   0     0   0   0     0   0   0     0   0   0     0   0   0     0   0   0     0   0   0     8   8   8     0   0   0     0   0   0     0   0   0     0   0   0     0   0   0     0   0   0     0   0   0     0   0   0
  0   0   0     0   0   0     0   0   0     0   0   0     0   0   0     0   0   0     0   0   0     0   0   0     0   0   0     8   8   8     0   0   0     0   0   0     0   0   0     0   0   0     0   0   0     0   0   0     0   0   0     0   0   0     0   0   0     0   0   0     0   0   0     0   0   0     8   8   8     8   8   8     0   0   0     0   0   0     0   0   0     0   0   0     0   0   0     0   0   0     0   0   0     8   8   8     0   0   0     0   0   0     0   0   0     0   0   0     0   0   0     0   0   0     0   0   0     0   0   8     0   0   0     0   0   0     0   0   0     0   0   0     0   0   0     2   0   0     0   2   2     0   0   0     0   0   0     0   0   0     0   0   0     0   0   0     0   0   0     0   0   2     0   0   0     0   0   0     0   0   0     0   0   0     0   0   0     0   0   0     0   0   0     0   0   0     0   0   0     0   0   0     0   0   0     0   0   0     0   0   0     0   0   0     0   0   0     0   0   0     0   0   0     0   2   2     0   0   2     0   0   0     0   0   0     0   2   0     0   0   0     0   0   0     0   0   0     0   0   0     0   0   0     0   0   0     0   2   0     0   0   2     0   0   0     0   0   0     0   0   0     0   0   2     0   0   0     0   0   0     0   0   0     0   0   0     0   0   0     0   0   2     0   2   0     0   0   0     0   0   0     0   0   0     0   0   0     0   0   0     0   0   0     0   0   0     0   0   0     0   0   0     0   0   0     0   0   0     0   0   0     0   0   0     0   2   0     0   2   0     0   0   0     0   0   0     0   0   0     0   0   0     0   2   0     0   0   0     0   0   0     0   0   0     0   0   0     0   0   0     0   0   0     0   0   0     0   0   0     0   0   0     0   0   0     0   2   0     0   0   0     0   0   0     0   0   0     0   0   0     0   0   0     0   0   0     0   0   0     0   0   0     0   0   0     0   0   0     0   0   0     0   0   0     0   0   0     2   0   0     0   0   0     0   0   0     0   0   0     0   0   0     0   0   0     0   0   0     0   0   0     0   2   0     0   2   0     0   0   0     0   2   2     0   0   0     0   0   0     0   0   0     0   0   0     0   2   0     0   0   0     0   0   0     0   2   0     0   0   0     0   0   0     2   0   0     2   0   0     0   0   0     0   0   0     0   8   0     0   8   0     0   0   0     0   0   0     0   0   0     0   0   0     0   0   0     0   0   0     0   0   0     0   0   0     0   0   0     0   0   0     0   0   0     0   0   0     0   0   0     0   0   0     0   0   0     0   0   0     0   0   0     0   0   0     0   0   0     0   0   0     0   0   0     0   0   0     0   0   0     0   0   0     8   8   8     0   0   0     0   0   0     0   0   0     0   0   0     0   0   0     0   0   0     0   0   0     0   0   0
  8   0   8     0   0   0     0   0   0     0   0   0     0   0   0     0   0   0     0   0   0     0   0   0     0   0   0     0   0   0     0   0   0     8   0   8     0   0   0     0   0   0     0   0   0     0   0   0     0   0   0     0   0   0     0   0   0     0   0   0     0   0   0     8   8   8     0   0   0     0   0   0     0   0   0     0   0   0     0   0   0     0   0   0     0   0   0     0   0   0     8   8   8     0   0   0     0   0   0     0   0   0     0   0   0     0   0   0     0   0   8     0   0   0     0   0   0     0   0   0     0   0   0     0   0   0     0   0   0     0   0   0     0   0   0     0   0   0     2   2   2     0   0   2     0   0   0     0   0   0     0   0   0     0   0   0     0   0   0     0   0   0     0   2   0     0   0   0     0   0   0     0   0   0     0   0   0     0   2   0     0   2   0     0   0   0     0   0   0     0   0   0     0   0   0     0   2   0     0   2   0     0   0   0     0   2   0     0   0   0     0   0   0     0   0   0     0   2   0     0   0   0     0   0   0     0   0   0     0   0   0     0   2   0     0   0   0     0   0   0     0   0   0     0   0   0     0   0   0     0   0   0     0   0   0     0   2   0     0   2   0     0   0   0     0   0   0     0   0   0     0   0   0     0   0   0     0   0   0     0   0   0     0   2   0     0   0   0     0   0   0     0   0   0     0   0   0     0   0   0     0   0   0     0   0   0     0   0   0     0   0   0     0   0   0     0   0   0     0   0   0     0   2   0     0   0   0     0   0   0     0   0   0     0   0   0     0   0   0     0   0   0     0   0   0     0   0   0     0   0   0     0   0   0     0   0   0     0   0   0     0   0   0     0   0   0     0   2   0     0   2   0     0   0   0     0   0   0     0   0   0     0   0   0     0   0   0     0   0   0     0   0   0     0   0   0     0   0   0     0   0   0     0   0   0     0   2   0     0   0   0     0   0   0     0   0   0     0   0   0     0   0   0     0   0   0     0   0   0     0   0   0     0   0   0     0   0   0     0   0   0     0   2   0     0   2   2     0   0   0     0   0   0     0   0   2     0   2   0     0   2   0     0   0   2     0   0   2     0   0   2     0   0   0     0   2   0     0   0   0     2   0   0     0   0   0     0   0   0     0   0   0     4   0   0     0   0   8     0   0   8     0   8   0     0   0   0     0   0   0     0   0   0     0   0   0     0   0   0     0   0   0     0   0   0     0   0   0     0   0   0     0   0   0     0   0   0     0   0   0     8   8   0     0   0   0     8   8   0     0   0   0     0   0   0     0   0   0     0   0   0     0   0   0     0   0   0     0   0   0     0   0   0     0   0   0     8   8   0     0   0   0     0   0   8     0   0   0     0   0   0     0   0   0     0   0   8     0   0   0
  0   0   0     0   0   0     0   0   0     0   0   0     0   0   0     0   0   0     0   0   0     0   0   0     0   0   0     0   0   0     0   0   0     0   8   0     0   0   0     0   0   0     0   0   0     0   0   0     0   0   0     0   0   0     0   0   0     0   0   0     0   8   0     0   0   0     0   0   0     0   0   0     0   0   0     0   0   0     0   0   0     8   8   8     0   0   0     0   8   0     8   0   8     0   0   0     0   0   0     0   0   0     0   0   0     0   0   0     0   0   0     0   0   0     0   0   0     0   0   0     4   4   4     0   0   0     0   0   0     0   0   0     0   0   0     0   0   0     0   0   0     0   0   2     0   0   0     0   0   0     0   0   0     0   0   0     0   0   0     0   0   0     0   0   0     0   2   0     0   0   0     0   0   0     0   0   0     0   2   0     0   2   0     0   0   0     0   0   0     0   0   0     0   0   0     0   0   0     0   0   0     0   0   0     0   0   0     0   0   0     0   0   0     0   0   0     0   0   0     0   0   0     0   0   0     0   2   0     0   0   0     0   0   0     0   0   0     0   0   0     0   0   0     0   0   0     0   0   0     0   0   0     0   0   0     0   2   0     0   2   0     0   0   0     0   0   0     0   0   0     0   0   0     0   0   0     0   0   0     0   0   0     0   2   0     0   0   0     0   0   0     0   0   0     0   0   0     0   0   0     0   0   0     0   0   0     0   0   0     0   0   0     0   0   0     0   0   0     0   0   0     0   0   0     0   0   0     0   0   0     0   0   0     0   0   2     0   0   2     0   0   0     0   0   2     0   2   2     0   2   0     0   2   0     0   2   0     0   2   0     0   0   0     0   0   0     0   0   0     0   0   0     0   0   0     0   0   0     0   0   0     0   0   0     0   0   0     0   0   0     0   0   0     0   0   0     0   0   0     0   0   0     0   0   0     0   0   0     0   0   0     0   0   0     2   0   0     0   0   0     0   0   0     0   0   0     0   0   0     0   0   0     0   0   0     0   0   0     2   0   0     0   2   2     0   0   0     0   0   0     0   0   0     0   0   2     0   0   2     0   2   0     0   0   2     0   0   0     0   0   0     0   0   2     0   0   0     0   0   0     0   0   0     0   0   0     0   0   0     0   0   0     4   4   4     0   0   8     0   0   8     0   8   0     8   0   0     0   0   0     0   0   0     0   0   0     0   0   0     0   0   0     0   0   0     0   0   0     0   0   0     0   0   0     0   0   0     0   0   0     0   0   0     0   8   0     0   8   0     0   0   0     0   0   0     0   0   0     0   0   0     0   0   0     0   0   0     0   0   0     0   0   0     0   8   0     8   0   0     0   0   0     0   0   8     0   0   0     0   0   8     0   0   0     0   0   0     8   0   0
  0   0   0     0   0   0     0   0   0     0   0   0     0   0   0     0   0   0     0   0   0     0   0   0     0   0   0     0   0   0     0   0   8     0   0   0     0   0   0     0   0   0     0   0   0     0   0   0     0   0   0     0   0   0     0   0   0     0   0   0     0   0   0     0   0   0     0   0   0     0   0   0     0   0   0     0   0   0     0   0   0     8   8   8     0   0   0     0   0   0     0   0   0     0   0   0     0   0   0     0   0   0     0   0   0     0   0   0     0   0   0     0   0   0     0   0   0     0   0   0     4   4   4     0   0   0     0   0   0     0   0   0     0   0   0     0   0   0     2   2   2     2   0   2     0   0   0     0   0   0     0   0   0     0   0   0     0   0   0     0   0   0     0   0   0     0   2   0     0   0   0     0   0   0     0   0   0     0   0   0     0   0   0     0   0   0     0   0   0     0   2   0     0   2   0     0   0   0     0   0   2     0   0   2     0   0   0     0   2   0     0   0   0     0   0   0     0   0   0     0   2   0     0   0   0     0   0   0     0   0   0     0   0   0     0   0   0     0   0   0     0   0   0     0   0   0     0   0   0     0   0   0     0   0   0     0   0   0     0   0   0     0   0   0     0   0   0     0   0   0     0   0   0     0   0   0     0   0   0     0   0   0     0   2   0     0   0   0     0   0   0     0   0   0     0   0   0     0   0   0     0   0   0     0   0   0     0   0   0     0   0   0     0   0   0     0   0   0     0   0   0     0   0   0     0   2   0     0   0   0     0   0   0     0   0   0     0   0   2     0   0   0     0   0   0     0   0   0     0   0   2     0   0   0     0   0   0     0   0   0     0   0   0     0   0   0     0   0   0     0   0   0     0   0   0     0   0   0     0   0   0     0   0   0     0   0   0     0   0   0     0   0   0     0   0   0     0   0   0     0   0   0     0   2   0     0   0   0     0   0   0     0   0   0     0   0   0     0   0   0     0   0   0     0   0   0     0   0   0     0   0   0     0   0   0     0   0   0     0   0   0     0   2   2     0   0   0     0   0   0     0   0   0     0   0   2     0   0   2     0   0   0     0   0   2     0   0   0     0   0   0     0   0   2     0   0   0     0   0   0     0   2   0     0   2   0     2   0   0     0   0   0     4   4   4     0   0   0     0   0   0     0   0   0     0   0   0     0   0   0     0   0   0     0   0   0     0   0   0     0   0   0     0   0   0     0   0   0     0   0   0     0   0   0     0   0   0     0   0   0     0   0   0     0   8   0     0   8   0     0   0   0     0   0   0     0   0   0     0   0   0     0   0   0     0   0   0     0   0   0     0   0   0     8   0   0     0   0   8     0   0   0     0   0   0     0   0   0     0   0   0     0   0   8     0   0   0     0   0   0
  0   0   0     8   0   0     0   0   0     0   0   0     0   0   0     0   0   0     0   0   0     0   0   0     0   0   0     8   0   8     0   0   0     0   0   0     0   0   0     0   0   0     0   0   0     0   0   0     0   0   0     0   0   0     0   0   0     0   8   0     0   0   0     0   0   0     0   0   0     0   0   0     0   0   0     0   0   0     0   0   0     0   0   0     0   8   0     0   0   0     0   0   0     0   0   0     0   0   0     0   0   0     0   0   0     0   0   0     0   0   0     0   0   0     0   0   0     0   0   0     0   0   0     4   4   4     4   4   4     4   4   4     0   0   0     0   0   0     2   2   2     0   0   0     0   0   0     0   0   0     0   0   0     0   0   0     0   0   0     0   0   2     0   0   0     0   2   0     0   0   0     0   0   0     0   0   0     0   0   0     0   2   0     0   0   0     0   0   0     0   0   0     0   0   0     0   0   0     0   0   0     0   0   2     0   0   0     0   0   0     0   0   0     0   0   0     0   0   0     0   0   0     0   0   0     0   0   0     0   0   0     0   0   0     0   0   0     0   0   0     0   0   0     0   0   0     0   0   0     0   0   0     0   0   0     0   0   0     0   0   0     0   0   0     0   0   0     0   0   0     0   0   0     0   0   0     0   0   0     0   0   0     0   2   0     0   0   0     0   0   0     0   0   0     0   0   0     0   0   0     0   0   0     0   0   0     0   0   0     0   0   0     0   0   0     0   0   0     0   0   0     0   0   0     0   0   0     0   0   0     0   0   0     0   0   0     0   0   0     0   0   0     0   0   0     0   0   0     0   0   2     0   0   0     0   0   0     0   0   0     0   0   0     0   0   0     0   0   0     0   0   0     0   0   0     0   0   0     0   0   0     0   0   0     0   0   0     0   0   0     0   0   0     0   0   0     0   0   0     0   0   0     0   0   0     0   0   0     0   0   0     2   0   0     0   0   0     0   0   0     0   0   0     0   0   0     0   0   0     0   0   0     0   0   0     0   0   0     0   0   0     0   2   2     0   0   0     0   0   0     0   0   2     0   0   2     0   0   2     0   0   0     0   0   0     0   0   0     0   0   2     0   0   0     0   0   0     0   2   0     0   2   0     0   2   0     0   0   0     0   0   0     8   8   8     8   0   0     0   0   0     0   0   0     0   0   0     0   0   0     0   0   0     0   0   0     0   0   0     0   0   0     0   0   0     0   0   0     0   0   0     0   0   0     0   0   0     0   0   0     0   0   0     0   0   0     0   0   0     0   0   0     0   0   0     0   0   0     0   0   0     0   0   0     0   0   0     0   0   0     0   8   0     0   0   0     8   0   8     0   0   0     0   0   0     0   0   0     0   0   0     0   0   0     0   0   0     8   0   8
  0   0   0     8   0   0     0   0   0     0   0   0     0   0   0     0   0   0     0   0   0     0   0   0     0   0   0     0   8   0     0   0   0     0   0   0     0   0   0     0   0   0     0   0   0     0   0   0     0   0   0     0   0   0     0   0   0     8   0   0     0   0   0     0   0   0     0   0   0     8   0   0     8   0   0     8   0   0     8   8   8     0   0   0     8   0   8     0   0   0     0   0   0     0   0   0     0   0   0     0   0   0     0   0   0     0   0   0     0   0   0     0   0   0     0   0   0     0   0   0     0   0   0     0   0   0     0   0   0     0   0   0     0   0   0     4   4   4     2   2   2     2   2   2     0   0   0     0   0   2     0   0   0     0   0   0     0   0   0     0   0   0     0   0   2     0   2   0     0   0   0     0   0   0     0   0   0     0   0   0     0   2   0     0   0   0     0   0   0     0   0   0     0   0   0     0   2   0     0   2   0     0   0   0     0   0   0     0   0   0     0   0   0     0   0   0     0   0   0     0   0   0     0   0   0     0   0   0     0   0   0     0   0   0     0   0   0     0   2   0     0   0   0     0   0   0     0   0   0     0   0   0     0   2   0     0   0   0     0   0   0     0   2   2     0   0   0     0   0   0     0   0   0     0   0   0     0   0   0     0   0   2     0   2   0     0   0   0     0   0   0     0   0   0     0   0   0     0   0   0     0   0   0     0   0   0     0   0   0     0   0   0     0   0   0     0   0   0     0   0   0     0   0   0     0   0   0     0   0   0     0   0   0     0   0   0     0   0   0     0   0   0     0   0   0     0   0   0     0   0   0     0   0   0     0   0   2     0   0   0     0   0   0     0   0   0     0   0   0     0   0   0     0   0   0     0   0   0     0   0   0     0   0   0     0   0   0     0   0   0     0   0   0     0   2   0     0   0   0     0   0   0     0   0   0     0   0   0     0   0   0     2   0   0     0   0   0     0   0   0     0   0   0     0   0   0     0   0   0     0   0   0     0   0   0     0   0   0     0   0   0     0   0   0     0   0   0     0   0   0     0   0   0     0   0   2     0   0   2     0   0   2     0   0   0     0   2   0     0   2   0     0   2   0     0   2   0     0   2   0     0   0   0     2   0   0     2   0   0     4   4   4     8   0   0     8   0   0     0   0   0     0   0   0     0   0   0     0   0   0     0   0   0     0   0   0     0   0   0     0   0   0     0   0   0     0   0   0     0   0   0     0   0   0     0   8   0     0   8   0     0   0   0     0   0   0     0   8   0     0   8   0     0   0   0     0   0   0     0   0   0     0   0   0     0   0   0     0   0   0     0   8   0     0   8   0     8   0   0     0   0   0     0   0   0     0   0   0     0   0   0     0   0   0     0   0   0     0   0   0
  8   0   0     0   0   0     0   0   0     0   0   0     0   0   0     0   0   0     0   0   0     0   0   0     0   0   8     0   0   0     0   0   0     0   0   0     0   0   0     0   0   0     0   0   0     0   0   0     0   0   0     0   0   0     0   8   8     0   0   0     0   0   0     0   0   0     0   0   0     0   0   0     0   0   0     0   0   0     0   0   0     0   0   0     8   0   0     0   0   0     0   0   0     8   0   0     0   8   8     0   0   0     0   0   0     0   0   0     0   0   0     0   0   0     0   0   0     0   0   0     0   0   0     0   0   0     0   0   0     0   0   0     0   0   0     0   0   0     2   2   2     2   2   2     0   0   0     2   2   0     0   0   0     0   0   0     0   0   0     0   0   0     0   0   2     0   2   0     0   0   0     0   0   0     0   0   0     0   0   0     0   0   0     0   0   0     0   0   0     0   0   2     0   0   0     0   0   0     0   0   0     0   2   0     0   0   0     0   0   0     0   0   0     0   0   0     0   0   0     0   0   0     0   0   0     0   0   0     0   0   0     0   0   0     0   2   0     0   0   0     0   0   0     0   0   0     0   0   0     0   0   0     0   2   0     0   0   0     0   0   0     0   0   2     0   0   0     0   0   0     0   0   0     0   0   0     0   0   0     0   0   2     0   2   0     0   0   0     0   0   0     0   0   0     0   0   0     0   0   0     0   0   0     0   0   0     0   0   0     0   0   0     0   0   0     0   0   0     0   0   0     0   0   0     0   2   0     0   0   0     0   0   0     0   0   0     0   0   0     0   0   0     0   0   0     0   0   0     0   0   2     0   0   0     0   0   2     0   0   0     0   0   0     0   0   0     0   0   0     0   0   0     0   0   0     0   0   0     0   0   0     0   2   0     0   2   0     0   0   0     0   0   0     0   0   0     0   0   0     0   0   0     0   0   0     0   0   0     0   0   0     2   0   0     2   0   0     2   0   0     0   0   0     0   0   0     0   0   0     0   0   0     0   0   0     0   0   0     2   0   0     0   0   2     0   0   0     0   0   2     0   0   0     0   0   2     0   0   2     0   0   2     0   0   0     0   2   0     2   2   0     0   0   0     2   0   0     0   0   0     2   0   0     0   0   0     0   0   0     4   8   8     8   0   0     0   0   0     0   0   0     0   0   0     0   0   0     0   0   0     0   0   0     0   0   0     0   0   0     0   0   0     0   0   0     0   0   0     0   0   0     0   0   0     0   8   0     0   8   0     0   0   0     0   0   0     0   8   0     0   8   0     0   8   0     0   8   0     0   0   0     0   0   0     0   0   0     0   0   0     0   0   0     8   0   0     0   0   8     0   0   0     0   0   0     0   0   0     0   0   0     0   0   0     0   0   0     0   0   0
  8   0   0     0   0   8     8   0   0     0   0   0     0   0   0     0   0   0     0   0   0     8   0   8     0   8   0     0   0   0     0   0   0     0   0   0     0   0   0     0   0   0     0   0   0     0   0   0     0   0   0     0   8   8     8   0   0     0   0   0     0   0   0     0   0   0     0   0   0     0   0   0     0   0   0     0   0   0     0   0   0     0   0   0     0   0   0     0   0   0     0   0   0     8   0   0     0   8   0     8   8   8     8   8   8     0   0   0     0   0   0     0   0   0     0   0   0     8   8   8     0   0   0     8   8   8     8   8   8     0   0   0     0   0   0     0   0   0     0   0   0     2   2   2     2   2   2     0   0   0     2   2   0     0   0   0     0   0   0     0   0   0     0   0   0     0   2   0     0   0   0     0   0   0     0   0   0     0   0   0     0   2   0     0   0   0     0   0   0     0   0   2     0   0   2     0   0   0     0   0   0     0   2   0     0   2   0     0   2   0     0   0   0     0   2   0     0   0   0     0   0   0     0   0   0     0   0   0     0   2   0     0   0   0     0   0   0     0   2   0     0   0   0     0   0   2     0   0   2     0   0   0     0   2   0     0   0   0     0   0   0     0   0   0     0   0   0     0   0   0     0   0   0     0   0   0     0   0   0     0   0   0     0   2   0     0   0   0     0   0   0     0   0   0     0   0   0     0   0   0     0   0   0     0   0   0     0   0   0     0   0   0     0   0   0     0   0   0     0   0   0     0   0   0     0   2   0     0   0   0     0   0   0     0   0   0     0   0   0     0   0   0     0   0   0     0   0   0     0   0   0     0   0   0     0   0   0     0   0   0     0   0   0     0   0   0     0   0   0     0   0   0     0   0   0     0   0   0     0   0   0     0   0   0     0   0   0     0   0   0     0   0   0     0   0   0     0   0   0     0   0   0     0   0   0     0   0   0     0   0   0     2   0   0     0   0   0     0   0   0     2   0   0     0   0   0     0   0   0     0   0   0     0   0   0     0   0   0     0   2   2     0   0   0     0   0   0     0   0   2     0   0   0     0   0   2     0   2   2     0   2   0     0   0   0     0   0   0     2   0   0     0   0   0     2   0   0     0   0   0     0   0   0     0   0   0     0   0   0     0   4   4     0   8   8     8   0   0     8   0   0     0   0   0     0   0   0     0   0   0     0   0   0     0   0   0     0   0   0     0   0   0     0   0   0     0   0   0     0   0   0     0   0   0     0   0   0     0   0   0     0   0   0     0   0   0     0   8   0     0   8   0     0   8   0     0   0   0     0   0   0     0   8   0     0   0   0     0   0   0     0   8   0     8   0   8     0   0   0     0   0   0     0   0   0     0   0   0     0   0   0     0   0   0     0   0   0     0   0   0
  0   8   0     0   8   0     0   0   8     0   0   0     8   0   0     8   0   0     0   0   0     0   8   0     0   0   0     0   0   0     0   0   0     0   0   0     0   0   0     0   0   0     0   0   0     0   0   0     0   0   0     0   0   0     0   0   0     0   0   0     0   0   0     0   0   0     0   0   0     0   0   0     0   0   0     0   0   0     0   0   0     8   0   0     0   0   0     0   0   0     0   0   0     0   0   0     8   0   8     0   0   0     0   0   0     0   0   0     0   0   0     0   0   0     0   0   0     0   0   0     0   0   0     8   8   8     8   8   8     8   8   8     0   0   0     0   0   0     0   0   0     0   2   2     0   2   2     0   0   0     0   0   0     0   0   0     0   0   0     0   0   0     0   0   0     0   2   0     0   0   0     0   0   0     0   0   0     0   0   0     0   2   0     0   0   0     0   0   0     0   0   0     0   0   2     0   0   0     0   0   2     0   0   0     0   2   0     0   0   0     0   0   0     0   0   0     0   0   0     0   0   0     0   0   0     0   0   0     0   0   0     0   0   0     0   2   0     0   0   0     0   0   0     0   0   2     0   0   0     0   0   0     0   0   0     0   0   0     0   2   0     0   0   0     0   0   0     0   0   0     0   0   0     0   0   0     0   0   0     0   0   0     0   0   2     0   2   0     0   0   0     0   0   0     0   0   0     0   0   0     0   0   0     2   0   0     2   0   0     0   0   0     0   0   0     0   0   0     0   0   0     0   0   0     0   0   0     0   2   0     0   0   0     0   0   0     0   0   0     0   0   0     0   0   0     0   0   2     0   0   0     0   0   0     0   0   0     0   0   0     0   0   0     0   0   0     0   0   0     0   0   0     0   0   0     0   0   0     0   0   0     0   0   0     0   0   0     0   0   0     0   0   0     0   0   0     0   0   0     0   0   0     0   0   0     0   0   0     0   0   0     0   0   0     0   0   0     0   0   0     2   0   0     0   0   0     0   0   0     0   0   0     0   0   0     0   0   0     0   2   2     0   0   0     0   0   0     0   0   0     0   0   0     0   0   0     0   2   0     0   0   0     0   0   0     0   0   0     0   0   0     2   0   0     2   0   0     2   0   0     0   0   0     0   0   0     0   0   0     0   0   0     4   4   4     0   0   0     0   8   8     8   0   0     0   0   0     0   0   0     0   0   0     0   0   0     0   0   0     0   0   0     0   0   0     0   0   0     0   0   0     0   0   0     0   0   0     0   0   0     0   8   0     0   8   0     0   8   0     0   0   0     0   8   0     0   0   0     0   0   0     0   8   0     0   0   0     0   0   0     0   8   0     0   0   0     0   0   0     0   0   0     0   0   0     0   0   0     0   0   0     0   0   0     0   0   0     8   0   8
  0   8   0     0   8   0     0   0   0     0   0   8     0   0   8     0   0   0     0   0   0     0   0   0     0   0   0     0   0   0     0   0   0     0   0   0     0   0   0     0   0   0     0   0   0     0   0   0     8   0   0     0   0   0     0   0   0     0   0   0     8   8   8     0   0   0     0   0   0     0   0   0     0   0   0     0   0   0     0   0   0     8   8   8     0   0   0     0   0   0     0   0   0     0   0   0     0   0   0     8   8   8     8   8   8     8   8   8     0   0   0     0   0   0     0   0   0     8   8   8     8   8   8     0   0   0     0   0   0     0   0   0     8   8   8     0   0   0     0   0   0     0   0   0     0   0   0     0   0   0     0   0   0     0   0   0     0   0   0     0   0   0     0   0   0     0   2   2     2   0   0     0   0   0     0   0   0     0   0   0     0   0   0     0   0   0     0   0   0     0   0   0     0   0   2     0   0   0     0   0   2     0   0   0     0   0   0     0   0   0     0   0   0     0   0   0     0   0   0     0   0   0     0   0   0     0   0   0     0   0   0     0   2   0     0   0   0     0   0   2     0   0   2     0   0   2     0   0   0     0   0   0     0   0   0     0   0   0     0   2   0     0   0   0     0   0   0     0   0   0     0   0   0     0   0   0     0   0   0     0   0   0     0   0   0     0   0   2     0   2   0     0   0   0     0   0   0     0   0   0     2   0   0     0   0   0     0   0   0     2   0   0     0   0   0     0   0   0     0   0   0     0   0   0     0   0   0     0   0   0     0   2   0     0   0   0     0   0   0     0   0   0     0   0   2     0   0   0     0   0   0     0   0   0     0   0   2     0   0   0     0   0   0     0   0   0     0   0   0     0   0   0     0   0   0     0   2   0     0   0   0     0   0   0     0   0   0     0   0   0     0   0   0     0   0   0     0   0   0     0   0   0     0   0   0     0   0   0     0   0   0     0   0   0     0   0   0     0   0   0     0   0   0     0   0   0     0   0   0     0   0   0     0   0   0     0   0   0     0   0   0     0   0   2     0   0   2     0   0   2     0   0   0     0   0   0     0   2   0     2   0   0     0   0   0     0   0   0     0   0   0     2   0   0     0   0   0     0   0   0     2   0   0     0   0   0     0   0   0     0   0   0     0   0   0     0   0   0     0   0   0     0   0   8     0   8   0     0   0   0     0   0   0     0   0   0     0   0   0     0   0   0     0   0   0     0   0   0     0   0   0     0   0   0     0   0   0     0   0   0     0   8   0     0   0   0     0   0   0     0   0   0     0   8   0     0   8   0     0   0   0     0   0   0     0   8   0     0   0   0     0   0   0     8   0   8     0   0   0     0   0   0     0   0   0     0   0   0     0   0   0     0   0   0     0   0   0     0   0   8
  0   0   0     8   0   0     8   0   8     8   0   0     0   0   8     0   0   8     0   0   8     0   0   0     0   0   0     0   0   0     0   0   0     0   0   0     0   0   0     0   0   0     0   0   0     0   0   0     0   0   0     0   0   0     0   0   0     0   8   8     0   0   0     0   0   0     0   0   0     0   0   0     0   0   0     0   0   0     0   0   0     0   0   0     0   0   0     0   0   0     0   0   0     0   0   0     0   0   0     0   0   0     8   8   8     0   0   0     8   8   8     8   8   8     0   0   0     8   8   8     0   0   0     0   0   0     0   0   0     0   0   0     0   0   0     0   0   0     0   0   0     0   0   0     0   0   0     0   0   0     0   0   0     0   0   0     2   2   2     0   0   0     0   0   0     0   0   2     0   0   0     2   0   0     0   0   0     0   0   0     0   0   0     0   0   0     0   0   0     0   0   0     0   0   0     0   0   2     0   0   2     0   0   0     0   0   0     0   0   0     0   2   0     0   2   0     0   2   0     0   2   0     0   2   0     0   2   0     0   0   0     0   0   0     0   0   0     0   0   2     0   0   2     0   0   2     0   0   0     0   2   0     0   0   0     0   0   0     0   2   0     0   0   0     0   0   0     0   0   0     0   0   0     0   0   0     0   0   0     0   0   0     0   0   0     0   0   2     0   0   0     0   0   0     0   0   0     0   0   0     2   0   0     0   0   0     2   0   0     0   0   0     0   0   0     0   0   0     0   0   0     2   0   4     2   0   4     2   0   4     0   0   0     0   2   0     0   0   0     0   0   0     0   0   0     0   0   0     0   0   2     0   0   2     0   0   2     0   0   0     0   0   0     0   0   0     0   0   0     0   0   0     0   0   0     0   2   0     0   0   0     0   0   0     0   0   0     0   0   0     0   0   0     0   0   0     0   0   0     0   0   0     0   0   0     0   0   0     0   0   0     0   0   0     0   0   0     0   0   0     0   0   0     2   0   0     0   0   0     0   0   0     0   0   0     0   0   0     0   2   0     0   0   0     0   0   0     0   0   2     0   0   0     0   0   0     0   0   0     2   0   0     0   0   0     0   0   0     0   0   0     0   0   0     0   0   0     0   0   0     2   0   0     2   0   0     2   2   0     0   0   0     0   0   0     0   0   0     0   0   0     0   0   0     8   8   8     0   0   0     0   0   0     0   0   0     0   0   0     0   0   0     0   0   0     0   0   0     0   0   0     0   0   0     0   0   0     0   0   0     0   0   0     0   0   0     0   0   0     0   0   0     0   8   0     0   0   0     0   0   0     0   8   0     0   8   0     0   0   0     0   8   0     0   0   0     0   0   0     0   0   0     0   0   0     0   0   0     8   0   0     0   0   8     0   0   0     0   0   8
  0   0   0     8   0   0     8   0   0     8   0   0     0   0   8     0   8   8     0   8   8     0   8   0     0   0   0     0   0   0     0   0   0     0   0   0     0   0   0     0   0   0     0   0   0     8   0   0     0   0   0     0   0   0     0   8   8     0   0   0     0   0   0     0   0   0     0   0   0     0   0   0     0   0   0     0   0   0     0   0   0     0   0   0     0   0   0     0   8   0     8   0   8     0   0   0     8   8   8     0   0   0     0   0   0     0   0   0     8   8   8     8   8   8     8   8   8     0   0   0     0   0   0     0   0   0     0   0   0     0   0   0     0   0   0     0   0   0     8   8   8     0   0   0     0   0   0     0   0   0     0   0   0     0   0   0     0   0   0     0   0   0     0   0   0     0   0   0     0   0   0     0   0   0     0   0   0     0   0   0     0   0   0     0   0   0     0   2   0     0   0   0     0   0   0     0   0   0     0   0   0     0   0   0     0   0   0     0   0   0     0   0   2     0   0   2     0   0   0     0   0   0     0   0   0     0   0   0     0   0   0     0   0   0     0   0   0     0   0   2     0   0   2     0   0   0     0   0   0     0   0   0     0   0   0     0   0   0     0   0   0     0   0   2     0   0   0     0   0   0     0   0   0     0   0   0     0   0   0     0   0   0     0   0   0     0   0   0     0   0   0     0   0   0     0   0   0     0   0   0     0   0   0     2   0   0     0   0   0     0   0   0     0   0   0     0   0   0     0   0   0     0   0   0     2   0   4     0   0   0     2   0   0     0   0   0     0   0   0     0   0   0     0   0   0     0   0   0     0   0   0     0   0   0     0   0   0     0   0   0     0   0   0     0   0   0     0   0   0     0   0   0     0   2   0     0   0   0     0   0   0     0   0   0     0   0   0     0   0   0     0   0   0     0   0   0     0   0   0     0   0   0     0   0   0     0   0   0     0   0   0     0   0   0     0   0   0     0   0   0     0   0   0     0   0   0     0   0   0     0   0   0     0   0   0     0   0   0     0   0   0     0   0   0     0   0   0     0   0   0     0   0   2     0   0   2     0   0   0     2   0   0     2   0   0     2   0   0     2   0   0     0   0   0     0   0   0     0   0   0     2   0   0     0   0   0     0   2   0     2   0   0     0   0   0     0   0   0     0   0   0     0   0   0     8   8   8     0   0   0     0   0   0     0   0   0     0   0   0     0   0   0     0   0   0     0   0   0     0   0   0     0   8   0     0   8   0     0   0   0     0   0   0     0   0   0     0   8   0     0   8   0     0   8   0     0   0   0     0   0   0     0   0   0     0   0   0     0   0   0     8   0   0     0   0   0     0   0   0     0   0   0     0   0   0     0   0   0     0   0   0     0   0   8     0   0   0     0   0   0
  8   0   0     0   0   0     8   0   0     0   0   0     0   0   0     0   8   8     0   0   8     0   8   0     0   0   0     0   0   0     0   0   0     0   0   0     0   0   0     0   0   0     0   8   0     0   0   0     0   0   0     0   0   0     0   0   0     0   0   0     0   0   0     0   0   0     0   0   0     0   0   0     0   0   0     0   0   0     0   0   0     0   0   0     0   0   0     0   0   0     0   8   0     0   8   0     0   0   0     0   0   0     0   0   0     0   0   0     0   0   0     0   0   0     0   0   0     0   0   0     0   0   0     0   0   0     0   0   0     0   0   0     0   0   0     0   0   0     0   0   0     0   0   0     4   4   4     0   0   0     0   0   0     0   0   0     0   0   0     0   2   2     0   0   2     0   0   2     0   2   0     0   0   0     0   0   0     0   0   0     0   0   0     0   0   0     0   0   0     0   2   0     0   0   0     0   0   0     0   0   0     0   0   0     0   0   0     0   0   0     0   0   2     0   0   2     0   0   0     0   0   0     0   0   0     0   0   0     0   0   0     0   0   0     0   0   0     0   0   0     0   0   0     0   0   0     0   0   0     0   2   0     0   0   0     0   0   0     0   0   0     0   0   2     0   0   0     0   0   0     0   0   0     0   0   0     0   0   0     0   0   0     0   0   0     0   0   0     0   0   2     0   2   0     0   0   0     0   0   0     0   0   0     0   0   0     0   0   0     0   0   0     0   0   0     0   0   0     0   0   0     0   0   0     0   0   4     0   0   0     0   0   0     2   0   0     0   0   0     0   0   0     0   0   0     0   0   0     0   0   0     0   0   0     0   0   0     0   0   0     0   0   0     0   0   0     0   0   0     0   0   0     0   2   0     0   0   0     0   0   0     0   0   0     0   0   0     0   0   0     0   0   0     0   0   0     0   0   0     0   0   0     0   0   0     0   0   0     0   0   0     0   0   0     0   0   0     0   0   0     0   0   0     0   0   0     2   0   0     0   0   0     2   0   0     0   0   0     0   0   0     0   2   0     0   0   0     0   0   0     0   0   0     0   2   0     2   0   0     0   0   0     2   0   0     0   0   0     0   0   0     0   0   0     0   0   0     0   0   0     0   0   0     2   0   0     0   0   0     0   0   0     2   0   0     0   0   0     4   4   0     0   0   0     8   8   8     0   0   0     0   0   0     0   0   0     0   0   0     0   0   0     0   0   0     0   0   0     0   0   0     0   8   0     0   8   0     0   0   0     0   0   0     0   0   0     0   8   0     0   0   0     0   8   0     0   0   0     0   0   0     0   8   0     0   0   0     0   0   0     8   0   0     0   0   0     0   0   0     0   0   0     0   0   0     0   0   0     0   0   0     0   0   0     8   0   0     0   0   0
  0   0   0     0   0   8     0   0   0     0   0   8     0   0   0     0   0   0     0   0   0     0   0   0     0   0   0     0   0   0     0   0   0     0   0   0     0   0   0     0   8   0     0   0   0     8   0   0     8   0   0     0   0   0     0   0   0     0   0   0     0   0   0     0   0   0     0   0   0     0   0   0     0   0   0     0   0   0     0   0   0     0   0   0     0   0   0     0   0   0     0   0   0     0   0   0     0   0   0     0   0   0     0   0   0     8   8   8     0   0   0     0   0   0     0   0   0     8   8   8     0   0   0     0   0   0     0   0   0     0   0   0     0   0   0     0   0   0     0   0   0     0   0   0     0   0   0     0   0   0     0   0   0     0   0   0     0   0   0     2   0   0     0   2   2     0   0   0     0   2   0     0   2   0     0   0   0     0   0   0     0   0   0     0   0   0     0   0   0     0   0   0     0   2   0     0   0   0     0   0   0     0   0   0     0   0   0     0   0   0     0   0   2     0   0   2     0   0   0     0   0   0     0   0   0     0   0   0     0   0   0     0   0   0     0   0   0     0   0   0     0   0   0     0   0   0     0   0   0     0   2   0     0   0   0     0   0   0     0   0   0     0   2   2     0   0   0     0   0   0     0   0   0     0   0   0     0   0   0     0   0   0     0   0   0     0   0   0     0   0   0     0   0   0     0   0   0     0   0   0     0   0   0     0   0   0     0   0   0     0   0   0     0   0   0     0   0   0     0   0   0     2   0   4     0   4   0     0   0   0     2   0   0     0   0   0     0   0   0     0   0   0     0   0   0     0   0   0     0   0   0     0   0   0     0   0   0     0   2   0     0   0   0     0   0   0     0   0   0     0   0   0     0   2   0     0   0   0     0   0   0     0   0   0     0   0   0     0   0   0     0   0   0     0   0   0     0   0   0     0   0   0     0   0   0     0   0   0     0   0   0     0   0   0     0   0   0     0   0   0     0   0   0     0   0   0     0   0   0     2   0   0     0   0   0     0   0   0     0   0   0     0   2   0     0   0   0     0   0   2     0   2   0     0   0   0     0   0   0     0   0   0     0   0   0     0   2   0     0   2   2     0   0   2     0   0   0     0   0   0     0   0   0     0   0   0     0   0   0     0   0   0     0   0   0     0   0   4     0   0   0     0   0   0     4   4   4     8   8   8     0   0   0     0   0   0     0   0   0     0   0   0     8   0   0     8   0   0     0   0   0     0   0   0     0   0   0     0   0   0     0   0   0     0   0   0     0   8   0     0   0   0     0   0   0     0   0   0     0   0   0     0   8   0     0   0   0     0   8   0     8   0   0     0   0   0     0   0   0     0   0   0     0   0   0     0   0   0     8   0   0     8   0   0     0   0   0     0   0   0
  8   0   8     0   0   0     0   8   0     0   0   0     0   0   0     0   0   0     0   0   0     0   0   0     0   0   0     0   0   0     0   0   0     0   0   0     0   8   0     0   0   0     0   0   0     8   0   0     8   0   0     0   0   0     0   0   0     0   0   0     0   0   0     0   0   0     0   0   0     0   0   0     0   8   0     0   8   0     0   0   0     0   0   0     0   0   0     0   0   0     0   0   0     0   0   0     0   0   0     0   0   0     0   0   0     8   8   8     0   0   0     0   0   0     0   0   0     8   8   8     0   0   0     0   0   0     0   0   0     0   0   0     8   8   8     0   0   0     8   8   8     0   0   0     0   0   0     0   0   0     0   0   0     0   0   0     0   0   0     2   0   0     2   0   0     0   0   0     0   2   0     0   2   0     0   0   0     0   0   0     0   0   0     0   0   0     0   0   0     0   0   0     0   2   0     0   0   0     0   0   0     0   0   0     0   0   0     0   0   0     0   0   0     0   0   0     0   0   0     0   0   0     0   0   0     0   0   0     0   0   0     0   0   0     0   0   0     0   0   0     0   0   0     0   0   0     0   0   0     0   2   0     0   0   0     0   0   0     0   0   0     0   2   2     0   0   0     0   0   0     0   0   0     0   0   0     0   0   0     0   0   0     0   0   0     0   0   0     0   0   0     0   0   2     0   2   0     0   0   0     0   0   0     0   0   0     0   0   0     0   0   0     0   0   0     0   0   0     0   0   0     0   4   0     0   0   0     0   4   4     2   0   0     0   0   0     0   0   0     0   0   0     0   0   0     0   0   0     0   0   0     0   0   0     0   0   0     0   0   0     0   2   0     0   2   0     0   0   0     0   2   0     0   0   0     0   0   0     0   0   0     0   0   0     0   0   0     0   0   0     0   0   0     0   0   0     0   0   0     0   0   0     0   0   0     0   0   0     0   0   0     0   0   0     0   0   0     0   0   0     0   0   0     0   0   0     0   0   0     0   0   0     2   0   0     0   0   0     0   0   0     0   0   0     0   2   0     0   0   0     0   0   0     2   0   0     0   0   0     0   0   0     0   0   0     0   2   0     0   0   2     0   0   2     2   0   0     0   0   0     0   0   0     2   0   0     2   0   0     0   0   0     2   0   0     0   0   0     0   0   0     0   0   0     4   4   4     0   0   0     8   0   0     0   0   0     0   0   0     0   0   0     8   0   0     8   0   0     0   0   0     0   0   0     0   0   0     0   0   0     0   0   0     0   0   0     0   8   0     0   0   0     0   0   0     0   0   0     0   0   0     0   0   0     0   8   0     0   0   0     0   8   0     8   0   0     0   0   0     0   0   0     0   0   0     0   0   0     8   0   0     0   0   0     0   0   0     0   0   0
  0   0   8     0   0   0     0   8   0     0   0   0     0   0   0     0   0   0     0   0   0     0   0   0     0   0   0     0   0   0     0   0   0     0   8   0     8   0   8     0   0   0     0   0   0     8   0   0     0   0   8     0   0   0     0   0   0     0   0   0     0   0   0     0   0   0     0   0   0     0   0   0     0   8   0     0   8   0     0   0   0     0   0   0     0   0   0     0   0   0     0   0   0     0   0   0     0   0   0     0   0   0     0   0   0     0   0   0     0   0   0     0   0   0     0   0   0     0   0   0     0   0   0     0   0   0     0   0   0     0   0   0     0   0   0     0   0   0     8   8   8     0   0   0     0   0   0     0   4   0     0   0   0     0   0   0     0   0   0     0   0   0     0   0   0     0   0   2     0   0   0     0   0   0     0   0   0     0   0   0     0   0   0     0   0   0     0   0   0     0   0   0     0   2   0     0   0   0     0   0   0     0   0   0     0   0   0     0   0   0     0   0   0     0   0   0     0   0   0     0   0   0     0   0   0     0   0   0     0   0   0     0   0   0     0   0   0     0   0   0     0   0   0     0   0   0     0   0   0     0   0   0     0   0   0     0   0   0     0   0   0     0   2   0     0   0   0     0   0   0     0   0   0     0   0   0     0   0   0     0   0   0     0   0   0     0   0   0     0   0   0     0   0   2     0   2   0     0   0   0     0   0   0     0   0   0     0   0   0     2   0   0     0   0   4     0   4   8     0   0   8     0   0   0     0   0   0     0   4   4     0   0   0     0   0   0     0   0   0     0   0   0     0   0   0     0   0   0     0   0   0     0   0   0     0   0   0     0   0   0     0   0   0     0   0   0     0   0   0     0   0   0     0   0   0     0   0   0     0   0   0     0   0   0     0   0   0     0   0   0     0   0   0     0   0   0     0   0   0     0   0   0     0   0   0     0   0   0     0   0   0     0   0   0     0   0   0     0   0   0     0   0   0     2   0   0     0   0   0     0   0   0     0   0   0     0   0   0     0   0   0     0   0   0     0   0   0     0   0   0     0   0   0     2   0   0     0   0   0     0   0   0     0   0   0     0   2   0     0   0   0     0   0   0     0   0   0     0   0   0     0   0   0     0   0   2     0   0   2     0   0   2     0   0   0     0   0   0     0   0   0     0   0   0     4   4   4     0   0   8     8   0   0     0   0   0     0   0   0     0   0   0     0   0   0     0   0   0     0   0   0     0   0   0     0   8   0     0   8   0     0   0   0     0   0   0     0   0   0     0   8   0     0   8   0     0   0   0     0   0   0     0   0   0     0   8   0     0   0   0     8   0   8     8   0   0     0   0   0     0   0   0     0   0   0     0   0   0     0   0   0     0   0   0     8   0   0     8   0   0
  0   0   0     0   8   8     8   8   8     0   8   8     0   8   0     0   8   0     0   8   0     0   0   0     0   0   0     0   0   0     0   0   0     8   0   0     0   0   0     0   0   0     0   0   0     8   0   0     0   0   0     0   0   0     0   0   0     0   0   0     0   0   0     0   0   0     0   0   0     0   0   0     0   0   0     0   0   0     0   0   0     0   0   0     0   0   0     0   0   0     0   0   0     0   0   0     0   0   0     0   0   0     0   0   0     0   0   0     8   8   8     8   8   8     8   8   8     0   0   0     0   0   0     0   0   0     8   8   8     0   0   0     0   0   0     0   0   0     8   8   8     8   8   8     0   0   0     4   0   4     0   4   0     0   0   0     0   0   0     0   0   0     0   0   0     0   0   2     0   0   0     0   0   0     0   0   0     0   0   0     0   0   0     0   0   0     0   0   0     0   0   0     0   0   0     0   0   0     0   0   0     0   0   0     0   0   0     0   0   0     0   0   0     0   0   0     0   0   0     0   0   0     0   0   0     0   0   0     0   0   0     0   0   0     0   0   0     0   0   0     0   0   0     0   0   0     0   0   0     0   0   0     0   0   0     0   0   0     0   0   0     0   0   0     0   0   0     0   0   0     0   0   0     0   0   0     0   0   0     0   0   0     0   0   0     0   0   0     0   0   0     0   2   0     0   0   0     0   0   0     0   0   0     0   0   0     0   4   0     0   0   0     0   0   0     0   0   0     0   8   0     0   0   0     0   0   8     0   0   4     0   0   0     0   0   0     0   0   0     0   0   0     0   0   0     0   0   0     0   0   0     0   0   0     0   0   0     0   0   0     0   0   0     0   0   0     0   0   0     0   0   0     0   0   0     0   0   0     0   0   0     0   0   0     0   0   0     0   0   0     0   0   0     0   0   0     0   0   0     0   0   0     0   0   0     0   0   0     0   0   0     0   0   0     0   0   0     0   0   0     0   0   0     0   0   0     0   0   0     0   0   0     2   0   0     2   0   0     2   0   0     0   0   0     0   0   0     0   0   0     0   0   0     0   0   0     0   0   0     0   0   0     0   0   0     0   2   0     0   0   0     0   0   2     0   0   0     0   0   0     0   2   2     0   0   0     0   0   2     0   2   2     2   0   0     0   0   0     0   0   0     0   0   0     0   0   0     0   8   0     8   0   0     8   0   0     0   0   0     0   0   0     0   0   0     0   0   0     0   0   0     0   8   0     8   0   0     0   0   0     0   0   8     8   0   8     8   8   8     0   8   0     0   0   0     0   0   0     0   0   0     0   8   0     0   8   0     0   0   0     0   0   0     0   0   0     0   0   0     0   0   0     0   0   0     0   0   0     0   0   0     0   0   0     0   0   0     0   0   0
  0   0   0     0   8   8     8   0   8     0   0   8     0   8   0     0   8   0     0   8   0     0   0   0     0   0   0     0   0   0     0   0   0     8   0   8     0   0   0     0   0   0     0   0   0     0   8   0     0   0   0     0   0   0     0   0   0     0   0   0     0   0   0     0   0   0     0   0   0     0   0   0     0   0   0     0   0   0     0   0   0     0   0   0     0   0   0     0   0   0     0   0   0     0   0   0     0   8   0     0   0   0     0   0   0     0   0   0     0   0   0     0   0   0     0   0   0     0   0   0     0   0   0     0   0   0     8   8   8     0   0   0     0   0   0     0   0   0     0   0   0     8   8   8     0   0   0     4   0   4     0   0   0     0   0   0     0   0   0     0   0   0     0   0   0     0   0   2     0   0   2     0   2   0     0   0   0     0   0   0     0   0   0     0   0   0     0   0   0     0   0   0     0   0   0     0   0   0     0   0   0     0   0   0     0   0   0     0   0   0     0   0   0     0   0   0     0   0   0     0   0   0     0   0   0     0   0   0     0   0   0     0   0   0     0   0   0     0   0   0     0   0   0     0   0   0     0   0   0     0   0   0     0   0   0     0   0   0     0   0   0     0   0   0     0   0   0     0   0   2     0   0   0     0   0   0     0   0   0     0   0   0     0   0   0     0   0   0     0   0   2     0   2   0     0   0   0     2   0   0     0   0   0     0   0   8     4   8   0     0   0   0     0   0  16     0   0  16     4   0  16     0   8   8     0   4   0     2   0   0     0   0   0     0   0   0     0   0   0     0   0   0     0   0   0     0   0   0     0   0   0     0   0   0     0   0   0     0   0   0     0   0   0     0   0   0     0   0   0     0   0   0     0   0   0     0   0   0     0   0   0     0   0   0     2   0   0     0   0   0     0   0   0     0   0   0     0   0   0     0   0   0     0   0   0     0   0   0     0   0   0     0   0   0     0   0   0     0   0   0     0   0   0     0   0   0     2   0   0     2   0   0     0   0   0     0   0   0     0   0   0     0   0   0     0   0   0     0   0   0     0   2   0     0   2   0     0   0   0     0   0   0     0   0   0     0   2   0     0   0   0     0   0   0     0   0   0     0   0   0     0   0   0     0   0   0     0   0   0     0   0   0     0   0   0     0   0   0     0   0   4     0   0   8     8   8   0     0   0   0     0   0   0     0   0   0     0   0   0     0   0   0     0   0   0     8   8   8     8   0   0     0   0   0     0   0   0     0   0   0     8   0   8     8   0   8     8   8   8     0   0   0     0   0   0     0   0   0     0   0   0     0   0   0     0   0   0     0   8   8     0   0   0     0   0   0     0   0   0     0   0   0     0   0   0     0   0   0     8   0   0     8   0   0     0   0   0     0   0   0
  8   0   0     0   0   8     8   0   8     0   0   8     0   0   0     0   8   0     0   8   0     0   0   0     0   0   0     0   0   0     0   0   0     0   0   0     0   0   0     0   0   0     8   0   0     0   0   0     0   0   0     0   0   0     0   0   0     0   0   0     0   0   0     0   0   0     0   0   0     0   0   0     0   0   0     0   0   0     0   0   0     0   0   0     0   0   0     0   0   0     0   0   0     0   8   0     0   0   0     0   0   0     0   0   0     0   0   0     0   0   0     0   0   0     0   0   0     0   0   0     0   0   0     0   0   0     0   0   0     0   0   0     0   0   0     0   0   0     0   0   0     8   8   8     0   0   0     0   0   0     4   4   4     4   4   4     0   0   0     0   0   0     0   0   0     2   0   0     0   0   0     0   0   2     0   0   0     0   2   0     0   0   0     0   0   0     0   0   0     0   0   0     0   0   0     0   0   0     0   2   0     0   0   0     0   0   0     0   0   0     0   0   0     0   0   0     0   0   0     0   0   0     0   0   0     0   0   0     0   0   0     0   0   0     0   0   0     0   0   0     0   0   0     0   0   0     0   0   0     0   0   0     0   0   0     0   0   0     0   0   0     0   0   0     0   2   0     0   0   0     0   0   2     0   0   0     0   0   0     0   0   0     0   0   0     0   0   0     0   0   0     0   0   0     0   0   0     0   0   0     0   4   0     4   8  16     0   0   0     0   0  16     0   0   0     0   0   0     0   0   8     0   4   0     0   0   4     0   0   0     0   0   0     0   0   0     0   2   0     0   2   0     0   0   0     0   0   0     0   0   0     0   0   0     0   0   0     0   0   0     0   0   0     0   0   0     0   0   0     0   0   0     0   0   0     0   0   0     0   0   0     0   0   0     0   0   4     0   0   0     2   0   0     0   0   0     0   0   0     0   0   0     0   0   0     0   0   0     0   0   0     0   0   0     0   0   0     0   0   0     2   0   0     0   0   0     2   0   0     0   0   0     2   0   0     0   0   0     2   0   0     0   0   0     2   0   0     0   0   0     0   0   0     0   0   0     2   0   0     0   0   0     0   0   0     0   2   0     0   0   0     0   0   2     0   0   0     0   0   0     0   0   0     0   0   0     0   0   0     0   2   2     0   0   0     0   0   0     4   4   4     0   0   0     0   0   8     8   0   0     0   0   0     0   0   0     0   0   0     0   0   0     0   0   0     0   0   8     0   0   0     0   0   0     0   0   0     8   0   0     8   0   8     8   0   8     8   0   8     0   0   0     0   0   0     0   0   0     0   0   0     0   0   0     0   0   0     0   8   8     0   0   0     0   0   0     0   0   0     0   0   0     4   4   4     4   4   4     4   4   4     4   4   4     6   6   6     8   0   0
  8   8   8     0   0   0     0   0   0     0   0   0     0   0   0     0   0   0     0   0   0     0   0   0     0   0   0     0   0   0     0   8   0     0   0   8     8   0   0     8   0   8     0   0   0     0   0   0     0   0   0     0   0   0     0   0   0     0   0   0     0   0   0     0   0   0     0   0   0     0   0   0     0   0   0     0   0   0     0   0   0     0   0   0     0   0   0     0   0   0     0   0   0     0   0   0     0   0   0     0   0   0     0   0   0     0   0   0     0   0   0     0   0   0     0   0   0     0   0   0     0   0   0     0   0   0     0   0   0     0   0   0     0   0   0     0   0   0     8   8   8     8   8   8     8   8   0     0   0   0     4   4   4     0   0   0     0   0   0     0   0   0     0   0   0     2   0   0     0   2   2     0   0   2     0   0   0     0   0   0     0   2   0     0   0   0     0   0   0     0   0   0     0   0   0     0   0   0     0   0   0     0   0   0     0   0   0     0   0   0     0   0   0     0   0   0     0   0   0     0   0   0     0   0   0     0   0   0     0   0   0     0   0   0     0   0   0     0   0   0     0   2   0     0   0   0     0   0   0     0   0   0     0   0   0     0   0   0     0   0   0     0   0   0     0   0   0     0   2   0     0   2   0     0   2   0     0   2   0     0   2   0     0   0   0     0   0   0     0   0   0     2   0   0     0   0   0     0   0   0     4   8   0     0   0   0     0   0  16     0   8   0     0   0   8     0   0   0     0   0   0     0   0   0     0   0   0     2   0   0     0   0   0     0   0   0     0   2   0     0   2   0     0   2   0     0   0   0     0   0   0     0   0   0     0   0   0     0   0   0     0   0   0     0   0   0     0   0   0     0   0   0     0   0   0     0   0   0     2   0   4     0   0   4     0   0   0     0   0   0     0   0   0     0   0   0     0   0   0     2   0   0     2   0   0     0   0   0     0   0   0     0   0   0     0   0   0     2   0   0     2   0   0     0   0   0     2   0   0     0   0   0     0   0   0     0   0   0     0   0   0     0   0   0     2   0   0     0   0   0     0   0   0     0   0   0     2   0   0     0   0   0     0   0   0     2   0   0     0   0   2     0   0   2     0   0   0     0   0   0     0   0   0     0   0   0     0   0   2     2   2   0     0   0   0     0   0   0     0   0   4     4   0   0     0   0   8     0   0   8     8   0   0     0   0   0     0   0   0     0   0   0     0   0   0     8   8   0     8   0   0     0   0   0     8   0   0     0   8   0     0   0   0     0   0   0     0   0   0     0   0   0     0   0   0     0   0   0     0   0   0     0   0   0     0   0   0     0   8   8     0   0   0     0   0   0     0   0   0     4   4   4     4   4   4     4   4   4     4   4   4     4   4   4     6   6   6     0   0   0
  8   8   8     0   0   0     0   0   0     0   0   0     0   0   0     0   0   0     0   0   0     0   0   0     0   0   0     0   0   0     0   0   8     8   0   8     0   0   0     0   8   0     0   0   0     0   0   0     0   0   0     0   0   0     0   0   0     0   0   0     0   0   0     0   0   0     0   0   0     0   0   0     0   0   0     0   0   0     0   0   0     0   0   0     0   0   0     0   0   0     0   0   0     0   0   0     0   0   0     0   0   0     0   0   0     0   0   0     0   0   0     0   0   0     0   0   0     0   0   0     0   0   0     0   0   0     8   8   8     0   0   0     0   0   0     0   0   0     8   8   8     0   0   0     8   8   0     0   0   0     4   4   4     4   4   4     0   0   0     0   0   0     0   0   0     0   0   0     2   2   0     0   0   0     0   0   0     0   0   0     0   2   0     0   0   0     0   0   0     0   0   0     0   0   0     0   0   0     0   0   0     0   0   0     0   0   0     0   0   0     0   0   0     0   0   0     0   2   0     0   0   0     0   0   0     0   0   0     0   0   0     0   0   0     0   0   0     0   0   0     0   0   0     0   0   0     0   0   0     0   0   0     0   0   0     0   2   0     0   2   0     2   0   0     0   0   0     0   0   0     0   0   0     0   0   0     0   0   0     0   0   0     0   0   0     0   0   0     0   0   0     0   0   0     0   0   0     0   0   0     0   0  16     0   8  16     4   0   8     0   0   0     0   0   4     0   0   0     0   0   0     0   0   0     2   0   0     0   0   0     0   0   0     0   0   2     0   0   0     0   0   0     0   0   0     0   2   0     0   0   0     0   0   0     0   0   0     0   0   0     0   0   0     0   0   0     2   0   0     0   0   0     0   0   0     2   0   0     0   0   0     0   0   0     0   0   0     0   0   4     2   0   0     0   0   0     0   0   0     0   0   0     0   0   0     0   0   0     0   0   0     0   0   0     0   0   0     2   0   0     2   0   0     0   0   0     0   0   0     0   0   0     0   0   0     2   0   0     2   0   0     2   0   0     2   0   0     2   0   0     0   0   0     0   0   0     2   0   0     2   0   0     0   0   0     0   0   0     0   0   2     0   0   2     0   0   0     0   0   0     0   0   0     0   0   0     0   0   2     2   2   0     0   0   0     0   0   0     0   0   0     4   4   0     0   0   0     0   0   8     8   8   0     0   8   0     0   0   0     0   0   0     0   0   0     0   0   0     0   8   0     8   0   0     0   8   0     0   0   0     0   0   0     0   0   0     0   0   0     0   0   0     0   0   0     0   0   0     0   0   0     0   0   0     0   0   0     8   8   0     0   0   0     0   0   0     0   0   0     4   4   4     4   4   4     0   0   0     4   4   4     4   4   4     6   6   6     0   0   0
  0   8   0     0   0   0     0   0   0     0   0   0     0   0   0     0   0   0     0   0   0     0   0   0     0   0   0     0   8   0     8   0   0     8   0   0     0   0   8     0   0   0     0   0   0     0   0   0     0   0   0     0   0   0     0   0   0     0   0   0     0   0   0     0   0   0     0   0   0     0   0   0     0   0   0     0   0   0     0   0   0     0   0   0     0   0   0     0   0   0     0   8   0     0   8   0     0   0   0     0   0   0     0   0   0     0   0   0     0   0   0     0   0   0     0   0   0     0   0   0     0   0   0     0   0   0     0   0   0     0   0   0     0   0   0     0   0   0     8   8   8     0   0   0     0   0   0     0   0   0     4   4   4     0   0   0     0   0   0     0   0   0     0   0   0     0   0   0     0   0   0     2   0   0     0   0   0     0   0   0     0   2   0     0   0   0     0   0   0     0   0   0     0   0   0     0   0   0     0   0   0     0   0   0     0   0   0     0   0   0     0   0   0     0   0   0     0   0   0     0   0   0     0   0   0     0   0   0     0   0   0     0   0   0     0   0   0     0   2   0     0   0   0     0   0   0     0   0   0     0   0   0     0   2   0     0   0   0     0   0   0     0   0   0     0   0   0     0   0   0     0   0   0     2   0   0     0   0   0     0   0   0     0   0   0     0   0   0     0   0   0     0   0   0     0   4   4     0   8   0     0   8   0     4   0   8     0   4   0     0   0   4     0   0   0     0   0   0     0   0   0     0   0   0     2   0   0     0   2   0     0   0   2     0   0   0     0   2   2     0   2   0     0   0   0     0   2   0     0   0   0     0   0   0     0   0   0     0   0   0     0   0   0     0   0   0     0   0   4     2   0   0     0   0   0     0   0   0     2   0   0     0   0   0     0   4   0     0   0   4     2   0   0     2   0   0     0   0   0     0   0   0     0   0   0     0   0   0     0   0   0     2   0   0     0   0   0     2   0   0     0   0   0     0   0   0     0   0   0     2   0   0     0   0   0     2   0   0     0   0   0     2   0   0     0   0   0     2   0   0     0   0   0     0   0   0     2   0   0     0   0   0     0   0   0     0   0   0     2   2   0     0   2   2     0   0   0     0   0   2     0   0   0     0   0   0     0   2   0     2   0   0     0   0   0     0   0   0     0   0   0     0   0   4     4   0   0     0   0   0     8   0   8     0   8   0     0   0   0     0   0   0     0   0   0     0   0   0     0   0   0     0   0   0     0   0   0     0   0   0     0   0   0     0   0   0     0   0   0     0   0   0     0   0   0     0   0   0     0   0   0     0   0   0     0   0   0     8   8   0     0   0   0     0   0   0     0   0   0     0   0   0     0   0   0     0   0   0     0   0   0     0   0   0     0   0   0     8   0   0
  0   0   0     0   0   0     0   8   0     0   0   0     0   0   0     0   0   0     0   0   0     0   0   0     0   0   0     0   8   8     0   0   0     0   0   0     8   0   8     0   0   0     0   0   0     0   0   0     0   0   0     0   0   0     0   0   0     0   0   0     0   0   0     0   0   0     0   0   0     0   0   0     0   0   0     0   0   0     0   0   0     0   0   0     0   0   0     0   0   0     0   8   0     0   8   0     0   0   0     0   0   0     0   0   0     0   0   0     0   0   0     0   0   0     0   0   0     0   0   0     0   0   0     8   8   8     0   0   0     0   0   0     0   0   0     0   0   0     0   0   0     0   0   0     8   8   8     0   0   0     4   4   4     0   0   0     4   4   4     0   4   4     0   4   4     0   0   0     0   0   0     0   0   0     2   0   0     0   2   0     0   2   0     0   0   0     0   0   0     0   0   0     0   0   0     0   0   0     0   0   0     0   0   0     0   0   0     0   0   0     0   0   0     0   0   0     0   0   0     0   0   0     0   0   0     0   2   0     0   0   0     0   0   0     0   2   0     0   0   0     0   0   0     0   0   0     0   0   0     0   0   0     0   0   0     0   0   0     0   0   0     0   2   0     2   0   0     0   0   0     0   0   4     0   4   4     0   0   4     0   0   4     0   0   4     0   0   0     0   0   4     0   4   4     4   0   8     0   0   0     4   0   8     0   0   0     0   0   0     0   0   0     0   0   0     0   0   0     0   0   0     2   0   0     0   0   0     0   0   0     0   0   2     0   0   0     0   0   2     0   0   0     0   0   0     0   0   0     0   0   0     0   0   0     0   0   0     0   0   0     0   0   0     0   0   0     0   0   0     0   0   4     2   0   0     0   0   0     0   0   0     0   0   0     0   0   4     0   0   0     0   0   0     0   0   0     0   0   0     0   0   0     0   0   0     2   0   0     2   0   0     0   0   0     0   0   0     0   0   0     0   0   0     0   0   0     0   0   0     2   0   0     2   0   0     2   0   0     0   0   0     2   0   0     0   0   0     0   0   0     0   0   0     0   0   0     0   0   0     0   0   0     2   0   0     2   0   0     0   0   2     0   2   2     0   0   0     0   2   0     0   0   0     0   0   0     0   0   0     0   2   0     0   0   0     0   0   0     0   0   0     0   0   0     0   0   4     4   4   0     0   0   0     0   0   0     8   8   8     0   0   0     0   0   0     0   0   0     0   0   0     0   0   0     0   0   0     0   0   0     0   0   0     0   0   0     0   8   0     0   8   0     0   0   0     0   0   8     0   0   0     0   0   0     0   0   0     8   0   0     0   0   0     0   0   0     0   0   0     0   0   0     0   0   0     0   0   0     0   0   0     0   0   0     0   0   0     0   0   0
  0   0   0     8   0   8     8   0   8     0   0   0     0   8   0     0   0   0     0   0   0     0   0   0     0   0   0     0   0   0     8   0   8     8   0   0     0   0   8     0   0   0     0   0   0     0   0   0     0   0   0     0   0   0     0   0   0     0   0   0     0   0   0     0   0   0     0   0   0     0   0   0     0   0   0     0   0   0     0   0   0     0   0   0     0   0   0     0   0   0     0   0   0     0   8   0     0   0   0     0   0   0     0   0   0     0   0   0     0   0   0     0   0   0     0   0   0     0   0   0     0   0   0     8   8   8     0   0   0     0   0   0     0   0   0     8   8   8     0   0   0     8   8   8     0   0   0     0   0   0     0   0   0     4   4   4     4   4   4     4   4   4     4   4   4     0   0   0     0   0   0     0   0   0     2   0   0     0   2   2     0   0   2     0   0   0     0   2   0     0   0   0     0   0   0     0   0   0     0   0   0     0   0   0     0   0   0     0   0   0     0   0   0     0   0   0     0   0   0     0   0   0     0   0   0     0   0   0     0   0   0     0   0   0     0   0   0     0   0   0     0   0   0     0   0   0     0   0   0     0   0   0     0   0   0     0   0   0     0   0   0     0   0   0     0   0   0     0   0   0     0   0   0     0   0   0     0   0   0     0   0   8     4   4   8     4   4   8     4   8  24     0   8   0     0   0   0     0   0   0     4   0   0     0   4   0     0   0   0     0   0   0     0   0   0     0   0   0     0   0   0     2   0   0     2   0   0     0   0   0     2   0   0     2   0   0     0   0   0     0   0   0     0   0   0     0   0   0     0   0   0     0   0   0     0   0   0     0   0   0     0   0   0     0   0   0     0   0   0     0   0   0     0   0   0     0   0   0     0   0   0     0   0   0     2   0   0     0   0   0     2   0   0     0   0   0     0   0   0     0   0   0     0   0   0     2   0   0     0   0   0     0   0   0     0   0   0     2   0   0     0   0   0     0   0   0     0   0   0     0   0   0     2   0   0     0   0   0     0   0   0     0   0   0     0   0   0     0   0   0     0   0   0     0   0   0     0   0   0     0   0   0     0   0   0     0   2   0     0   2   2     0   2   2     0   2   0     0   2   0     0   2   0     0   0   0     0   2   0     0   0   0     2   2   0     0   0   0     0   0   0     0   0   0     0   0   0     4   4   4     0   0   0     0   0   0     8   8   8     0   0   0     0   0   0     0   0   0     0   0   0     0   0   0     0   0   0     0   0   0     0   0   0     0   0   0     0   0   0     0   8   0     0   8   0     0   0   0     8   0   0     8   0   0     0   0   0     0   0   0     0   0   0     0   0   0     0   0   0     0   0   0     0   0   0     0   0   0     0   0   0     0   0   0     0   0   0     0   0   0
  0   0   0     0   0   0     0   0   0     8   0   0     0   0   8     0   0   0     0   0   0     0   0   0     0   0   0     0   0   0     0   8   0     0   0   0     0   0   8     0   0   8     0   0   0     0   0   0     0   0   0     0   0   0     0   0   0     0   0   0     0   0   0     0   0   0     0   0   0     0   0   0     0   0   0     0   0   0     0   0   0     0   0   0     0   0   0     0   0   0     0   0   0     0   0   0     0   8   0     0   0   0     0   0   0     0   0   0     0   0   0     0   0   0     0   0   0     0   0   0     0   0   0     8   8   8     0   0   0     0   0   0     8   8   8     0   0   0     0   0   0     8   8   8     0   0   0     0   0   0     8   8   8     0   0   0     8   8   8     0   0   0     4   4   4     0   0   0     0   0   0     0   0   0     2   0   0     0   0   2     0   0   2     0   0   2     0   0   0     0   0   0     0   0   0     0   0   0     0   0   0     0   0   0     0   0   0     0   0   0     0   0   0     0   0   0     0   0   0     0   0   0     0   0   0     0   0   0     0   0   0     0   0   0     0   0   0     0   0   0     0   0   0     0   0   0     0   0   0     0   2   0     0   0   0     0   0   0     0   0   0     0   0   0     0   0   0     0   0   0     0   0   0     0   0   0     0   0   0     4   0   0     0   0   0     0   0   0     0   0  16     0   0   0     0   8   0     0   0   0     0   0   0     0   0   4     0   0   0     0   0   0     0   0   0     0   0   0     0   0   0     0   0   0     0   0   0     0   0   0     0   0   0     0   0   0     0   0   0     0   0   0     2   0   0     0   0   0     0   0   0     0   0   0     2   0   0     0   0   0     0   0   0     2   0   0     0   0   0     0   0   0     0   0   0     0   0   0     2   0   0     0   0   0     0   0   0     0   0   0     0   0   0     0   0   0     0   0   0     0   0   0     0   0   0     0   0   0     0   0   0     0   2   0     0   2   0     2   2   0     2   0   0     2   0   0     0   0   0     0   0   0     0   0   0     0   0   0     0   0   0     0   0   0     0   0   0     2   0   0     0   0   0     0   0   0     2   0   0     0   2   0     0   2   2     0   0   0     0   0   2     0   0   0     0   2   2     0   0   0     0   0   2     0   0   0     0   0   0     0   0   0     0   0   0     2   2   0     0   0   0     0   0   0     0   0   0     0   0   0     4   4   4     0   0   0     0   0   0     0   0   0     0   0   0     0   0   0     0   0   0     0   0   0     0   0   0     0   0   0     0   0   0     0   0   0     0   8   0     0   0   8     0   0   8     0   0   0     0   0   0     0   0   0     0   0   0     0   0   0     0   0   0     0   0   0     0   0   0     0   0   0     0   0   0     0   0   0     0   0   0     0   0   0     0   0   0     0   0   0
  0   0   0     0   0   0     0   0   0     0   0   0     0   8   8     0   8   0     0   0   0     0   8   0     0   8   0     0   8   0     0   0   0     0   8   0     0   8   8     0   8   8     0   0   0     0   0   0     0   0   0     0   0   0     0   0   0     0   0   0     0   0   0     0   0   0     0   0   0     0   0   0     0   0   0     0   0   0     0   0   0     0   0   0     0   0   0     0   0   0     0   8   0     0   0   8     8   0   8     0   0   8     0   0   0     0   0   0     0   0   0     0   0   0     0   0   0     0   0   0     8   8   8     0   0   0     0   0   0     0   0   0     8   8   8     0   0   0     0   0   0     8   8   8     8   8   8     8   8   8     0   0   0     8   8   8     8   8   8     0   0   0     4   4   4     0   0   0     0   0   0     0   0   0     2   0   0     0   0   2     0   0   2     0   0   0     0   0   0     0   2   0     0   0   0     0   0   0     0   0   0     0   0   0     0   0   0     0   0   0     0   0   0     0   0   0     0   0   0     0   0   0     0   0   0     0   0   0     0   0   0     0   0   0     0   0   0     0   0   0     0   0   0     0   0   0     0   0   0     0   2   0     0   0   0     0   0   0     0   0   2     0   0   0     0   2   0     2   0   0     0   0   0     0   0   0     0   0   0     0   0   4     0   4   0     4   0   8     0   0   8     0   0   0     0   0   0     0   0   0     4   0   0     0   0   0     0   0   0     0   0   0     0   0   0     0   0   0     0   0   0     0   0   0     0   0   0     0   0   0     2   0   0     2   0   0     0   0   0     0   0   0     0   0   0     0   0   0     0   0   0     0   0   0     0   0   4     0   0   4     2   0   0     0   0   0     0   0   0     0   0   0     0   0   0     0   0   0     0   0   0     2   0   0     0   0   0     0   0   0     0   0   0     0   0   0     0   0   0     0   0   0     0   0   0     2   0   0     0   0   0     0   2   0     0   2   0     2   2   0     2   0   0     0   0   0     0   0   0     0   0   0     2   0   0     2   0   0     0   0   0     0   2   2     0   2   2     0   2   2     2   0   0     2   0   0     2   0   0     0   2   0     0   2   2     0   0   0     0   2   2     0   0   2     0   2   0     0   0   2     0   0   2     0   0   2     0   0   2     0   0   2     0   0   2     2   2   0     0   0   0     0   0   0     0   0   0     0   0   0     4   4   4     0   0   0     8   8   0     0   0  16     0   0   0     0   0   0     0   0   0     0   0   0     0   0   0     0   0   0     0   0   0     0   0   0     0   0   0     0   8   8     0   0   8     0   0   0     8   0   0     0   0   0     0   0   0     0   0   0     0   0   0     0   0   0     0   0   0     0   0   0     0   0   0     0   0   0     0   0   0     0   0   0     0   0   0     0   0   0
  0   0   0     0   0   0     0   0   0     0   0   0     0   8   8     0   8   8     0   0   0     0   0   0     8   0   8     0   0   0     0   0   0     0   0   0     0   0   0     0   0   0     0   0   0     0   0   0     0   0   0     0   0   0     0   0   0     0   0   0     0   0   0     0   0   0     0   0   0     0   0   0     0   0   0     0   0   0     0   8   0     0   0   0     0   8   0     0   8   0     8   0   8     8   0   8     8   0   8     8   8   8     8   8   8     8   8   8     0   0   0     0   0   0     0   0   0     8   8   8     0   0   0     0   0   0     0   0   0     0   0   0     8   8   8     0   0   0     0   0   0     8   8   8     0   0   8     0   0   8     8   8   0     0   0   0     0   0   0     0   0   0     0   0   0     0   0   0     0   0   0     0   0   0     2   2   0     0   0   2     0   0   0     0   0   2     0   0   0     0   2   0     0   0   0     0   0   0     0   0   0     0   0   0     0   0   0     0   0   0     0   0   0     0   0   0     0   0   0     0   0   0     0   0   0     0   0   0     0   0   0     0   0   0     0   0   0     0   0   0     0   0   0     0   0   0     0   2   0     0   0   0     0   0   0     0   0   2     0   0   0     0   0   2     0   0   0     0   0   0     2   0   0     0   0   0     0   0   0     0   0   0     0   0   4     0   4   0     4   0   0     4   0   8     0   0   8     4   0   0     0   0   0     0   0   0     0   0   0     0   0   0     0   0   0     0   0   0     0   0   0     0   0   0     0   0   0     0   0   0     2   0   0     2   0   0     2   0   0     0   0   0     0   0   0     0   0   0     0   0   0     0   0   0     0   0   0     0   4   0     0   0   0     0   0   0     0   0   0     0   0   4     0   0   0     0   0   4     0   0   0     0   0   0     0   0   0     2   0   0     0   0   0     0   0   0     0   2   0     0   2   0     0   0   0     2   0   0     0   0   0     0   2   0     0   2   0     0   0   0     0   0   0     0   0   0     0   0   0     2   0   0     2   0   0     2   0   0     0   0   0     0   2   0     0   2   0     0   2   0     0   0   0     2   0   0     0   0   0     2   2   0     0   0   2     0   0   0     0   0   2     0   0   2     0   0   2     0   0   2     0   0   2     2   2   2     0   2   2     0   2   2     0   2   2     2   0   0     0   0   0     0   0   0     0   0   0     4   4   4     4   4   4     0   0   8     0   0   0     0   0   0     0   0   0     0   8   0     0   0   0     0   8   0     0   0   0     0   0   0     0   8   0     0   8   0     0   0   0     0   0   0     8   0   0     0   0   0     0   0   0     0   0   0     0   0   0     0   0   0     0   0   0     0   0   0     0   0   0     0   0   0     0   0   0     0   0   0     0   0   0     0   0   0     0   0   0     0   0   0
  0   0   0     0   0   0     0   0   0     0   0   0     8   8   8     0   0   0     8   0   0     0   0   0     8   0   0     0   0   8     0   0   0     0   0   0     0   0   0     0   0   0     0   0   0     0   0   0     0   0   0     0   0   0     0   0   0     0   0   0     0   0   0     0   0   0     0   0   0     0   0   0     0   0   0     0   8   0     0   0   0     0   8   0     0   0   8     0   0   0     8   0   0     0   0   0     0   0   0     0   0   0     8   8   8     8   8   8     8   8   8     8   8   8     8   8   8     0   0   0     0   0   0     0   0   0     0   0   0     0   0   0     0   0   0     8   8   8     0   0   0     0   0   0     8   8   0     8   8   8     8   8   0     0   0   8     0   0   0     0   0   0     0   0   0     4   4   4     0   0   0     0   0   0     0   0   0     0   0   2     0   0   0     0   0   0     0   0   2     0   2   0     0   0   0     0   0   0     0   2   0     0   2   0     0   0   0     0   0   0     0   0   0     0   0   0     0   0   0     0   0   0     0   0   0     0   0   0     0   0   0     0   0   0     0   0   0     0   0   0     2   0   0     0   0   0     0   2   0     0   0   0     0   0   2     0   0   0     0   0   0     0   0   0     2   0   0     0   0   0     0   0   0     2   0   0     2   0   0     0   0   0     0   0   0     0   0   4     0   0   0     0   4   0     0   0   0     0   4   0     0   0   0     0   0   0     0   0   0     0   0   0     0   0   0     0   0   0     0   0   0     0   0   0     0   0   0     0   0   0     0   0   0     2   0   0     2   0   0     0   0   0     0   0   0     0   0   0     0   0   0     0   0   0     0   4   0     0   0   0     0   0   0     0   0   0     0   4   0     0   0   0     0   4   0     0   4   0     0   0   0     0   4   8     0   0   4     0   4   4     0   0   0     0   0   0     0   0   0     0   0   0     0   0   0     0   0   0     0   0   0     0   0   0     0   2   0     0   2   0     2   0   0     0   0   0     2   0   0     0   0   0     0   0   0     2   2   0     0   2   0     0   2   0     0   2   0     0   2   0     0   0   0     0   0   0     2   0   0     0   2   0     0   0   0     0   0   0     0   0   0     2   2   2     0   0   2     0   2   0     0   0   0     0   0   0     2   0   0     0   0   0     0   0   0     0   0   0     0   0   0     0   0   0     0   0   0     0   0   0     0   0   0     0   0   0     0   0   0     0   0   0     0   0   0     0   0   0     0   0   0     0   0   0     0   0   0     0   0   0     8   0   0     8   0   8     0   0   8     0   0   0     0   0   0     0   0   0     8   0   0     0   0   0     4   4   4     4   4   4     0   0   0     0   0   0     0   0   0     0   0   0     0   0   0     0   0   0     0   0   0     0   0   0     0   0   0     0   0   0
  4   4   4     4   4   4     0   0   0     0   0   0     0   0   0     0   0   0     8   8   8     0   0   0     0   0   8     0   0   0     0   0   0     0   0   0     0   0   0     0   0   0     0   0   0     0   0   0     0   0   0     0   0   0     0   0   0     0   0   0     0   0   0     0   0   0     0   0   0     0   0   0     0   0   0     0   0   8     0   8   8     8   0   0     0   4   4     8   0   0     8   8   8     0   8   8     0   0   0     8   8   8     0   0   0     0   0   0     0   0   0     8   8   8     0   0   0     0   0   0     0   0   0     0   0   0     0   0   0     0   0   0     0   0   0     8   8   8     0   0   0     0   0   0     8   8   0     0   0   0     0   0   8     0   0   0     0   0   0     4   4   4     4   4   4     4   4   4     0   0   0     0   0   0     0   0   0     0   0   0     0   0   0     0   0   0     0   0   2     0   0   0     0   0   0     0   0   0     0   0   0     0   2   0     0   2   0     0   0   0     0   0   0     0   0   0     0   0   0     0   0   0     0   0   0     0   0   0     0   0   0     0   0   0     0   0   0     0   0   0     0   0   0     2   0   4     0   0   0     0   0   0     0   0   0     0   0   2     0   0   2     0   0   0     0   0   0     0   0   0     0   0   0     0   0   0     0   0   0     2   0   0     0   0   0     0   0   4     0   0   0     0   0   0     0   0   0     0   0   4     0   0   0     0   0   0     0   0   0     0   0   0     0   0   0     0   0   0     0   0   0     0   0   0     0   0   0     0   0   0     0   0   0     0   0   0     0   0   0     0   0   0     0   0   4     0   0   0     0   0   0     0   0   0     0   4   0     0   0   0     4   0   8     0   0   0     0   8  16     0   0   0     4   0   8     4   0   0     0   0   0     0   0   0     0   4   0     0   0   0     0   0   0     0   0   0     2   0   0     0   2   0     0   2   0     0   0   0     0   0   0     0   0   0     0   0   0     0   0   0     0   0   0     0   0   0     0   0   0     0   0   0     0   0   0     2   0   0     0   2   0     0   2   0     0   0   0     0   2   0     0   0   0     0   0   0     0   0   0     0   0   0     0   0   2     0   0   2     0   0   2     0   2   0     0   0   2     0   0   0     0   0   0     2   0   0     2   0   0     0   0   0     0   0   0     0   0   0     0   0   0     0   0   0     0   0   8     0   0   8     0   0   8     0   0   8     0   0   0     0   0   0     0   0   0     0   0   0     0   0   0     0   0   0     0   0   0     0   8   0     8   0   0     8   0   8     8   0   0     8   0   0     0   0   0     0   0   0     0   0   0     4   4   4     0   0   0     0   0   0     0   0   0     0   0   0     0   0   0     0   0   0     8   0   0     0   0   0     0   0   0     0   0   0     0   0   0     0   0   0
  2   2   2     2   2   2     4   4   4     0   0   0     0   0   0     0   0   0     8   0   0     8   0   0     0   0   8     0   8   0     0   0   0     0   0   0     0   0   0     0   0   0     0   0   0     0   0   0     0   0   0     0   0   0     0   0   0     0   0   0     0   0   0     0   0   0     0   0   0     0   0   0     0   0   0     0   0   0    12   4   4     0   0   0     2   2   2    14   6   6     0   0   0     8   0   0     0   0   0     0   0   0     0   0   0     4   4   4     0   0   0     0   0   0     0   0   0     0   0   0     0   0   0     0   0   0     0   0   0     0   0   0     0   0   0     8   8   8     0   0   0     0   0   0     8   8   0     8   8   0     0   0   0     0   0   0     0   0   0     4   4   4     4   4   4     4   4   4     0   0   0     2   0   0     2   0   0     0   2   2     0   0   0     0   0   0     0   0   0     0   0   0     2   0   0     0   0   0     0   0   0     0   0   0     0   2   0     0   2   0     0   0   0     0   0   0     0   0   0     0   0   0     0   0   0     0   0   0     0   0   0     0   0   0     0   0   0     2   0   0     0   0   4     2   0   0     0   0   0     0   0   0     0   0   0     0   0   0     0   2   0     2   0   0     0   0   0     0   0   0     2   0   0     0   0   0     2   0   0     2   0   0     0   0   0     0   0   4     0   0   0     0   0   0     0   0   0     0   0   0     0   0   0     0   0   0     0   0   0     0   0   0     0   0   0     0   0   0     0   0   0     0   0   0     0   0   0     0   0   0     0   0   0     0   0   4     0   0   4     0   0   0     0   0   0     0   0   0     0   4   0     0   0   0     0   0   0     0   0   0     4   0   8     0   0   0     0   0  16     0   0   0     0   0   0     0   0   0     0   0   0     0   0   8     0   4   0     0   0   4     0   0   0     0   0   4     2   0   0     0   2   0     0   2   0     0   2   0     0   0   0     0   2   0     0   0   0     0   0   0     2   0   0     0   0   0     0   0   0     0   0   0     0   0   4     0   0   0     0   2   0     2   2   0     0   0   0     2   0   0     0   2   0     2   0   0     0   2   0     0   0   0     0   0   2     0   2   2     0   2   0     0   2   0     0   0   2     0   2   0     0   0   0     2   0   0     0   0   0     0   0   0     0   0   4     0   4   4     0   0   0     0   0   8     0   0   8     0   0   0     0   0   0     0   0   8     8   8   0     0   0   0     0   0   0     0   0   0     0   0   0     0   0   0     0   0   0     0   0   0     0   8   0     8   0   8     8   0   0     8   0   0     0   0   0     8   8   8     0   0   0     6   6   6     6   6   6     2   2   2     0   0   0     0   0   0     0   0   0     0   0   0     0   0   8     0   0   0     0   0   8     0   0   0     0   0   0     4   4   4
  2   2   2     0   0   0     2   2   2     0   0   0     0   0   0     0   0   0     0   0   0     8   0   0     0   0   8     0   8   0     0   0   0     0   0   0     0   0   0     0   0   0     0   0   0     0   0   0     0   0   0     0   0   0     0   0   0     0   0   0     0   0   0     0   0   0     0   0   0     0   0   0     0   8   8     0   0   0     4   4   4     2   2   2     0   0   0     6   2   2     0   4   4     8   8   8     4   4   4     0   0   0     2   2   2     6   6   6     0   0   0     8   8   8     0   0   0     0   0   0     0   0   0     0   0   0     0   0   0     0   0   0     0   0   0     8   8   8     0   0   0     0   0   0     8   8   0     8   8   0     0   0   0     0   0   8     0   0   8     0   0   0     4   4   4     0   0   0     0   0   0     0   0   0     2   0   0     0   0   0     0   0   0     0   0   0     0   0   2     0   2   0     0   0   0     0   0   0     0   0   0     0   0   0     0   0   0     0   0   0     0   0   0     0   0   0     0   0   0     0   0   0     0   0   0     0   0   0     0   0   0     0   0   0     0   0   0     2   0   4     0   0   4     0   0   0     0   2   0     0   2   0     0   0   0     0   0   0     0   0   0     0   0   0     0   0   0     0   0   0     2   0   0     0   0   0     0   0   0     0   0   4     0   0   4     0   0   0     0   0   0     0   4   0     0   0   4     0   0   0     0   0   0     0   0   0     0   0   0     0   0   0     0   0   0     0   0   0     0   0   4     0   0   4     0   4   0     0   4   0     0   4   0     0   0   0     0   0   0     0   4   0     0   0   0     0   4   0     0   4   0     0   0   0     4   0   8     4   0   0     0   0   0     0   0   0     0   0   0     0   0   0     0   0   0     0   0   0     0   0   0     0   4   0     0   0   4     2   0   0     2   0   0     0   0   0     2   0   0     0   0   0     0   0   0     0   0   0     0   2   0     0   2   0     0   2   0     0   0   0     2   0   0     0   0   0     0   0   0     0   0   0     0   0   0     0   0   0     2   2   0     2   2   0     0   0   0     0   0   0     2   0   0     0   0   0     0   2   0     0   2   0     0   2   0     0   2   0     0   0   2     0   2   2     0   0   0     0   2   0     0   2   0     2   0   0     0   0   0     0   0   0     0   0   0     0   0   0     0   0   0     0   0   0     0   0   0     0   0   0     0   0   0     0   0   0     8   8   0     0   0   0     0   0   0     0   0   0     0   0   0     0   0   0     0   0   0     0   0   0     0   0   0     0   8   0     0   8   0     0   0   0     8   0   0     8   8   8     0   0   0     2   2   2     6   6   6     6   6   6     0   0   0     0   0   0     0   0   0     0   0   0     0   8   0     0   0   0     0   8   0     8   0   8     0   0   0     4   4   4
  6   6   6     0   0   0     0   0   0     2   2   2     0   0   0     0   0   0     0   0   0     0   0   0     0   0   8     0   8   0     0   0   0     0   0   0     0   0   0     0   0   0     0   0   0     0   0   0     0   0   0     0   0   0     0   0   0     0   0   0     0   0   0     0   0   0     0   0   0     0   0   0     0   8   8     8   0   0     8   0   0     2   2   2     0   0   0     2   2   2     0   0   0     6   6   6     2   2   2     0   0   0     2   2   2     6   6   6     0   0   0     8   8   8     0   0   0     8   8   8     0   0   0     0   0   0     0   0   0     0   0   0     0   0   0     8   8   8     0   0   0     0   0   0     8   8   0     0   8   0     0   8   0     8   8   8     8   8   8     0   0   0     0   0   0     0   0   0     0   0   0     0   0   0     0   0   0     0   2   2     0   0   0     0   0   0     0   0   2     0   2   0     0   0   0     0   0   0     0   0   0     0   0   0     0   0   0     0   0   0     0   0   0     0   0   0     0   0   0     0   0   0     0   0   0     0   0   0     0   0   0     0   0   0     0   0   0     0   0   4     0   0   0     2   0   0     0   0   0     0   0   0     0   0   0     0   0   0     0   0   0     0   0   0     0   0   0     0   0   0     0   0   0     0   0   0     0   0   0     0   0   0     0   0   0     0   0   0     0   0   0     0   4   4     2   0   0     2   0   0     2   0   0     0   0   0     0   0   0     0   0   4     0   4   0     0   4   0     0   0   0     0   0   0     0   0   0     0   0   0     0   0   0     0   0   0     0   0   0     0   0   0     0   0   0     0   0   0     0   0   0     4   8   8     0   8   0     0   0   0     0   0   0     0   0   0     0   0   0     4   0   8     0   0   0     0   4   0     0   0   0     0   0   0     2   0   0     0   0   0     0   0   0     2   0   0     2   0   0     0   2   0     0   0   0     0   0   0     0   0   0     0   0   0     0   2   0     0   2   0     0   0   0     2   2   0     0   2   0     0   0   0     0   0   0     0   0   0     2   0   0     0   0   0     0   0   0     0   0   0     0   0   0     0   0   0     0   0   0     2   0   0     0   2   0     0   0   0     0   0   0     0   0   0     0   2   2     2   0   0     2   0   0     0   0   0     0   0   0     0   0   0     0   0   0     0   4   4     0   4   4     4   0   0     0   0   0     0   0   0     0   0   8     8   8   0     0   0   0     0   0   0     0   0   0     0   0   0     0   0   0     0   0   0     0   0   0     0   0   0     0   0   0     0   0   0     0   0   0     0   0   0     0   0   0     0   0   0     0   0   0     0   0   0     0   0   0     4   4   4     8   8   8     0   0   0     0   0   0     0   0   0     0   8   0     0   0   0     0   8   0     8   0   8     0   0   0     0   0   0
  0   0   0     2   2   2     0   0   0     2   2   2     0   0   0     0   0   0     8   0   0     0   0   0     0   8   8     0   8   8     0   0   0     0   0   0     0   0   0     0   0   0     0   0   0     0   0   0     0   0   0     0   0   0     0   0   0     0   0   0     0   0   0     0   0   0     0   0   0     0   0   0     8   8   8     0   0   0     0   0   0     0   0   0     2   2   2     2   2   2     0   0   0     6   6   6     0   0   0     0   0   0     4   4   4     8   8   8     8   8   8     8   8   8     8   8   8     8   8   8     0   0   0     0   0   0     0   0   0     0   0   0     0   0   0     8   8   8     0   0   0     8   8   0     0   0   8     0   0   0     8   8   8     8   8   8     8   8   8     0   0   0     0   0   0     0   0   0     0   0   0     0   0   0     2   2   2     0   2   2     0   0   0     0   0   0     0   0   2     0   0   0     0   0   0     0   0   0     0   0   0     0   0   0     0   0   0     0   0   0     0   0   0     0   0   0     0   0   0     0   0   0     0   0   0     0   0   0     0   0   0     0   0   0     0   0   0     0   0   0     0   0   0     2   0   0     0   0   0     0   0   0     0   0   0     2   0   0     2   0   0     0   0   0     0   0   0     0   0   0     0   0   0     0   0   4     0   0   0     0   0   0     0   4   0     0   4   0     0   0   0     0   0   4     2   0   0     0   0   0     2   0   0     0   0   4     0   4   0     0   0   0     0   0   0     0   0   0     0   0   0     0   0   0     0   0   0     0   0   0     0   0   0     0   0   0     0   0   0     0   0   0     0   0   0     4   8   8     0   0   0     0   0   0     4   8   0     4   0   0     4   0   0     4   0   8     0   0   0     0   4   0     0   0   0     0   0   0     0   4   0     0   0   0     2   0   4     0   0   0     0   0   0     0   0   0     0   0   0     0   0   0     0   0   0     0   2   0     0   0   0     0   0   0     0   2   0     0   2   0     0   0   0     0   2   0     0   2   0     0   0   0     0   0   0     0   0   0     0   0   0     0   0   0     2   0   0     0   0   0     2   0   0     0   0   0     0   0   0     2   0   0     0   2   2     0   0   0     0   0   0     0   0   0     0   2   2     0   0   0     2   0   0     0   0   0     0   0   0     0   0   0     0   0   0     0   0   0     0   4   4     4   0   0     0   0   0     0   0   0     0   0   0     0   0   0     0   0   0     0   0   0     0   0   0     0   0   0     0   0   0     0   0   0     0   0   0     0   0   0     0   0   0     0   0   0     0   0   0     0   8   0     8   0   8     0   8   0     4   4   4     0   0   0     0   0   0     4   4   4     0   0   0     0   0   0     0   0   0     0   0   0     0   0   0     0   0   0     0   0   0     0   0   0     0   0   0     0   0   0
  0   0   0     0   0   0     0   0   0     0   0   0     0   0   0     0   0   0     0   0   8     0   0   0     0   0   0     0   0   0     0   0   0     0   0   0     0   0   0     0   0   0     0   0   0     0   0   0     0   0   0     0   0   0     0   0   0     0   8   0     0   0   0     0   0   0     0   0   0     0   0   0     8   8   8     8   8   8     0   0   0     4   4   4     0   0   0     2   2   2     0   0   0     2   2   2     2   2   2     8   8   8     8   8   8     8   0   8     0   8   0     0   0   0     8   0   8     8   0   8     0   0   0     0   0   0     0   0   0     0   0   0     8   0   8     0   0   0     0   0   0     8   0   0     0   0   8     0   0   0     0   0   0     0   0   0     0   0   0     0   0   0     4   4   4     0   0   0     0   0   0     0   0   0     0   0   0     2   0   0     0   2   2     0   0   2     0   0   2     0   2   0     0   0   0     0   0   0     0   0   0     0   0   0     0   0   0     0   0   0     0   0   0     0   0   0     0   0   0     0   0   0     0   0   0     0   0   0     0   0   0     0   0   0     2   0   4     0   0   0     2   0   0     2   0   0     0   0   0     2   0   0     2   0   0     0   0   0     2   0   0     0   0   0     0   0   0     0   0   4     0   0   4     0   0   0     0   0   0     0   4   0     0   0   0     0   0   0     0   0   0     0   4   0     0   0   4     0   0   4     0   4   4     0   0   0     0   0   0     0   0   0     0   0   0     0   0   0     0   0   0     0   0   0     0   0   0     4   8   8     0   0   0     4   8   8     4   8  24     4   0   8     4   0   8     4   0   8     0   0   8     0   4   0     0   4   8     0   4   0     0   4   0     0   4   0     0   0   0     0   0   0     0   0   0     0   0   0     0   0   0     0   0   0     0   0   0     2   0   0     2   0   0     0   0   0     2   0   0     0   0   0     0   2   0     0   2   0     0   2   0     0   2   0     0   2   0     0   0   0     0   0   0     0   2   0     0   2   0     2   0   0     0   0   0     0   0   0     0   0   0     0   0   0     0   0   0     0   0   0     2   0   0     0   0   0     2   0   0     0   2   0     0   0   2     0   0   0     0   0   0     0   0   0     0   2   2     0   0   0     2   0   0     0   0   0     0   0   0     0   0   0     0   0   0     0   0   0     0   0   0     4   4   4     0   0   8     8   8   0     0   0   0     0   0   0     0   0   0     8   0   0     8   0   0     0   0   0     0   0   0     0   0   0     0   0   0     0   0   0     0   0   0     0   0   0     0   0   0     0   8   0     0   8   0     0   0   0    12   4  12     0   0   0     0   0   0     4   4   4     0   0   0     0   0   0     8   0   0     0   8   0     0   0   8     0   0   8     0   8   0     0   0   0     0   0   0     0   0   0
  0   0   0     0   0   0     0   0   0     2   2   2     2   2   2     0   0   0     0   0   8     8   8   0     0   0   0     0   0   0     0   0   0     0   0   0     0   0   0     0   0   0     0   0   0     0   0   0     0   0   0     0   0   0     0   0   0     0   8   0     0   0   0     0   0   0     0   0   0     0   0   0     0   0   0     8   8   8     0   0   0     4   4   4     0   0   0     2   0   2     2   0   2     4   6   4     8   8   8     0   0   0     0   8   0     0   0   0     0   0   0     0   0   0     8   0   0     8   0   0     0   0   0     0   0   0     0   0   0     0   0   0     0   0   0     0   0   0     0   0   0     8   0   0     0   0   8     8   8   8     0   0   0     8   8   8     0   0   0     0   0   0     4   4   4     0   0   0     0   0   0     0   0   0     0   0   0     0   0   0     0   0   0     0   0   0     0   0   0     0   0   0     0   0   0     0   0   0     0   0   0     0   0   0     0   2   0     0   2   0     0   2   0     0   0   0     0   0   0     0   0   0     0   0   0     0   0   0     0   0   0     0   0   0     2   0   4     0   0   4     2   0   0     2   0   0     0   0   0     2   0   0     2   0   0     0   0   4     0   0   0     0   0   4     0   0   4     0   0   0     0   0   0     0   0   0     0   0   0     0   4   0     0   0   0     0   0   0     0   0   0     0   4   0     0   0   0     0   0   0     0   0   0     0   0   0     0   0   0     0   0   0     0   0   8     0   0   8     0   0   8     0   0   8     0   0   8     0   8   0     0   8   0     4   0   0     4   8   0     4   0   0     0   0   0     0   0   0     0   0   0     0   0   4     0   0   4     0   0   4     0   0   4     2   0   4     2   0   0     2   0   0     0   0   4     0   0   0     0   0   0     0   4   0     0   0   4     0   0   0     0   0   0     0   0   0     2   0   0     0   0   0     0   0   0     0   0   0     2   0   0     0   0   0     0   0   0     0   0   0     0   0   0     0   0   0     2   0   0     0   0   0     0   0   0     0   0   0     0   0   0     0   0   0     0   0   0     0   0   0     2   0   0     2   0   0     0   2   0     0   2   0     0   0   0     0   0   2     0   0   0     0   0   0     0   0   0     0   0   0     0   2   0     0   0   0     0   0   0     0   0   0     0   0   0     0   0   0     4   4   4     0   0   0     0   0   8     8   8   0     8   0   0     8   0   0     8   0   0     8   0   0     8   0   0     8   0   0     0   0   0     0   0   0     0   0   0     0   0   0     0   0   0     0   0   0     0   0   0     0   8   0     0   8   0     0   0   0    12   4  12     0   0   0     0   0   0     4   4   4     0   0   0     0   0   0     0   0   0     0   0   0     0   0   0     0   0   0     8   0   0     0   0   0     0   0   0     0   0   0
  0   0   0     0   0   0     4   4   4     0   0   0     2   2   2     6   6   6     0   0   8     0   0   8     0   0   0     0   0   0     0   0   0     0   0   0     0   0   0     0   0   0     0   0   0     0   0   0     0   0   0     0   0   0     0   8   0     0   0   0     0   0   0     0   8   0     0   0   0     0   0   0     0   0   0     0   0   0     0   0   0     8   8   8     0   0   0     2   2   2     2   2   2     0   0   0     0   8   0     0   0   0     0   8   0     0   0   0     0   0   0     0   0   8     0   0   0     0   0   0     0   0   0     0   0   0     0   0   0     8   8   8     0   8   0     0   0   0     0   0   0     0   0   0     8   8   8     8   8   8     0   0   0     0   0   0     8   8   8     0   0   0     0   0   0     4   4   4     0   0   0     0   0   0     0   0   0     0   0   0     2   2   2     0   0   0     0   0   0     0   0   0     0   0   0     0   2   0     0   0   0     0   2   0     0   0   0     0   2   0     0   0   0     0   0   0     0   0   0     0   0   0     0   0   0     0   0   0     0   0   0     0   0   0     0   0   0     0   0   0     0   0   0     0   0   0     0   0   0     0   0   0     0   0   4     0   4   0     0   0   4     0   0   0     0   0   0     0   4   0     0   0   0     0   4   0     0   4   0     0   0   0     0   0   0     0   0   0     0   0   0     0   0   0     0   0   0     0   8   8     0   0   0     0   0   0     0   0   0     0   0   0     0   4  12     2   4  12     2   4  12     2   4   4     0   4  12     0   4   0     0   4   8     0   4   8     0   4   0     0   0   0     0   0   4     0   0   0     0   0   0     2   0   0     2   0   0     0   0   0     0   0   0     0   0   0     0   0   0     0   0   0     0   0   0     2   0   0     0   0   0     0   4   0     0   0   4     0   0   4     0   0   0     0   0   0     0   0   0     0   0   0     2   0   0     2   0   0     0   0   0     2   0   0     2   0   0     0   0   0     0   0   0     0   0   0     2   0   0     0   0   0     0   0   0     0   0   0     0   0   0     0   0   0     0   0   0     0   0   0     0   0   0     0   0   0     0   0   0     0   2   0     0   2   0     0   2   0     0   0   2     0   0   0     0   0   0     0   2   2     0   0   2     2   2   0     0   0   0     0   0   0     0   0   0     0   0   0     0   0   0     4   4   4     0   0   8     0   8   0     8   0   0     8   0   0     0   0   0     0   0   0     0   0   0     8   0   0     0   0   0     0   0   0     0   0   0     0   0   0     0   0   0     0   0   0     0   0   0     0   0   0     0   0   0     0   0   0     6   6   4     2   2   0     2   2   0     4   4   4     0   0   0     0   0   0     8   8   0     0   0   0     0   0   0     0   0   0     8   8   0     0   0   0     0   0   0     0   0   0
  0   0   0     0   0   0     4   4   4     2   2   2     2   2   2     6   6   6     8   0   0     0   0   8     0   0   0     0   0   0     0   0   0     0   0   0     0   0   0     0   0   0     0   0   0     0   0   0     0   0   0     0   0   0     0   0   0     0   0   0     0   0   0     0   0   0     0   0   0     0   0   0     0   0   0     0   0   0     0   0   0     8   8   8     2   2   2     2   2   2     2   0   2     4   4   4     0   8   0     0   0   0     0   0   0     0   8   0     0   0   0     8   0   0     0   0   0     0   0   0     0   0   0     0   0   0     0   0   0     8   0   8     0   0   0     0   0   0     0   0   0     0   0   0     0   0   0     0   0   0     0   0   0     8   8   8     0   0   0     4   4   4     0   0   0     0   0   0     0   0   0     0   0   0     0   0   0     0   0   0     0   0   0     0   0   0     0   0   0     0   0   2     0   2   0     0   0   2     0   2   2     0   0   2     0   0   0     0   0   0     0   0   0     0   0   0     0   0   0     0   0   0     0   0   0     0   0   0     0   0   0     0   0   0     0   0   0     0   0   0     0   0   0     0   0   0     0   0   0     0   0   0     0   0   0     0   0   0     0   0   0     0   4   0     0   4   0     0   0   0     0   0   0     0   0   0     0   0   0     0   0   0     0   0   0     0   0   8     0   0   0     0   0   8     0   0   8     0  12   8     2   4   4     2   4   4     2   0   0     0   0   0     0   0   0     0   0   0     0   0   0     0   0   0     0   0   0     0   0   0     2   0   0     0   0   4     0   0   0     0   0   0     2   0   0     2   0   0     0   0   0     0   0   0     0   0   0     0   0   0     0   0   0     0   0   0     0   0   0     0   0   0     0   0   0     0   0   0     0   0   0     0   0   0     0   0   4     0   0   4     0   0   0     0   0   4     0   0   0     2   0   0     0   0   0     0   0   0     0   0   0     0   0   0     2   0   0     0   0   0     0   2   0     0   2   0     2   2   0     0   0   0     0   0   0     0   0   0     0   0   0     0   0   0     0   0   0     0   0   0     0   2   0     0   2   0     0   0   0     0   2   0     0   2   0     0   2   0     0   2   2     0   0   2     0   0   0     2   0   0     2   2   0     0   0   0     0   0   0     0   0   0     0   0   0     0   0   0     0   0   0     0   0   0     0   0   0     0   8   0     8   0   0     8   0   0     8   0   0     0   0   0     0   0   0     0   0   0     0   0   0     0   0   0     0   0   0     0   0   0     0   0   0     8   8   0     8   8   8     0   0   0     8   8   0     8   8   0     6   6   4     2   2   0     2   2   0     0   0   0     0   0   0     0   0   0     8   8   8     0   0   0     0   0   8     0   0   0     8   8   0     0   0   0     0   0   0     0   0   0
  0   0   0     0   0   0     4   4   4     2   2   2     2   2   2    14   6   6     8   0   0     0   8   0     0   0   0     0   0   0     0   0   0     0   0   0     0   0   0     0   0   0     0   0   0     0   0   0     0   0   0     0   0   0     0   8   0     0   0   0     0   8   0     0   0   0     0   0   0     0   0   0     0   0   0     0   0   0     0   0   0     0   0   0     6   6   6     2   2   2     2   2   2     4   4   4     0   8   8     0   0   8     0   0   0     0   0   0     8   0   8     0   0   0     0   0   0     0   0   0     0   0   0     0   0   0     0   0   0     8   0   0     0   0   0     0   0   0     0   0   0     0   0   0     0   0   0     8   8   8     0   0   0     8   8   8     0   0   0     4   4   4     4   4   4     4   4   4     4   4   4     4   4   4     4   4   4     0   0   0     0   0   0     0   0   2     0   0   2     0   0   0     0   2   0     0   0   2     0   0   2     0   0   2     0   2   0     0   0   0     0   0   0     0   0   0     0   0   0     0   0   0     0   0   0     0   0   0     0   0   0     0   0   0     0   0   0     0   0   0     0   0   0     2   0   0     0   0   4     0   4   8     0   0   0     0   0   8     0   0   0     0   0   0     0   0   0     4   8  24     4   8  24     0   8   8     0   0   8     0   0   8     0   0   0     0   0   0     0   0   0     2   0   4     0   0   0     0   0   0     0   0   0     0   0   0     0   0   0     0   0   0     0   2   2     0   2   0     0   0   0     0   0   0     0   0   0     0   0   0     0   0   0     0   0   0     0   0   0     0   0   0     0   0   0     0   0   0     0   0   0     0   0   0     0   0   0     0   0   0     0   0   0     0   0   0     0   0   0     0   0   0     0   0   0     0   0   0     2   0   4     0   0   0     0   0   0     0   0   0     0   0   4     0   0   0     0   0   0     0   0   0     0   0   0     0   0   0     0   0   0     0   0   0     0   0   0     0   0   0     0   2   0     0   2   0     0   2   0     0   0   0     0   0   0     0   0   0     0   0   0     0   0   0     0   0   0     2   0   0     0   0   0     0   2   0     0   0   0     0   0   0     0   0   0     0   0   0     0   0   0     0   0   0     0   0   0     0   0   0     0   0   0     0   0   0     0   0   0     0   0   0     0   0   0     0   0   0     0   0   0     0   0   0     0   0   0     4   0   0     0   0   0     8   0   0     8   0   0     0   0   0     0   0   0     0   0   0     0   0   0     0   0   0     0   0   0     0   0   0     0   0   0     8   8   0     8   8   8     0   0   0     8   8   0     8   8   0     6   6   4     6   6   4     2   2   0     0   0   0     0   0   8     0   0   0     0   0   0     0   0   0     0   0   0     0   0   8     8   8   0     0   0   0     0   0   0     0   0   0
  0   0   0     0   0   0     4   4   4     0   0   0     2   2   2     6   6   6     8   8   0     0   8   0     0   0   8     0   0   0     0   0   0     0   0   0     0   0   0     0   0   0     0   0   0     0   0   0     0   0   0     0   8   0     0   8   0     0   8   0     0   0   0     0   0   0     0   0   0     0   0   0     0   0   0     0   8   0     0   8   0     0   8   0     6   6   6     2   2   2     2   2   2     4   4   4     8   0   0     0   0   0     0   0   0     0   0   0     0   8   8     0   0   0     0   0   0     0   0   0     0   0   0     0   0   0     0   0   0     0   0   0     0   0   8     0   0   0     0   0   0     8   0   8     0   0   0     8   8   8     0   0   0     0   0   0     0   0   0     4   4   4     4   4   4     0   0   0     0   0   0     8   8   0     0   0   0     0   0   0     0   0   0     0   0   0     0   2   2     0   0   0     0   0   2     0   0   2     0   2   0     0   2   0     0   0   0     0   0   0     0   0   0     0   0   0     0   0   0     0   2   0     0   2   0     0   0   0     0   0   0     0   0   0     0   0   0     0   0   0     0   0   0     0   0   0     0   4   0     0   0   8     4   0   0     0   0   0     0   0   0     0   0   0     0   0   0     4  12  24     4  12  24     0  12  12     0   4   4     0   4   4     2   4   4     0   0   0     0   0   0     0   0   0     0   2   0     0   2   2     0   2   0     0   2   0     0   0   0     0   2   0     0   2   2     0   2   0     0   0   0     0   0   0     0   0   0     0   0   0     0   0   0     0   0   0     0   0   0     0   0   0     0   0   0     0   0   0     0   0   0     0   0   0     0   0   0     0   0   0     0   0   0     0   0   0     0   0   0     0   0   0     0   0   0     0   0   0     2   0   4     0   0   0     0   0   0     0   0   0     0   0   0     0   0   0     0   0   4     0   0   0     0   0   0     0   0   0     0   0   0     0   0   0     0   0   0     0   0   0     0   0   0     0   0   0     0   0   0     2   0   0     0   0   0     0   0   0     0   0   0     0   0   0     0   0   0     0   0   0     0   0   2     0   0   2     0   0   0     0   0   0     0   0   0     0   0   0     0   2   0     0   0   0     0   0   0     2   0   0     0   0   0     0   0   0     0   0   0     0   0   0     0   0   0     0   0   0     0   0   0     0   0   0     0   4   4     4   0   0     0   0   0     0   0   0     0   0   0     0   0   0     0   0   0     0   0   0     0   0   0     0   0   0     0   0   0     0   0   0     0   0   0     8   8   0     8   8   8     8   8   8     0   0   8     0   0   0     6   6   6     6   6   6     6   6   6     0   0   0     0   0   8     0   0   8     0   0   0     0   0   0     0   0   0     0   0   0     8   0   0     0   0   0     0   0   0     0   0   0
  0   0   0     0   0   0     4   4   4     2   2   2     2   2   2     4   4   4     0   8   0     0   0   0     0   0   0     0   0   0     0   0   0     0   0   0     0   0   0     0   0   0     0   0   0     0   0   0     0   0   0     8   8   8     0   0   0     0   0   0     0   0   0     0   8   8     0   8   8     0   0   0     0   0   8     8   0   0     0   8   0     0   0   8     6   6   6     2   2   2     2   2   2     4   4   4     0   0   0     0   0   0     8   0   0     0   0   0     0   0   0     8   0   0     0   0   0     0   0   0     0   0   0     0   0   0     0   0   0     0   0   0     8   0   0     0   0   0     8   0   0     8   0   0     0   0   0     0   0   0     0   0   0     0   0   0     0   0   0     0   0   0     0   0   0     8   8   0     0   0   8     0   0   0     0   0   0     0   0   0     0   0   0     0   0   0     2   2   0     0   0   2     0   0   2     0   0   0     0   0   0     0   0   0     0   0   0     0   2   0     0   0   0     0   2   0     0   0   0     0   0   0     0   0   0     0   2   0     0   0   0     0   0   0     0   0   0     0   0   0     2   0   0     0   0   0     0   0   0     0   0   0     4   0   0     0   0   8     0   4   0     0   0   0     0   0   4     2   0   0     2   0   0     2   0   0     0   0   0     0   0   0     0   0   0     0   2   0     0   0   0     0   0   2     0   0   2     0   0   2     0   2   0     0   2   0     0   2   0     0   2   0     0   0   2     0   2   0     0   0   0     0   0   0     0   0   0     0   0   0     0   0   0     0   0   0     0   0   0     2   0   0     0   0   0     0   0   0     0   0   0     0   0   0     0   0   0     0   0   0     0   0   0     0   0   0     0   0   0     0   0   0     0   0   0     0   0   0     0   0   0     0   0   0     0   0   0     0   0   0     0   0   0     0   0   0     0   4   4     0   0   0     0   0   0     0   0   0     0   0   0     0   0   0     0   0   0     2   0   0     2   0   0     2   0   0     2   0   0     2   0   0     0   0   0     2   0   0     0   0   0     0   0   0     0   0   0     0   2   0     0   0   0     0   0   2     0   0   0     0   0   0     0   0   0     0   2   0     0   0   0     0   0   0     0   0   0     0   0   0     0   0   0     0   0   0     0   0   0     0   0   4     0   0   0     0   0   0     4   4   4     0   0   4     4   4   4     0   0   0     0   0   0     0   0   0     0   0   0     0   0   0     0   0   0     0   0   0     0   8   0     0   8   0     8   8   8     8   8   8     8   8   8     8  12   8    12  12  12     4   4   4     0   0   0     0   0   0     6   6   6     6   6   6     6   6   6     0   0   0     8   0   0     0   0   0     0   0   0     0   0   0     0   0   8     0   8   0     0   0   0     0   0   0     0   0   0     0   0   0
  0   0   0     0   0   0     0   0   0     0   0   0     0   0   0     0   0   0     8   0   0     0   0   0     0   0   8     0   0   0     0   0   0     0   0   0     0   0   0     0   0   0     0   0   0     0   0   0     8   8   8     0   0   0     8   8   8    12  12  12     0   0   0     0   0   0     8   0   0     8   0   0     0   0   8     8   0   0     0   0   8     8   0   0     6   6   6     2   2   2     2   2   2     4   4   4     0   0   0     0   0   0     0   0   0     8   8   8     0   0   0     0   0   0     0   0   0     0   0   0     0   0   0     0   0   0     0   0   0     0   0   0     0   0   0     8   0   0     8   0   0     8   0   0     0   0   0     0   0   0     0   0   0     0   0   0     0   8   0     8   0   0     0   0   0     0   0   0     0   0   0     8   8   8     4   4   4     0   0   0     0   0   0     0   0   0     0   0   0     0   0   2     2   2   2     0   0   2     0   2   0     0   2   0     0   0   0     2   2   0     0   0   2     0   2   0     0   0   0     0   0   0     0   0   0     0   0   0     0   0   0     0   0   0     0   0   0     2   0   0     0   0   0     0   0   0     0   0   0     0   0   0     0   0   8     0   4   0     0   0   0     0   0   0     0   0   0     0   2   0     0   2   0     0   2   0     0   2   0     0   0   0     0   0   0     0   0   0     0   0   0     0   0   2     0   0   2     0   0   0     0   0   0     0   2   0     0   2   0     0   0   0     0   0   0     0   0   0     0   0   0     0   0   0     2   0   0     2   0   0     2   0   4     2   0   0     2   0   0     0   0   0     0   0   0     0   0   0     0   0   0     0   0   0     0   0   0     0   0   0     0   0   0     0   0   0     0   0   0     0   0   0     0   0   0     0   0   0     2   0   0     0   0   4     0   0   0     0   0   0     0   0   0     0   0   0     0   4   0     0   0   4     0   0   4     0   0   0     0   0   0     0   0   0     0   0   0     0   0   0     0   0   0     0   0   0     0   0   0     2   0   0     0   2   0     0   2   0     2   2   0     0   0   0     0   0   0     0   0   0     0   0   2     0   0   0     0   0   0     0   0   0     0   2   0     0   2   0     0   0   0     0   0   0     2   0   0     2   0   0     0   0   0     0   0   0     0   0   0     0   0   0     0   0   4     0   0   4     4   4   0     4   4   0     4   4   4     4   4   4     4   4   4    12  12  12    12   4   4    12  12  12    12   4   4    12   6  12     6   6   6     6   6   6     6   6   4     4   0   4     0   0   0     0   0   0     0   0   0     0   0   0     0   0   0     4   4   4     2   2   2     6   6   6     6   6   6     8   0   0     8   0   0     8   0   0     0   0   0     0   0   8     0   0   0     0   0   0     0   0   0     0   0   0     0   0   0     0   0   0
  0   0   0     6   6   6     0   0   0     2   2   2     4   4   4     0   0   0     8   0   0     0   0   8     0   0   0     0   0   0     0   0   0     0   0   0     0   0   0     0   0   0     0   0   0     0   0   0     8   0   0     0   0   0     4   4   4     0   0   0     0   0   0     2   2   2     6   6   6     6   6   6     6   6   6     4   6   6    12   6   6     4   6   6     0   0   0     2   2   2     0   0   2     4   4   4     0   0   0     0   0   0     0   0   0     0   0   0     0   0   0     8   0   0     0   0   0     0   0   0     0   0   0     0   0   0     0   0   0     0   0   0     0   0   0     0   0   0     8   0   0     8   0   0     0   0   0     0   0   0     0   0   0     0   0   0     0   8   0     8   0   0     8   0   0     0   0   8     0   0   0     0   0   0     0   0   0     4   4   4     0   0   0     0   0   0     0   0   0     0   0   0     2   2   0     0   0   2     0   0   2     0   0   2     0   0   2     0   2   0     0   0   2     0   2   0     0   0   0     0   0   0     0   0   0     0   0   0     0   2   0     0   0   0     2   0   0     0   0   0     0   0   4     0   0   0     0   0   0     0   0   0     0   4   0     0   0   4     2   0   0     0   2   0     0   0   0     0   0   0     0   0   0     0   0   0     0   0   0     0   0   0     0   0   0     0   0   0     0   0   0     0   0   0     0   0   0     0   0   0     0   0   0     0   0   0     0   0   0     0   0   0     0   0   0     0   0   0     0   0   0     0   0   0     0   0   0     0   0   4     0   0   0     0   0   4     0   0   0     0   0   0     0   0   0     0   0   0     0   0   0     0   0   0     0   0   0     0   0   0     0   0   0     0   0   0     0   0   0     0   0   0     0   0   0     0   0   0     2   0   0     0   0   0     0   0   4     0   4   0     0   0   0     0   0   0     0   0   4     0   0   4     0   0   0     0   0   0     0   0   0     0   0   0     0   0   0     0   0   0     0   0   0     0   0   0     0   0   0     0   0   0     0   0   0     0   0   0     2   0   0     0   0   0     0   2   0     0   0   0     0   0   0     0   0   2     0   0   0     0   0   0     0   2   0     0   0   0     0   0   0     2   0   0     0   0   0     0   0   0     0   0   0     0   0   0     0   0   0     0   0   0     0   0   0     0   0   0     0   0   0     0   0   0     0   0   0     0   0   0     0   0   0     0   0   0     0   0   0     4   0   4     4   4   4     4   6   4     6   6   6     6   6   6     6   6   4     4   4   4     4   0   4     0   0   0     0   0   0     0   0   0     0   0   0     4   4   4     2   2   2     6   6   6    14  14  14     0   0   0     0   8   0     8   0   0     0   8   8     0   0   8     0   0   0     0   0   0     8   0   0     0   0   0     0   0   0     0   0   0
  4   6   6     2   0   0     2   0   0     6   6   6     0   0   0     0   0   0     0   0   0     0   8   0     0   0   0     0   0   0     0   0   0     0   0   0     0   0   0     0   0   0     0   0   0     0   0   0     0   8   8     0   0   0     4   4   4     0   0   0     0   0   0     6   6   6     6   6   6     6   6   6     2   2   2     0   2   2     0   2   2     0   2   2     2   2   2     2   2   2     0   0   2     0   0   0     8   0   0     0   0   0     0   0   0     0   0   0     0   0   0     0   0   0     0   0   0     0   0   0     0   0   0     0   0   0     0   0   0     0   0   0     0   0   0     0   0   0     0   0   0     0   0   0     0   0   0     0   0   0     0   0   0     0   0   0     0   8   0     0   0   0     0   0   0     0   0   8     8   8   8     0   0   0     0   0   0     0   0   0     0   0   0     0   0   0     0   0   0     0   0   0     2   2   0     0   2   2     0   0   0     0   0   2     0   0   0     0   0   0     0   0   2     0   2   2     0   2   0     0   0   0     0   0   0     0   0   0     0   0   0     0   0   0     0   0   0     0   0   4     0   0   0     0   0   0     0   0   0     0   0   0     0   0   0     0   0   0     0   2   0     0   0   0     0   0   0     0   0   0     0   0   0     0   0   0     0   0   0     0   0   0     0   0   0     0   2   0     0   0   0     0   2   0     0   2   0     0   0   0     0   0   0     0   0   0     2   0   0     0   0   0     0   0   0     0   2   0     0   2   0     0   0   0     0   0   0     0   0   4     0   0   4     0   0   0     2   0   0     0   0   0     0   0   0     0   0   0     0   0   0     0   0   0     0   0   0     0   0   0     0   0   0     0   0   0     0   0   0     0   0   0     0   0   0     0   0   0     0   0   0     0   0   0     0   0   4     0   4   0     0   4   0     0   4   0     0   0   4     0   0   0     0   0   0     0   0   0     0   0   0     0   0   0     0   0   0     0   0   0     0   0   0     0   0   0     0   0   0     0   0   0     2   0   0     0   0   0     2   0   0     0   2   0     0   0   0     0   0   0     0   0   2     0   0   0     0   0   0     2   0   0     0   0   0     2   0   0     0   0   0     0   0   0     0   0   0     0   0   0     0   0   0     0   0   0     0   0   0     0   0   4     0   0   0     0   0   0     0   0   0     0   0   0     0   0   0     0   0   0     0   0   0     0   0   0     0   0   0     0   0   0     4   0   4     4   6   4     6   6   6    14  14  14    14  14  12    12  12  12    12  12  12    12  12  12    12  12  12    12  12  12    12  12  12     4   0   4     2   2   2     6   2   6    14  14  14     0   0   0     0   0   0     8   8   0     0   0   8     0   0   8     0   0   0     0   0   0     0   0   0     0   0   0     0   0   0     0   0   0
  6   6   6     0   0   0     4   6   6     0   0   0     0   0   0     8   0   0     8   0   0     0   8   0     0   8   0     0   8   0     0   0   0     0   0   0     0   0   0     0   0   0     0   0   0     0   0   0     8   0   0     0   0   0     0   0   0     0   0   0     4   4   4     6   6   6     6   6   6     2   2   2     2   2   2     0   2   2     0   2   2     0   2   2     0   0   2     0   0   2     0   0   2     2   2   2     2   2   2     4   4   4     0   0   0     0   0   0     0   0   0     0   0   0     0   0   0     0   0   0     0   0   0     0   0   0     0   0   0     0   0   0     0   0   0     0   0   0     0   0   0     0   0   0     0   0   0     0   0   0     0   0   0     0   0   0     0   8   0     8   0   0     0   0   0     0   0   0     0   0   8     0   0   0     8   8   8     8   8   8     0   0   0     0   0   8     0   0   0     0   0   0     0   0   0     2   2   0     0   0   2     0   2   2     0   0   2     0   0   0     0   0   2     0   2   2     0   0   0     0   0   0     0   2   0     0   0   0     0   0   0     0   0   0     2   0   0     0   0   0     0   0   0     0   0   0     0   4   0     0   0   0     2   0   0     0   2   0     0   0   0     0   0   0     0   0   0     0   0   0     0   0   0     0   0   0     0   0   0     0   2   0     0   0   0     0   0   0     0   0   0     0   0   0     0   0   0     0   0   0     2   0   0     0   0   0     0   0   0     0   0   0     0   2   0     0   0   0     0   2   0     0   0   0     0   0   0     0   0   0     0   0   0     0   0   0     2   0   0     0   0   0     0   0   0     0   0   0     0   0   0     0   0   0     0   0   0     0   0   0     0   0   0     0   0   0     0   0   0     0   0   0     0   0   0     2   0   0     0   0   0     0   0   4     0   0   0     0   0   0     0   4   4     0   4   4     0   0   0     0   0   0     0   0   0     0   0   0     0   0   0     0   0   0     0   0   0     0   0   0     0   0   0     0   0   0     0   0   0     0   0   0     2   0   0     0   0   0     2   0   0     0   0   0     0   0   0     0   0   0     0   0   0     2   0   0     2   0   0     0   0   0     0   0   0     0   0   0     0   0   0     0   0   0     0   0   0     0   0   0     0   0   0     0   0   0     0   0   0     0   0   0     0   0   0     0   0   0     0   0   0     0   0   0    12  12  12    12  12  12    12  12  12    12  12  12     0   4   0     0   0   0     0   0   0     8   8   8     0   0   0     0   0   0     0   0   0     0   0   0     0   0   0     0   0   0     0   0   0     0   0   0     0   0   0     8   4   8     2   2   2     2   2   2    14  14  14     0   0   0     0   0   0     0   0   0     0   0   0     0   0   0     0   0   0     0   8   0     8   0   0     0   0   0     0   0   0     0   0   0
  4   6   6     4   6   6     0   0   0     0   0   0     0   0   0     0   0   0     0   0   0     0   0   0     8   0   0     0   0   0     8   0   0     8   0   8     8   8   8     8   8   8     8   8   8     8   8   0     8   8   0     0   0   0     0   0   0     0   0   0     0   0   0     0   0   0     0   0   0     0   0   0     0   0   0     4   4   4     4   4   4     0   0   0     8   8   8     0   0   0     4   4   4     2   2   2     2   2   2     2   2   2     0   0   0     2   2   2     4   4   4     0   0   4     0   0   0     0   0   0     0   0   0     0   0   0     0   0   0     0   0   0     0   0   0     0   0   0     0   0   0     0   0   0     0   0   0     0   0   0     0   0   0     0   0   0     0   0   0     0   0   0     0   0   0     0   0   8     0   0   8     0   0   0     0   0   8     0   0   0     8   8   0     0   0   8     0   0   0     0   0   0     0   0   0     0   2   0     0   2   0     0   0   2     0   0   2     0   0   0     0   0   0     0   2   2     0   0   0     0   0   0     0   0   0     0   0   0     0   0   0     0   0   0     2   0   0     0   0   4     0   0   0     0   0   0     0   0   0     0   0   0     0   0   0     0   2   0     0   0   0     0   0   0     0   0   0     0   0   0     0   0   0     0   0   0     0   0   0     0   2   0     0   0   0     0   0   0     0   0   0     0   0   0     0   0   0     0   0   0     2   0   0     0   0   0     0   0   0     0   0   0     0   0   0     0   0   0     0   0   0     0   0   0     0   0   0     0   0   0     0   0   0     0   0   0     0   0   0     0   0   0     0   0   0     0   0   0     0   0   0     0   0   0     0   0   0     0   0   0     0   2   0     0   0   0     0   0   0     0   0   0     0   0   0     0   0   0     0   0   0     0   0   0     0   0   0     0   0   0     0   0   0     0   0   0     0   0   4     0   0   0     0   0   4     0   0   4     0   0   0     0   0   0     0   0   0     0   0   0     0   0   0     0   0   0     0   0   0     0   0   0     2   2   0     0   2   0     0   2   0     0   0   2     0   2   0     0   0   0     0   0   0     0   0   0     0   0   0     0   0   0     0   0   0     0   0   0     0   0   0     0   0   0     0   0   0     0   0   0     0   0   0     0   0   0     0   0   0     0   0   4     0   4   4     0   0   0     0   0   0     0   0   0     0   0   0     0   0  16     0   0  16     0   0   0     0   0  16    16  16   0    16  16   0     0   0   0     0   0   0     0   0   0     0   0   0     0   0   0     0   0   0     0   0   0     0   0   0     0   0   0     0   0   0    12   4  12     2   2   2     2   2   2    14  14  14     0   0   0     0   0   0     0   0   0     0   0   0     0   0   0     0   0   0     0   0   0     8   8   0     0   0   0     0   0   0     0   0   0
  0   0   0     0   0   0     0   0   0     0   0   0     0   0   0     0   0   0     8   0   0     0   0   0     0   0   0     0   0   0     8   0   0     0   0   0     0   0   0     0   0   0     0   0   0     0   0   0     0   0   0     0   0   0     0   0   0     0   0   0     0   0   0     0   0   0     0   0   0     0   0   0     8   8   0     0   0   0     8   8   8     0   0   0     8   8   8     0   0   0     0   0   0     0   0   0     0   0   0     2   2   2     2   2   2     2   2   2     2   2   2     0   0   0     2   2   2     0   0   4     0   0   0     0   0   0     0   0   0     0   0   0     0   0   0     0   0   0     0   0   0     8   0   0     0   0   0     8   0   0     0   0   0     0   0   0     0   0   0     0   0   0     0   0   0     0   0   0     0   0   8     0   0   8     0   0   8     0   0   8     8   8   0     0   0   8     0   0   8     0   0   0     0   0   0     0   0   0     2   2   2     0   0   0     0   0   0     0   0   0     0   2   2     0   0   0     0   0   0     0   0   0     2   0   0     0   0   0     0   0   0     0   0   0     2   0   0     0   0   0     0   0   0     0   4   0     0   0   0     2   0   4     0   0   0     0   0   0     0   0   0     0   0   0     0   0   0     0   0   0     0   0   0     0   0   0     0   0   0     0   0   0     0   0   0     0   0   0     0   0   0     0   0   0     0   0   0     0   0   0     2   0   0     0   0   0     0   0   0     0   0   0     0   0   0     0   0   0     0   2   0     2   0   0     0   0   0     0   0   0     0   0   0     2   0   0     0   0   0     0   0   0     0   0   0     0   2   0     0   2   0     0   0   0     0   0   0     0   0   0     0   2   0     0   0   0     0   0   0     0   0   0     0   0   0     0   0   0     2   0   0     0   0   0     0   0   0     0   0   0     0   0   0     0   0   0     0   0   4     0   0   0     0   0   4     0   0   0     0   0   4     0   0   0     0   0   0     0   0   0     0   0   0     0   0   0     0   0   0     0   0   0     0   0   0     0   0   2     0   0   2     0   0   0     0   2   0     0   2   0     2   0   0     0   0   0     0   0   0     0   0   0     0   0   0     0   0   0     0   0   0     0   0   0     0   0   0     0   0   0     0   0   0     0   0   0     0   0   4     0   4   4     0   0   0     0   0   0     0   0   0     0   0   0     4   4   4     0   0   0     0   0   0     0   0   0     0   0   0     8   8   8     0   0   0     0   0   0     0   0   0     0   0   0     0   0   0     0   0   0     0   0   0     0   0   0     0   0   0     0   0   0     0   0   0    12   4  12     2   2   2     2   2   2    14  14  14     0   0   0     0   0   0     8   8   0     8   8   0     0   0   0     0   0   0     0   8   0     8   0   0     0   0   0     0   0   0     0   0   0
  0   0   0     0   0   0     0   0   0     0   0   0     0   0   0     0   0   0     0   0   0     0   0   0     0   0   0     0   0   0     0   0   0     0   0   0     0   0   0     0   0   0     0   0   0     0   0   0     0   0   0     0   0   0     0   0   0     0   0   0     0   0   0     0   0   0     8   8   0     8   0   0     8   8   0     0   0   0     0   0   0     0   0   0     0   0   0     0   0   0     0   0   0     0   0   0     0   0   0     0   0   0     2   2   2     0   0   0     2   2   2     2   2   2     2   2   2     2   2   2     0   0   2     0   0   0     0   0   0     8   8   8     0   0   0     8   8   0     8   8   0     0   0   0     0   0   0     0   0   0     0   0   0     0   0   0     0   0   0     0   0   0     0   0   0     0   0   0     0   0   0     0   0   0     8   8   0     0   0   0     8   8   8     0   0   0     0   0   0     0   0   0     0   0   0     0   0   0     0   0   0     2   2   2     0   2   2     0   0   2     0   2   0     0   0   0     0   0   0     0   0   0     2   0   0     0   0   0     2   0   0     2   0   0     0   0   0     0   0   0     0   0   0     0   4   0     0   0   0     2   0   0     0   0   0     0   2   0     0   0   0     0   0   0     0   0   0     0   0   0     0   0   0     0   0   0     0   0   0     0   2   0     0   0   0     0   0   0     0   0   0     0   0   0     0   0   0     0   0   0     0   0   0     0   0   0     0   0   0     0   0   0     0   2   0     0   2   0     2   0   0     2   0   0     2   0   0     2   0   0     0   0   0     2   0   0     0   0   0     0   0   0     0   2   0     0   0   0     0   0   0     0   2   0     0   0   0     0   0   0     0   2   0     0   0   0     0   0   0     0   0   0     0   0   0     0   0   0     2   0   0     2   0   0     0   0   0     0   0   0     0   0   4     0   0   4     0   0   4     0   0   0     0   0   0     0   4   0     0   0   0     0   0   4     0   0   4     0   0   0     0   0   0     0   0   0     2   2   0     2   2   0     0   0   0     0   0   2     0   2   2     0   0   0     2   0   0     0   0   0     0   0   0     0   0   0     0   0   0     0   0   0     0   0   0     0   0   0     0   0   0     0   0   0     0   0   0     0   0   0     0   4   0     0   0   0     0   4   0     4   0   0     4   0   0     0   0   0     0   0   0     2   2   0     2   2   0     4   4   4     8   8   8     0   0   0     0   0   0     8   8   8     0   0   0     0   0   0     0   0   0     0   0   0     0   0   0     0   0   0     0   0   0     0   0   0     0   0   0     0   0   0     0   0   0    12  12  12     2   2   2     2   2   2    14   6  14     0   0   0     0   0   0     8   8   0     8   8   0     0   0   0     0   0   8     8   8   0     8   8   0     0   0   0     0   0   0     0   0   0
  0   0   0     0   0   0     0   0   0     0   0   0     0   0   0     0   0   0     0   0   0     8   8   0     8   0   0     0   8   0     0   8   0     8   0   8     0   0   0     0   0   0     0   0   0     8   8   0     0   0   0     8   8   0     0   0   0     0   0   0     0   0   0     0   0   0     8   8   0     0   8   0     8   8   0     0   0   0     0   0   0     0   0   0     8   8   0     8   8   0     8   0   0     8   0   0     0   0   0     0   0   0     0   0   0     4   4   4     4   4   4     2   2   2     2   2   2     2   2   2     0   0   2     4   4   6     0   0   0     0   0   0     0   0   0     8   0   0     0   0   0     8   8   0     0   0   0     0   0   0     8   0   0     8   0   0     0   0   0     0   0   0     0   0   0     0   0   0     0   0   0     8   8   0     8   8   0     0   0   0     8   8   8     0   0   0     8   8   8     4   4   4     0   0   0     0   0   0     0   0   0     0   0   0     0   0   0     0   2   0     0   2   0     0   0   0     0   0   0     0   0   0     2   0   0     2   0   0     0   0   0     0   0   0     0   0   0     0   0   0     0   0   0     0   0   0     0   0   0     0   0   4     0   0   0     0   0   0     0   2   0     0   0   0     0   0   0     0   0   0     0   0   0     0   0   0     0   0   0     0   0   0     0   0   0     0   0   0     0   0   0     0   0   0     0   0   0     2   0   0     0   0   0     0   0   0     2   0   0     0   0   0     0   0   0     0   0   0     0   0   0     0   0   0     0   0   0     0   0   0     2   0   0     0   0   0     0   0   0     0   0   0     0   2   0     0   0   0     0   0   0     0   0   0     0   2   0     0   0   0     0   0   0     0   0   0     0   0   0     0   0   0     0   0   0     0   0   0     0   0   0     0   0   0     0   0   0     0   0   0     0   0   0     0   0   0     0   0   4     0   4   0     0   0   0     0   4   0     0   4   0     0   0   4     0   0   0     0   0   0     0   0   0     0   0   0     2   2   0     2   2   0     0   2   0     0   0   0     2   0   0     0   2   2     2   0   0     2   0   0     0   0   0     0   0   0     0   0   0     0   0   0     0   0   0     0   0   0     0   0   0     0   0   0     0   0   0     0   0   0     0   0   0     0   0   0     0   0   0     4   0   8     4   0   8     0   0   0     0   0   0     2   2   0     2   2   2     2   2   2     0   0   0     0   0   0     8   8   8     8   8   8     8   8   8     0   0   0     0   0   0     0   0   0     0   0   0     0   0   0     0   0   0     0   0   0     0   0   0     0   0   0     0   0   0    12  12  12     2   2   2     2   2   2    14   6  14     0   0   0     0   0   0     0   8   0     0   8   0     0   0   0     0   0   8     0   0   0     0   0   0     0   0   0     0   0   0     0   0   0
  0   0   0     0   0   0     8   8   0     0   0   0     0   0   0     0   0   0     0   0   0     8   8   0     0   0   0     0   0   8     0   0   0     0   8   0     8   0   0     8   0   0     0   0   0     0   0   8     0   0   0     0   0   0     8   8   0     8   8   0     8   8   0     0   8   0     0   0   0     0   0   0     8   8   0     0   0   0     0   0   0     0   0   0     0   0   0     8   0   0     8   8   0     0   0   0     0   0   0     0   0   0     0   0   0     8   8   8     8   8   0     8   0   0     0   0   0     4   4   4     0   0   0     4   4   6     4   4   4     0   0   0     8   0   0     0   8   8     0   8   8     0   0   8     0   0   0     0   0   0     8   0   0     8   0   0     0   0   0     0   0   0     0   0   0     0   0   0     0   0   0     8   8   0     8   8   0     8   8   0     0   0   8     0   0   0     0   0   0     4   4   4     0   0   0     0   0   0     0   0   0     0   0   0     0   0   0     2   0   0     0   2   0     2   0   0     0   0   0     0   0   0     0   0   0     0   0   0     0   0   0     2   0   0     0   0   0     0   0   4     0   0   0     0   0   0     0   0   0     0   0   0     0   0   0     0   0   0     0   2   0     0   0   0     0   0   0     0   0   0     0   0   0     0   0   0     0   0   0     0   0   0     0   0   0     0   0   0     0   2   0     0   0   0     0   0   0     0   0   0     0   0   0     0   0   0     2   0   0     0   0   0     0   0   0     0   0   0     0   0   0     0   0   0     0   0   0     0   0   0     0   0   0     0   0   0     0   0   0     0   0   0     0   0   0     0   0   0     0   0   0     0   0   0     0   0   0     0   2   0     0   0   0     0   0   0     0   0   0     0   0   0     0   0   0     0   0   0     2   0   0     0   0   0     0   0   0     0   0   0     0   0   0     0   0   0     0   0   4     0   0   0     0   0   0     0   4   0     0   0   0     0   0   4     0   0   0     0   0   0     0   0   0     0   0   0     0   0   0     2   0   0     0   2   0     0   2   2     0   2   2     0   2   0     0   0   0     0   0   0     0   0   0     0   0   0     0   0   0     0   0   0     0   0   0     0   0   0     0   0   0     0   0   0     0   0   0     0   0   4     0   0   0     0   0   0     4   0   8     0   0   0     4   4  12     0   0   0     0   0   0     0   2   0     0   0   0     0   2   2     0   2   2     2   2   2     4   4   4     8   8   8     0   0   0     8   8   8     8   8   0     0   0   0     0   0   0     0   0   0     0   0   0     0   0   0     0   0   0     0   0   0     0   0   0    12  12  12     2   2   2     2   2   2     6   6   6     0   8   0     0   0   0     0   0   0     0   0   0     0   0   0     8   8   8     0   0   0     0   0   0     0   0   0     0   0   0     0   0   0
  0   0   0     0   0   0     0   0   0     0   0   0     0   0   0     0   0   0     8   0   0     0   8   0     0   0   8     0   0   8     0   0   0     0   0   8     8   0   0     0   0   0     0   0   0     0   0   0     0   0   8     0   0   8     0   0   8     0   0   0     0   0   0     0   0   8     0   0   8     0   0   8     0   0   8     0   0   0     0   0   0     0   0   0     8   8   0     0   0   0     0   8   0     0   0   0     0   0   0     0   0   0     0   0   0     0   0   0     0   0   0     0   0   0     0   0   0     0   0   0     0   0   0     0   0   0     4   4   4     0   0   0     0   0   0     0   0   0     8   0   0     0   0   0     0   0   0     0   0   0     0   0   0     0   0   0     0   0   0     0   0   0     0   0   0     0   0   0     0   0   0     8   8   0     8   8   0     0   0   0     0   0   0     8   8   8     0   0   0     4   4   4     0   0   0     0   0   0     0   0   0     0   0   0     0   0   0     0   0   0     0   0   0     0   0   0     0   0   0     0   0   0     2   0   0     0   2   0     2   2   0     2   0   0     0   0   0     0   0   0     0   0   0     0   0   0     0   4   0     0   0   0     0   0   0     2   0   0     0   0   0     0   0   0     0   0   0     0   0   0     0   0   0     0   0   0     0   0   0     0   0   0     0   0   0     0   2   0     0   0   0     0   0   0     2   0   0     0   0   0     2   0   0     0   0   0     0   0   0     0   0   0     0   0   0     0   0   0     0   0   0     0   0   0     0   0   0     0   0   0     0   0   0     0   0   0     0   2   0     0   0   0     0   0   0     0   0   0     0   0   0     0   0   0     0   0   0     0   0   0     0   0   0     0   0   0     0   0   0     0   0   0     0   0   0     0   0   0     0   0   0     0   0   0     2   0   0     2   0   0     0   0   0     0   0   0     0   0   0     0   0   0     0   0   0     0   0   0     0   0   0     0   0   0     0   0   0     0   0   0     0   0   0     0   0   0     0   0   0     2   0   0     2   2   0     0   2   2     2   0   0     0   0   0     0   0   0     0   0   0     0   0   0     0   0   0     0   0   0     0   0   0     0   0   0     0   0   0     0   0   0     0   0   0     0   0   4     0   0   0     0   0   8     0   0   0     0   0   0     0   0   0     0   0   0     0   0   0     0   0   0     2   0   0     0   2   0     0   0   0     0   0   0     0   0   0     2   2   2    12  12   8     0   0   0     8   0   8     8   0   8     0   0   0     0   0   0     0   0   0     0   0   0     0   0   0     0   0   0     0   0   0     0   0   0    12  12  12     0   2   2     0   2   2     4   6   6     0   0   0     0   8   0     0   0   0     8   8   8     8   8   8     8   8   8     0   0   0     0   0   0     0   0   0     0   0   0     0   0   0
  0   0   0     0   0   0     0   0   0     0   0   0     0   0   0     0   0   0     0   0   0     8   0   0     0   0   0     0   0   0     0   8   0     0   0   0     0   0   0     8   0   0     8   0   0     0   0   8     0   0   8     0   0   0     0   0   0     0   0   0     0   0   0     0   0   0     0   0   0     0   0   0     0   0   0     0   0   0     0   0   0     0   0   0     8   8   8     0   0   8     0   8   0     8   0   0     0   0   0     0   0   0     0   0   0     0   0   0     0   0   0     0   0   0     0   0   0     0   0   0     0   0   0     0   0   0     0   0   0     0   0   0     0   0   0     0   0   0     0   0   0     0   0   8     0   0   8     8   8   0     8   8   0     0   0   0     0   0   0     8   8   0     0   0   0     8   8   0     0   0   8     0   0   8     8   8   0     8   8   0     0   0   0     0   0   0     0   0   0     0   0   0     0   0   0     0   0   0     0   0   0     0   0   0     0   0   0     0   0   0     0   0   0     2   0   0     0   0   0     2   0   0     2   0   0     0   0   0     2   0   0     2   0   0     0   0   0     0   0   0     0   0   4     0   0   0     0   0   0     0   0   0     0   0   0     2   0   0     0   0   0     0   0   0     0   2   0     0   0   0     0   0   0     0   0   0     0   0   0     0   0   0     0   0   0     0   0   0     0   0   0     0   0   0     2   0   0     2   0   0     0   0   0     0   0   0     0   0   0     0   0   0     0   0   0     0   0   0     0   0   0     0   0   0     0   0   0     0   0   0     0   0   0     0   0   0     0   2   0     0   0   0     0   0   0     0   0   0     0   0   0     0   0   0     0   0   0     0   0   0     0   0   0     0   0   0     0   0   0     0   0   0     2   0   0     0   0   0     0   0   0     2   0   0     2   0   0     2   0   0     2   0   0     0   0   0     0   0   0     0   0   0     0   4   0     0   0   0     0   0   0     0   0   0     0   0   0     0   0   0     0   0   0     0   0   0     0   0   0     0   0   0     2   0   0     0   2   2     0   0   0     0   0   0     0   0   0     0   0   0     2   0   0     0   0   0     0   0   0     2   0   0     2   0   0     2   0   0     0   0   0     0   0   0     0   0   0     0   0   0     0   0   0     0   0   0     0   8   0     4   4   8     0   0   0     0   0   0     0   0   0     2   0   0     0   2   0     0   0   0     0   0   0     0   0   0     0   0   0     0   0   0     0   0   0     0   0   8     0   0   8     0   0   0     0   0   0     0   8   0     0   0   0     0   0   0     0   0   0     0   0   0     0   0   0    12  12  12     0   2   2     0   2   2     4   6   6     0   0   0     8   8   8     0   0   0     0   0   0     0   0   0     0   0   0     0   0   0     0   0   0     0   0   0     0   0   0     0   0   0
  0   0   0     0   0   0     0   0   0     0   0   0     0   0   0     0   0   0     0   0   0     8   0   0     0   0   0     0   0   0     0   0   0     8   0   0     8   0   0     8   0   0     8   0   0     0   0   8     0   0   0     0   0   0     0   0   0     0   0   0     0   0   0     0   0   0     0   0   0     0   0   0     0   0   8     8   8   0     0   0   0     0   0   0     8   8   8     0   0   8     0   8   0     8   0   0     8   0   0     0   0   0     0   0   0     0   0   0     0   0   0     0   0   0     0   0   0     0   0   0     0   0   0     0   0   0     0   0   0     0   0   0     0   0   0     0   0   0     0   0   0     0   0   0     8   8   0     0   0   0     0   0   0     0   0   0     0   0   0     0   0   0     0   0   0     0   0   0     8   8   0     8   8   0     0   0   0     0   0   0     0   0   0     0   0   0     0   0   0     0   0   0     4   4   4     0   0   0     0   0   0     0   0   0     2   0   0     2   0   0     0   0   0     2   0   0     0   0   0     0   0   0     2   0   0     0   0   0     2   0   0     0   0   0     0   0   0     0   0   0     0   0   0     0   0   0     0   0   0     0   0   0     0   0   0     2   0   0     0   0   0     0   0   0     0   2   0     0   0   0     0   0   0     0   0   0     0   0   0     0   0   0     0   0   0     0   0   0     0   2   0     0   0   0     0   0   0     0   0   0     0   0   0     0   0   0     0   0   0     0   0   0     0   0   0     0   0   0     0   0   0     0   0   0     0   0   0     0   0   0     0   0   0     0   0   0     0   0   0     0   0   0     0   0   0     0   0   0     0   0   0     0   0   0     0   0   0     0   0   0     0   0   0     0   0   0     0   2   0     0   2   0     0   0   0     0   0   0     0   0   0     2   0   0     0   0   0     2   0   0     2   0   0     2   0   0     0   0   0     0   0   0     0   0   4     0   0   4     0   0   4     0   0   0     0   0   0     0   0   0     0   0   0     0   0   0     0   0   0     0   0   0     0   0   0     2   0   0     0   0   0     0   0   0     0   0   0     0   0   0     2   0   0     0   0   0     0   0   0     2   0   0     2   0   0     2   0   0     0   0   0     0   0   0     0   4   0     4   0   8     0   8   0     0   0   0     0   0   0     0   0   0     0   0   0     0   0   0     2   0   0     0   2   2     0   0   0     0   0   0     0   0   0     0   0   0     0   0   0     2   2   2     4   4   0     0   0   8     0   8   0     0   8   0     0   8   0     0   8   0     0   0   0     0   0   0     0   0   0     0   0   0     0   0   0    12  12  12     0   2   2     0   2   2    12  14  14     0   0   0     0   0   8     0   0   8     0   0   0     8   8   8     0   0   0     0   0   0     0   0   0     0   0   0     0   0   0     0   0   0
  0   0   0     0   0   0     0   0   0     0   0   0     0   0   0     0   0   0     0   0   0     8   0   0     0   0   0     0   0   0     0   0   0     0   0   0     0   0   0     0   8   0     0   0   0     0   0   0     0   0   0     0   0   0     0   0   0     0   0   0     0   0   0     0   0   0     0   0   0     0   0   0     0   0   0     0   0   0     0   0   0     0   0   0     8   8   8     0   0   8     0   0   0     8   0   0     8   0   0     0   0   0     0   0   0     0   0   0     0   0   0     0   0   0     0   0   0     0   0   0     0   0   0     0   0   0     0   0   0     0   0   0     0   0   0     0   0   0     0   0   0     8   8   0     0   0   0     0   0   0     0   0   0     0   0   0     0   0   0     0   0   0     0   0   0     0   0   0     0   0   0     8   8   8     8   8   8     0   0   0     0   0   0     0   0   0     0   0   0     0   0   0     0   4   0     0   0   0     0   0   0     2   2   2     0   2   2     0   0   0     0   2   2     0   0   2     0   0   2     0   2   0     0   0   0     0   0   0     2   0   0     0   0   0     0   0   0     0   0   0     0   0   4     0   0   0     0   0   0     0   0   0     2   0   0     0   0   0     0   0   0     0   0   0     0   2   0     0   0   0     0   0   0     0   0   0     0   0   0     0   0   0     0   0   0     0   0   0     0   0   0     0   0   0     0   0   0     0   0   0     0   0   0     0   2   0     0   2   0     0   2   0     0   0   0     0   0   0     0   0   0     0   0   0     0   0   0     0   0   0     0   2   0     0   0   0     0   0   0     0   0   0     0   0   0     0   0   0     0   0   0     0   0   0     0   0   0     0   0   0     0   0   0     0   0   0     0   2   0     0   2   0     0   0   0     2   0   0     0   0   0     0   0   0     0   0   0     0   0   0     0   0   0     0   0   0     0   0   0     0   0   0     0   0   0     0   0   0     0   0   0     0   0   0     0   0   0     0   0   0     0   0   0     0   0   0     0   0   0     0   0   0     0   0   0     0   0   0     0   0   0     0   0   0     2   0   0     0   0   0     0   0   0     0   0   0     0   0   0     0   0   0     0   0   0     0   0   0     0   0   0     0   0   0     0   4   0     0   0   8     0   8  16     0   0   0     0   0   4     0   0   0     0   0   0     2   2   0     0   0   2     0   0   0     0   0   0     0   0   0     0   0   0     0   0   0     0   0   0     0   0   0     0   0   0     0   0   0     8   0   0     0   0   0     0   0   0     0   0   0     0   8   0     0   0   0     0   0   0     0   0   0     0   0   0    12  12  12     0   2   2     0   2   2    12  14   6     0   0   0     0   0   8     0   0   0     0   0   8     0   0   0     0   0   0     0   0   0     0   0   0     0   0   0     0   0   0     0   0   0
  0   0   0     0   0   0     0   0   0     0   0   0     0   0   0     0   0   0     0   0   0     0   0   0     0   0   0     0   0   0     0   0   0     0   0   0     0   8   0     0   0   0     0   0   8     0   0   0     0   0   0     0   0   0     0   0   0     0   0   0     0   0   0     0   0   0     0   0   0     0   0   0     8   8   0     0   0   0     0   0   0     0   0   0     8   8   0     0   0   0     8   0   0     8   0   0     0   8   0     0   0   0     0   0   0     0   0   0     0   0   0     0   0   0     0   0   0     0   0   0     0   0   0     0   0   0     0   0   0     0   0   0     0   0   0     0   0   0     0   0   0     8   8   0     0   0   0     0   0   0     0   0   0     0   0   0     0   0   0     0   0   0     0   0   0     0   0   0     0   0   0     0   0   0     0   0   0     8   8   8     8   8   8     8   8   8     0   0   0     0   0   0     4   4   0     0   0   0     2   2   2     2   2   2     0   0   0     0   0   0     0   2   2     0   2   2     0   2   2     0   0   0     0   2   0     0   2   0     0   0   0     0   0   0     2   0   0     0   0   0     0   0   0     0   0   0     0   0   0     0   0   0     2   0   0     0   0   0     0   0   0     0   0   0     0   2   0     0   0   0     0   0   0     0   0   0     0   0   0     0   0   0     0   0   0     0   0   0     0   0   0     0   2   0     0   0   0     0   0   0     0   2   0     0   0   0     0   0   0     0   0   0     0   2   0     0   0   0     0   0   0     0   0   0     0   0   0     0   0   0     0   0   0     0   0   0     0   0   0     0   0   0     0   2   0     0   2   0     0   0   0     0   0   0     0   0   0     0   2   0     0   0   0     0   0   0     0   0   0     0   2   0     0   2   0     0   2   0     2   0   0     0   0   0     0   0   0     0   0   0     0   0   0     0   0   0     0   0   0     0   0   0     0   0   0     0   0   0     0   0   0     0   0   0     0   0   0     0   0   0     0   0   0     0   0   0     0   0   0     0   0   0     0   0   0     0   0   0     0   0   0     0   0   0     2   0   0     2   0   0     0   0   0     0   0   0     0   0   0     0   0   0     0   0   0     0   0   0     0   0   4     0   0   4     0   0   0     0   0   8     0   8  16     4   4   4     0   0   0     0   0   0     0   2   0     0   0   0     0   0   0     0   0   0     0   0   0     0   0   0     0   0   0     0   0   0     0   0   0     0   0   0     0   0   0     0   0   0     4   4   4     8   8   0     8   8   0     8   8   0     8   0   0     0   8   0     0   0   0     0   0   0     0   0   0    12  12  12     2   2   2     2   2   2    14  14   6     0   0   0     0   0   0     0   0   0     0   0   0     8   8   8     0   0   0     0   0   0     0   0   0     0   0   0     0   0   0     0   0   0
  0   0   0     0   0   0     0   0   0     0   0   0     0   0   0     8   0   0     0   0   0     0   8   0     0   0   0     0   0   0     0   8   0     0   0   0     0   0   0     0   0   0     0   0   8     0   0   0     0   0   0     0   0   0     0   0   0     0   0   0     0   0   0     0   0   0     0   0   0     0   0   8     0   0   0     0   0   0     0   0   0     0   0   0     8   0   0     8   0   0     0   0   0     0   0   0     8   0   0     0   0   0     0   0   0     0   0   0     0   0   0     0   0   0     0   0   0     0   0   0     0   0   0     0   0   0     0   0   0     0   0   0     0   0   0     0   8   0     0   8   0     8   8   0     0   0   0     0   0   0     0   0   0     0   0   0     0   0   0     0   0   0     0   0   0     0   0   0     0   0   0     0   0   0     8   8   8     0   0   0     8   8   8     8   8   8     0   0   0     4   4   0     0   0   4     0   0   0     0   0   0     2   2   2     0   0   0     0   2   2     0   0   0     0   2   2     0   0   2     0   2   0     2   2   0     0   0   0     0   2   0     0   2   0     0   0   0     0   0   0     0   0   0     0   0   0     0   0   0     0   0   4     0   0   0     0   0   0     0   2   0     0   2   0     0   2   0     0   0   0     0   0   0     0   0   0     0   0   0     0   0   0     0   0   0     0   0   0     0   0   0     0   0   0     0   2   0     0   0   0     0   0   0     0   0   0     0   0   0     0   2   0     0   2   0     0   2   0     0   2   0     0   0   0     0   0   0     0   0   0     0   2   0     0   0   0     0   0   0     0   0   0     0   2   0     0   2   0     0   0   0     0   0   0     0   0   0     0   2   0     0   0   0     0   0   0     0   0   0     0   2   0     0   2   0     0   0   0     0   0   0     0   0   0     0   0   0     0   0   0     0   0   0     0   0   0     0   0   0     0   0   0     0   0   0     0   0   0     0   0   0     0   0   0     0   0   0     0   0   0     0   0   0     0   0   0     0   0   0     0   0   0     0   0   0     0   0   0     0   0   0     0   0   0     0   0   0     2   0   0     0   0   0     0   0   4     0   0   0     0   0   0     0   0   4     0   0   0     0   4   0     0   4   0     4   0   8     0   0   8     4   4  12     2   0   0     2   2   0     0   0   0     0   0   2     0   0   0     0   0   0     0   0   0     0   0   0     0   0   0     0   0   0     0   0   0     0   0   0     0   0   0     0   0   0     0   0   0     2   2   2     4   4  12     0   0   8     8   8   0     8   0   0     8   0   0     0   0   0     0   0   0     0   0   0    12  12  12     2   2   2     2   2   2    14  14   6     0   0   0     0   0   0     0   0   0     0   0   0     8   8   8     0   0   0     0   0   0     0   0   0     0   0   0     0   0   0     0   0   0
  0   0   0     0   0   0     0   0   0     0   0   0     0   0   0     0   0   0     8   0   0     0   8   0     0   0   0     0   0   0     0   0   0     0   0   0     0   0   0     0   0   0     0   0   0     0   0   0     0   0   0     0   0   0     0   0   0     0   0   0     0   0   0     0   0   0     0   0   0     8   8   8     0   0   0     0   0   0     0   0   0     0   0   0     8   8   0     8   0   0     0   0   0     0   0   0     8   0   0     8   0   0     0   0   0     0   0   0     0   0   0     0   0   0     0   0   0     0   0   0     0   0   0     0   0   0     0   0   0     0   0   0     0   0   0     0   0   0     0   0   0     0   0   0     0   0   0     0   0   0     0   0   0     0   0   0     0   0   0     0   0   0     8   8   8     8   8   8     0   0   0     0   0   0     8   8   8     8   8   8     0   0   0     0   0   0     0   0   0     0   0   0     0   0   0     0   0   0     0   0   0     2   2   2     2   2   2     2   2   2     0   2   2     2   0   0     2   0   0     0   2   2     0   0   2     0   0   0     0   0   0     0   2   0     0   0   0     0   0   0     0   0   4     0   0   0     0   0   0     2   0   0     0   2   0     0   0   2     0   0   0     0   2   0     0   0   0     0   0   0     0   0   0     0   0   0     0   0   0     0   0   0     0   0   0     0   0   0     0   0   0     0   0   0     0   0   0     0   0   0     0   0   0     0   0   0     0   0   0     0   2   0     0   0   0     0   2   0     0   2   0     0   0   0     0   0   0     0   0   0     0   0   0     0   0   0     0   0   0     0   0   0     0   0   0     0   2   0     0   0   0     0   0   0     0   0   0     0   0   0     0   0   0     0   0   0     0   0   0     0   0   0     0   0   0     0   0   0     0   0   0     0   0   0     0   0   0     2   0   0     0   0   0     2   0   0     0   0   0     0   0   0     0   0   0     0   0   0     0   0   0     0   0   0     0   0   0     0   0   0     0   0   0     0   0   0     0   0   0     0   0   0     0   0   0     0   0   0     2   0   0     0   0   0     0   0   0     0   0   0     0   0   0     0   0   4     0   0   0     0   0   4     0   4   0     0   4   0     0   0   0     0   0   0     4   0   8     0   4   4     2   2   0     0   0   0     0   0   2     0   0   0     0   0   0     0   0   0     0   0   0     0   0   0     0   0   0     0   0   0     0   0   0     0   0   0     0   0   0     0   0   0     0   0   0     0   0   0     0   0   0     0   0   0     4   4   0     0   0   0     0   0   0     8   0   0     8   0   0     8   8   0     0   0   0    12  12  12     2   2   0     2   2   0     6   6  12     0   0   0     0   0   0     0   0   0     0   0   0     8   8   8     0   0   0     0   0   0     0   0   0     0   0   0     0   0   0     0   0   0
  0   0   0     0   0   0     0   0   0     0   0   0     0   0   0     0   0   0     0   0   0     0   0   0     0   0   0     0   8   0     0   0   0     0   0   0     0   0   0     0   0   8     0   0   0     0   0   0     0   0   0     0   8   8     0   8   8     0   8   8     0   8   8     0   8   8     0   8   8     8   0   0     0   0   0     0   0   0     0   0   0     0   0   0     8   0   0     8   0   0     0   0   0     0   0   0     0   0   0     0   0   0     0   0   0     0   0   0     0   0   0     0   0   0     0   0   0     0   0   0     0   0   0     0   0   0     0   0   0     0   0   0     0   0   0     0   0   0     0   0   0     0   0   0     0   0   0     0   0   0     0   0   0     0   0   0     0   0   0     8   8   8     8   8   8     8   8   8     0   0   0     0   0   0     0   0   0     0   0   0    12  12  12     0   0   0     0   0   0     0   0   0     4   4   4     0   0   0     0   0   0     0   0   0     0   0   0     0   0   0     0   0   0     0   0   0     2   2   2     0   0   0     0   0   2     0   0   0     0   0   2     0   0   0     0   0   0     0   0   0     0   0   4     0   0   0     0   0   0     0   0   0     0   0   0     0   0   0     0   0   0     0   0   2     0   2   0     0   0   0     0   0   0     0   0   0     0   0   0     0   0   0     0   0   0     0   0   0     0   0   0     0   0   0     0   0   0     0   0   0     0   0   0     0   0   0     0   0   0     0   2   0     0   0   0     0   2   0     0   0   0     0   0   0     0   0   0     0   0   0     0   0   0     0   0   0     0   0   0     0   0   0     0   0   0     0   2   0     0   0   0     0   0   0     0   2   0     0   0   0     0   0   0     0   0   0     0   0   0     2   0   0     0   0   0     0   0   0     0   0   0     0   2   0     0   2   0     0   2   0     0   2   0     0   0   0     2   0   0     0   0   0     0   0   0     0   0   0     0   0   0     0   0   0     0   0   0     0   0   0     0   0   0     0   0   0     0   0   0     0   0   0     0   0   0     0   0   0     0   0   0     2   0   0     2   0   0     0   0   0     0   0   0     0   0   0     0   0   4     0   0   0     0   4   0     0   0   0     0   0   8     0   0   8     4   4   8     2   2   0     0   0   2     0   0   0     0   0   0     0   0   0     0   0   0     0   0   0     0   0   0     0   0   0     0   0   0     0   0   0     0   0   0     0   0   0     0   0   0     0   0   0     0   0   0     0   0   0     0   0   0     0   0   0     0   0   0     4   4   8     0   0   0     0   0   0     0   0   0     0   0   0     0   8   0    12  12  12     0   0   0     0   0   0     4   4   4     8   8   0     8   8   0     0   0   0     0   0   0     0   0   0     0   0   0     0   0   0     0   0   0     0   0   0     0   0   0     0   0   0
  0   0   0     0   0   0     0   0   0     0   0   0     0   0   0     0   0   0     0   0   0     0   0   0     0   0   0     8   0   0     0   8   0     0   0   0     0   0   0     0   0   8     0   0   8     0   8   0     0   8   0     0   0   0     0   0   0     8   0   0     8   0   0     8   0   0     8   0   0     0   0   0     0   0   0     0   0   0     0   0   0     0   0   0     0   0   0     0   0   0     0   0   0     0   0   0     0   0   0     0   0   0     0   0   0     0   0   0     0   0   0     0   0   0     0   0   0     0   0   0     0   0   0     0   0   0     0   0   0     0   0   0     0   0   0     0   0   0     0   0   0     0   0   0     0   0   0     0   0   0     0   0   0     0   0   0     0   0   0     0   0   0     0   0   0     0   0   0     0   0   0     0   0   0     0   0   0     8   8   8     4   4   4     0   0   0     0   0   0     8   8   8     0   0   0     4   4   4     0   0   0     0   0   0     0   0   0     0   0   0     0   0   0     0   0   0     2   2   0     0   0   2     0   0   0     0   0   0     0   0   2     2   2   0     0   0   0     0   0   4     0   0   0     0   0   4     0   0   0     0   2   0     0   0   0     0   0   0     0   0   2     0   0   2     0   2   2     0   0   0     0   2   0     0   0   0     0   0   0     0   0   0     0   0   0     0   0   0     0   0   0     0   0   2     0   0   0     0   0   0     0   0   0     0   0   0     0   2   0     0   2   0     0   0   0     0   2   0     0   0   0     0   0   0     0   2   0     0   2   0     0   0   0     0   0   0     0   0   0     0   0   0     0   2   0     0   0   0     0   0   0     0   2   0     0   0   0     0   0   0     2   0   0     0   2   0     0   0   0     0   0   0     0   0   0     0   0   0     0   0   0     0   2   0     0   0   0     0   0   0     0   0   0     0   2   0     2   0   0     2   0   0     0   0   0     0   0   0     0   0   0     0   0   0     0   0   0     0   0   0     0   0   0     0   0   0     0   0   0     0   0   0     0   0   0     0   0   0     0   0   0     0   0   0     0   0   0     0   0   0     0   0   4     0   0   4     0   0   0     0   0   0     0   0   0     0   0   0     0   0   8     4   4   0     2   0   0     0   0   0     0   0   0     0   0   0     0   0   0     0   0   0     0   0   0     0   0   0     0   0   0     0   0   0     0   0   0     0   0   0     0   0   0     0   0   0     0   0   0     0   0   0     0   0   0     0   0   0     0   0   0     0   0   0     0   0   0     2   2   2     4   4   4     0   0   0     0   0   8     0   0   0     0   0   0     4   4   4     0   0   0     0   0   0     4   4   4     8   8   0     0   0   8     8   8   0     0   0   0     0   0   0     0   0   0     0   0   0     0   0   0     0   0   0     0   0   0     0   0   0
  0   0   0     0   0   0     0   0   0     0   0   0     0   0   0     0   0   0     0   0   0     0   0   0     0   0   0     0   0   0     0   0   0     8   0   0     0   8   0     8   0   0     8   0   0     8   0   0     0   0   0     0   0   0     8   0   0     0   0   0     0   0   0     0   0   0     0   0   0     0   0   0     0   0   0     0   0   0     0   0   0     0   0   0     0   0   0     0   0   0     0   0   0     0   0   0     0   0   0     0   0   0     0   0   0     0   0   0     0   0   0     0   0   0     0   0   0     0   0   0     0   0   0     0   0   0     0   0   0     0   0   0     0   0   0     0   0   0     0   0   0     0   0   0     0   0   0     0   0   0     0   0   0     0   0   0     0   0   0     0   0   0     0   0   0     0   0   0     0   0   0     0   0   0     0   0   0     0   0   0     0   0   0     8   8   8     0   0   0     0   0   0     0   0   0     0   0   0     0   0   0     0   0   0     0   0   0     0   0   0     0   0   0     2   2   0     0   0   2     0   0   0     0   0   0     0   0   0     0   0   0     2   2   2     0   0   0     0   0   0     0   0   4     0   0   0     0   0   2     0   0   2     0   0   0     0   0   0     0   0   0     0   0   0     0   0   0     0   0   2     0   2   0     0   0   0     0   0   2     0   0   2     0   0   2     0   0   0     0   0   0     0   0   2     0   2   0     0   2   0     0   0   0     0   0   0     0   0   0     0   2   0     0   2   0     0   2   0     0   0   0     0   0   0     0   2   0     0   2   0     0   0   0     0   0   0     0   0   0     0   0   0     0   2   0     0   2   0     0   0   0     0   0   0     0   0   0     0   0   0     0   2   0     0   0   0     0   0   0     0   0   0     0   0   0     0   0   0     2   2   0     2   0   0     0   2   0     0   0   2     0   0   2     0   0   0     2   0   0     0   0   0     0   0   0     2   0   0     2   0   0     0   0   0     0   0   0     0   0   0     0   0   0     0   0   0     0   0   0     0   0   0     0   0   0     0   0   0     0   0   0     0   0   0     0   0   4     0   0   4     0   0   4     0   0   4     0   0   0     0   0   0     0   0   0     0   0   0     4   4   4     0   0   0     0   0   2     0   0   0     0   0   0     0   0   0     0   0   0     0   0   0     0   0   0     0   0   0     0   0   0     0   0   0     0   0   0     0   0   0     0   0   0     0   0   0     0   0   0     0   0   0     0   0   0     0   0   0     0   0   0     0   0   0     0   0   0     0   0   0     0   0   0     0   0   0     0   0   0     0   0   8     8   8   0     4   4   4     0   0   0     0   0   0     4   4   4     0   0   8     0   0   8     0   0   8     0   0   0     0   0   0     0   0   0     0   0   0     0   0   0     0   0   0     0   0   0     0   0   0
  0   0   0     0   0   0     0   0   0     0   0   0     0   0   0     0   0   0     0   0   0     0   0   0     0   0   0     0   0   0     0   0   0     0   0   0     0   0   0     0   0   0     0   0   0     8   0   0     0   0   0     8   0   0     0   0   0     0   0   0     0   0   0     0   0   0     0   0   0     0   0   0     0   0   0     0   0   0     0   0   0     0   0   0     0   0   0     0   0   0     0   0   0     0   0   0     0   0   0     0   0   0     0   0   0     0   0   0     0   0   0     0   0   0     0   0   0     0   0   0     0   0   0     0   0   0     0   0   0     0   0   0     0   0   0     0   0   0     0   0   0     0   0   0     0   0   0     0   0   0     0   0   0     0   0   0     0   0   0     0   0   0     0   0   0     0   0   0     0   0   0     0   0   0     0   0   0     0   0   0     0   0   0     0   0   0     0   0   0     0   0   0     8   8   8     0   0   0     0   0   0     0   0   0     0   0   0     0   0   0     0   0   0     0   0   0     2   2   0     0   0   0     0   0   0     0   0   0     0   0   0     0   2   2     0   0   0     0   0   0     0   0   0     2   0   0     0   0   2     0   0   0     0   0   0     0   0   0     0   0   0     0   0   0     0   0   0     0   0   0     0   0   2     0   0   0     0   0   2     0   0   2     0   0   2     0   2   0     0   2   0     0   0   0     0   0   0     0   0   0     0   0   0     0   0   0     0   0   0     0   0   0     0   0   0     0   0   0     0   0   0     0   2   0     0   2   0     0   2   0     0   0   0     0   0   0     0   0   0     0   0   0     0   0   0     0   0   0     0   0   0     0   0   0     0   0   0     0   0   0     0   2   0     0   0   0     0   0   0     0   0   0     0   0   2     0   0   2     0   0   0     0   0   2     0   0   2     0   0   0     0   0   0     0   0   0     2   0   0     2   0   0     2   0   0     0   0   0     0   0   0     0   0   0     0   0   0     0   0   0     0   0   0     0   0   0     0   0   0     0   0   0     0   0   0     0   0   0     0   0   0     0   0   0     0   0   0     0   0   0     0   4   0     0   0   0     0   0   0     0   4   0     0   0   0     0   4   4     0   0   0     0   2   2     0   0   0     0   0   0     0   0   0     0   0   0     0   0   0     0   0   0     0   0   0     0   0   0     0   0   0     0   0   0     0   0   0     0   0   0     0   0   0     0   0   0     0   0   0     0   0   0     0   0   0     0   0   0     0   0   0     0   0   0     0   0   0     0   0   0     0   0   0     0   0   0     0   0   2     0   0   0     0   0   0     0   0   0     0   0   0     0   0   0     4   4  12     0   8   8     0   0   8     0   0   0     0   0   0     0   0   0     0   0   0     0   0   0     0   0   0     0   0   0     0   0   0     0   0   0
  0   0   0     0   0   0     0   0   0     0   0   0     0   0   0     0   0   0     0   0   0     0   0   0     0   0   0     0   0   0     0   0   0     0   0   0     0   0   0     0   0   0     8   0   0     0   0   0     0   0   0     0   0   0     8   0   0     0   0   0     0   0   0     0   0   0     0   0   0     0   0   0     0   0   0     0   0   0     0   0   0     0   0   0     0   0   0     0   0   0     0   0   0     0   0   0     0   0   0     0   0   0     0   0   0     0   0   0     0   0   0     0   0   0     0   0   0     0   0   0     0   0   0     0   0   0     0   0   0     0   0   0     0   0   0     0   0   0     0   0   0     0   0   0     0   0   0     0   0   0     0   0   0     0   0   0     0   0   0     0   0   0     0   0   0     0   0   0     0   0   0     0   0   0     0   0   0     8   8   8     0   0   0     0   0   0     0   0   0     0   0   0     8   0   8     0   0   0     0   0   0     0   0   0     0   0   0     0   0   0     0   0   0     0   0   0     0   0   0     0   0   2     0   0   2     0   0   0     0   0   2     0   0   0     0   0   0     0   0   0     0   0   0     0   2   2     0   0   2     0   0   0     0   0   0     0   0   0     0   0   0     0   0   0     0   0   0     0   0   0     0   0   0     0   0   0     0   0   2     0   0   0     0   0   0     0   2   0     0   2   0     0   0   0     0   0   0     0   0   0     0   0   0     0   0   0     0   0   0     0   0   0     0   0   0     0   0   0     0   0   0     0   0   0     0   0   0     0   0   0     0   0   0     0   0   0     0   0   0     0   0   0     0   0   0     0   2   0     0   0   0     0   2   0     0   2   0     0   0   0     0   2   0     0   0   0     0   0   0     0   0   0     0   0   0     0   0   2     0   0   0     0   0   2     0   0   2     0   0   0     0   0   2     0   0   2     2   2   0     0   0   0     2   2   0     0   2   0     0   0   0     0   0   0     0   0   0     0   0   0     0   0   0     0   0   0     0   0   0     0   0   0     0   0   0     0   0   0     0   0   0     0   0   0     0   0   0     0   0   0     0   4   0     0   4   0     0   0   0     0   0   0     0   4   4     2   0   0     0   2   2     0   0   0     0   0   0     0   0   0     0   0   0     0   0   0     0   0   0     0   0   0     0   0   0     0   0   0     0   0   0     0   0   0     0   0   0     0   0   0     0   0   0     0   0   0     0   0   0     0   0   0     0   0   0     0   0   0     0   0   0     0   0   0     0   0   0     0   0   0     0   0   0     0   0   0     0   0   0     0   0   0     0   2   0     0   0   0     0   0   0     0   0   0     0   0   0     0   0   0     0   0   8     0   0   8     0   0   0     8   8   0     0   0   0     0   0   0     0   0   0     0   0   0     0   0   0     0   0   0
  0   0   0     0   0   0     0   0   0     0   0   0     0   0   0     0   0   0     0   0   0     0   0   0     0   0   0     0   0   0     0   0   0     0   0   0     0   0   0     8   8   0     0   0   0     0   0   0     0   0   0     0   8   0     0   8   0     8   8   0     8   8   0     8   8   0     8   8   0     8   8   0     8   0   0     0   0   0     0   0   0     0   0   0     0   0   0     0   0   0     0   0   0     0   0   0     0   0   0     0   0   0     0   0   0     0   0   0     0   0   0     0   0   0     0   0   0     0   0   0     0   0   0     0   0   0     0   0   0     0   0   0     0   0   0     0   0   0     0   0   0     0   0   0     0   0   0     0   0   0     0   0   0     0   0   0     0   0   0     0   0   0     0   0   0     0   0   0     0   0   0     0   0   0     0   0   0     0   0   0     0   0   0     0   0   0     0   0   0     0   0   0     8   0   8     4   4   4     0   0   0     0   0   0     0   0   0     4   4   4     0   0   4     0   0   0     0   0   0     0   0   0     0   0   2     0   0   0     0   0   0     0   0   0     0   0   0     0   0   0     0   0   0     2   2   2     0   0   2     0   0   0     0   0   0     0   0   0     0   0   0     0   0   0     0   0   0     0   0   0     0   0   0     0   0   0     0   0   2     0   2   2     0   0   0     0   0   0     0   0   0     0   0   0     0   0   0     0   0   0     0   0   0     0   0   0     0   0   0     0   0   0     0   0   0     0   0   0     0   0   0     0   0   0     0   0   0     0   0   0     0   0   0     0   0   0     0   2   0     0   0   2     0   0   2     0   0   2     0   2   0     0   2   0     0   0   0     0   0   2     0   0   2     0   0   2     0   0   0     0   0   0     0   0   0     0   0   2     0   0   0     0   0   2     0   0   2     0   0   0     0   0   0     0   0   0     2   2   0     0   0   0     2   2   0     2   2   0     0   0   0     0   0   0     0   0   0     0   0   0     0   0   0     0   0   0     0   0   0     0   0   0     2   0   0     2   0   0     0   0   0     0   0   0     0   0   0     0   4   0     0   0   0     0   0   0     0   0   0     0   0   4     2   0   0     0   0   2     0   0   0     0   0   0     0   0   0     0   0   0     0   0   0     0   0   0     0   0   0     0   0   0     0   0   0     0   0   0     0   0   0     0   0   0     0   0   0     0   0   0     0   0   0     0   0   0     0   0   0     0   0   0     0   0   0     0   0   0     0   0   0     0   0   0     0   0   0     0   0   0     0   0   0     0   0   0     0   0   0     0   0   0     0   0   0     0   0   0     0   2   2     0   0   0     0   0   0     0   0   0     0   0   8     0   0   0     0   0   8     0   0   0     0   0   0     0   0   0     0   0   0     0   0   0     0   0   0     0   0   0
  0   0   0     0   0   0     0   0   0     0   0   0     0   0   0     0   0   0     0   0   0     0   0   0     0   0   0     0   0   0     0   0   0     0   0   0     0   0   0     0   0   0     0   0   0     0   0   0     0   0   8     0   0   8     0   0   8     0   0   8     0   0   0     0   0   0     0   0   0     0   0   0     0   0   0     0   0   0     0   0   0     0   0   0     0   0   0     0   0   0     0   0   0     0   0   0     0   0   0     0   0   0     0   0   0     0   0   0     0   0   0     0   0   0     0   0   0     0   0   0     0   0   0     0   0   0     0   0   0     0   0   0     0   0   0     0   0   0     0   0   0     0   0   0     0   0   0     0   0   0     0   0   0     0   0   0     0   0   0     0   0   0     0   0   0     0   0   0     0   0   0     0   0   0     0   0   0     8   8   8     8   8   8     0   0   0     0   0   0     0   0   0     8   8   8     8   0   8    12   4  12     4   4   4     0   0   0     0   0   0     4   4   0     4   4   0     0   0   4     0   0   0     0   0   2     0   0   0     0   0   2     2   0   0     0   0   0     0   0   0     2   0   0     0   2   2     0   0   0     0   0   0     0   0   0     0   0   0     0   0   0     0   0   0     0   0   0     0   0   0     0   0   0     0   0   0     0   0   2     0   2   2     0   0   0     0   0   0     0   0   0     0   0   0     0   0   0     2   0   0     0   0   0     2   0   0     0   0   0     0   0   0     0   0   4     2   0   0     0   0   0     0   0   0     0   0   0     0   0   0     0   0   0     0   0   0     0   0   0     0   0   0     0   0   0     0   0   0     0   2   0     0   2   0     0   0   2     0   0   0     0   0   0     0   0   0     0   0   0     0   0   0     0   0   0     0   0   0     0   0   0     0   0   0     0   0   2     0   0   0     0   0   0     0   0   2     2   2   0     0   0   0     2   0   0     2   0   0     0   0   0     0   0   0     0   0   0     0   0   0     0   0   0     0   0   0     0   0   0     0   0   0     0   0   0     2   0   0     0   0   0     0   0   4     0   0   0     0   4   0     0   4   0     0   4   0     0   0   0     2   0   0     0   2   0     0   0   0     0   0   0     0   0   0     0   0   0     0   0   0     0   0   0     0   0   0     0   0   0     0   0   0     0   0   0     0   0   0     0   0   0     0   0   0     0   0   0     0   0   0     0   0   0     0   0   0     0   0   0     0   0   0     0   0   0     0   0   0     0   0   0     0   0   0     0   0   0     0   0   0     0   0   0     0   0   0     0   0   0     0   0   0     0   0   0     0   0   0     0   0   0     0   0   0     2   2   2     4   4   0     0   0   0     0   0   0     8   8   8     0   0   0     0   0   0     0   0   0     0   0   0     0   0   0     0   0   0     0   0   0
  0   0   0     0   0   0     0   0   0     0   0   0     0   0   0     0   0   0     0   0   0     0   0   0     0   0   0     0   0   0     0   0   0     8   0   0     0   0   0     0   0   8     0   0   0     0   0   8     0   0   8     0   0   0     0   0   8     0   0   8     0   8   0     8   8   0     8   8   0     8   8   0     0   0   0     0   0   0     0   0   0     0   0   0     0   0   0     0   0   0     0   0   0     0   0   0     0   0   0     0   0   0     0   0   0     0   0   0     0   0   0     0   0   0     0   0   0     0   0   0     0   0   0     0   0   0     0   0   0     0   0   0     0   0   0     0   0   0     0   0   0     0   0   0     0   0   0     0   0   0     0   0   0     0   0   0     0   0   0     0   0   0     0   0   0     0   0   0     0   0   0     0   0   0     0   0   0     0   0   0     0   0   0     0   0   0     4   4   4     4   4   4     4   4   4     0   0   0     0   0   0     0   0   0     4   4   4     4   4   4     4   4   4     6   6   4     2   2   2     0   0   0     0   0   0     0   0   0     0   0   0     0   2   2     0   0   0     0   0   0     2   2   2     0   2   2     0   0   0     0   0   0     0   0   0     0   0   0     0   0   0     0   0   0     0   0   0     0   0   0     0   0   0     0   0   0     0   0   2     0   2   0     0   0   0     0   0   0     0   0   0     0   0   0     0   0   0     2   0   0     0   0   0     0   0   0     0   0   0     0   0   0     0   0   0     0   0   4     2   0   0     2   0   0     0   0   0     0   0   0     0   0   0     0   2   0     0   0   2     0   0   0     0   0   0     0   0   0     0   0   2     0   2   0     0   2   2     0   0   0     0   0   0     0   0   0     0   0   0     0   0   0     0   0   0     0   0   0     0   2   0     0   2   0     0   0   2     0   0   0     0   0   0     0   0   0     2   2   0     0   0   0     0   0   0     0   0   0     0   0   0     0   0   0     0   0   0     0   0   0     2   0   0     0   0   0     2   0   0     0   0   0     2   0   0     0   0   0     0   0   0     0   0   0     0   4   0     0   4   0     0   0   4     0   0   0     2   0   0     0   0   0     0   0   2     0   0   0     0   0   0     0   0   0     0   0   0     0   0   0     0   0   0     0   0   0     0   0   0     0   0   0     0   0   0     0   0   0     0   0   0     0   0   0     0   0   0     0   0   0     0   0   0     0   0   0     0   0   0     0   0   0     0   0   0     0   0   0     0   0   0     0   0   0     0   0   0     0   0   0     0   0   0     0   0   0     0   0   0     0   0   0     0   0   0     0   0   0     0   0   0     0   0   0     0   0   0     0   0   0     0   0   0     4   4   0     0   0   0     0   0   0     0   0   0     0   0   0     0   0   0     0   0   0     0   0   0     0   0   0
  0   0   0     0   0   0     0   0   0     0   0   0     0   0   0     0   0   0     0   0   0     0   0   0     0   0   0     0   0   0     0   0   0     0   0   0     8   0   0     0   0   0     0   0   0     0   0   0     0   0   0     0   0   0     0   0   0     0   0   0     0   0   0     0   0   0     0   0   0     0   0   0     0   0   0     0   0   0     0   0   0     0   0   0     0   0   0     0   0   0     0   0   0     0   0   0     0   0   0     0   0   0     0   0   0     0   0   0     0   0   0     0   0   0     0   0   0     0   0   0     0   0   0     0   0   0     0   0   0     0   0   0     0   0   0     0   0   0     0   0   0     0   0   0     0   0   0     0   0   0     0   0   0     0   0   0     0   0   0     0   0   0     0   0   0     0   0   0     0   0   0     0   0   0     0   0   0     4   4   4     2   2   2     2   2   2     2   2   2     2   2   2     2   2   2     2   2   2     2   2   2     2   2   2     2   2   2     0   0   2     0   0   0     0   0   0     0   0   0     0   0   0     0   0   0     0   0   0     0   0   0     0   0   0     0   0   0     0   0   0     2   2   0     0   2   0     0   0   0     0   0   0     0   0   0     0   0   0     0   0   0     0   0   0     0   0   0     0   0   0     0   0   0     0   0   0     0   0   0     0   0   0     0   0   0     0   0   0     0   0   0     0   2   0     0   2   0     2   0   0     0   0   0     0   0   0     0   0   0     0   0   4     0   0   0     0   0   4     0   0   0     0   0   0     2   0   0     2   0   0     0   0   0     0   0   0     0   0   0     0   0   0     0   0   0     0   0   0     0   0   0     0   0   0     0   0   2     0   0   0     0   0   0     0   0   0     0   0   0     0   0   0     0   0   0     0   2   0     2   0   0     0   0   0     0   0   2     0   0   0     0   0   0     0   0   2     0   0   0     0   0   0     0   0   0     0   0   0     0   0   0     0   0   0     0   0   0     0   0   0     0   0   0     0   0   0     0   0   0     0   0   0     0   0   0     0   0   0     0   0   0     0   0   0     0   0   4     0   0   0     0   0   0     2   0   0     0   0   0     0   0   0     0   0   2     0   0   0     0   0   0     0   0   0     0   0   0     0   0   0     0   0   0     0   0   0     0   0   0     0   0   0     0   0   0     0   0   0     0   0   0     0   0   0     0   0   0     0   0   0     0   0   0     0   0   0     0   0   0     0   0   0     0   0   0     0   0   0     0   0   0     0   0   0     0   0   0     0   0   0     0   0   0     0   0   0     0   0   0     0   0   0     0   0   0     0   0   0     0   0   0     0   0   0     0   0   0     0   0   0     0   0   0     0   0   0     0   0   0     0   0   0     0   0   0     0   0   0     0   0   0     0   0   0     0   0   0     0   0   0
  0   0   0     0   0   0     0   0   0     0   0   0     0   0   0     0   0   0     0   0   0     0   0   0     0   0   0     0   0   0     0   0   0     8   0   0     8   8   0     0   0   0     0   0   0     0   0   0     0   0   0     8   0   0     8   0   0     0   0   0     0   0   0     0   0   0     0   0   0     0   0   0     0   0   0     0   0   0     0   0   0     0   0   0     0   0   0     0   0   0     0   0   0     0   0   0     0   0   0     0   0   0     0   0   0     0   0   0     0   0   0     0   0   0     0   0   0     0   0   0     0   0   0     0   0   0     0   0   0     0   0   0     0   0   0     0   0   0     0   0   0     0   0   0     0   0   0     0   0   0     0   0   0     0   0   0     0   0   0     0   0   0     0   0   0     0   0   0     4   4   0     2   2   2     0   0   0     0   0   0     0   0   0     0   0   0     0   0   0     0   0   0     0   0   0     0   0   0     0   0   0     0   0   0     0   0   0     0   0   0     0   0   0     0   0   0     0   0   0     0   0   0     0   0   0     0   0   0     0   0   0     0   0   0     0   0   0     0   0   0     2   2   0     0   2   0     0   0   0     0   0   0     0   0   0     0   0   0     0   0   0     0   0   0     0   0   0     0   0   0     0   0   0     0   0   2     0   0   0     0   0   0     0   0   0     0   2   0     0   0   2     0   0   2     0   0   2     2   2   0     0   0   0     0   0   0     0   0   0     0   0   4     0   0   0     0   0   4     0   0   0     0   0   0     0   0   0     0   0   0     0   0   0     0   2   0     0   0   0     0   0   0     0   0   0     0   0   0     0   0   0     0   2   0     0   0   2     0   0   0     0   0   0     0   0   0     0   0   0     0   0   0     0   0   2     0   2   0     2   0   0     0   2   0     0   0   2     0   0   2     0   0   0     2   2   0     0   0   0     0   0   0     0   0   0     0   0   0     0   0   0     0   0   0     0   0   0     0   0   0     0   0   0     0   0   0     0   0   0     0   0   0     0   0   0     0   0   4     0   0   0     0   0   0     0   0   0     0   0   0     0   0   0     0   2   0     0   2   0     0   0   0     0   0   0     0   0   0     0   0   0     0   0   0     0   0   0     0   0   0     0   0   0     0   0   0     0   0   0     0   0   0     0   0   0     0   0   0     0   0   0     0   0   0     0   0   0     0   0   0     0   0   0     0   0   0     0   0   0     0   0   0     0   0   0     0   0   0     0   0   0     0   0   0     0   0   0     0   0   0     0   0   0     0   0   0     0   0   0     0   0   0     0   0   0     0   0   0     0   0   0     0   0   0     0   0   0     0   0   0     0   0   0     0   0   0     0   0   0     0   0   0     0   0   0     0   0   0     0   0   0     0   0   0     0   0   0     0   0   0
  0   0   0     0   0   0     0   0   0     0   0   0     0   0   0     0   0   0     0   0   0     0   0   0     0   0   0     0   0   0     0   0   0     8   0   0     8   8   0     0   8   0     0   0   0     0   0   0     8   0   0     0   0   0     0   0   0     0   0   0     0   0   0     0   0   0     0   0   0     0   0   0     0   0   0     0   0   0     0   0   0     0   0   0     0   0   0     0   0   0     0   0   0     0   0   0     0   0   0     0   0   0     0   0   0     0   0   0     0   0   0     0   0   0     0   0   0     0   0   0     0   0   0     0   0   0     0   0   0     0   0   0     0   0   0     0   0   0     0   0   0     0   0   0     0   0   0     0   0   0     0   0   0     0   0   0     0   0   0     0   0   0     0   0   4     0   0   0     0   0   0     0   0   0     0   0   0     0   0   0     0   0   0     0   0   0     0   0   0     0   0   0     0   0   0     0   0   0     0   0   0     0   0   0     0   0   0     0   0   0     0   0   0     0   0   0     0   0   0     0   0   0     0   0   0     0   0   0     0   0   0     0   0   0     0   2   2     0   0   0     0   0   0     2   2   0     0   0   2     0   0   0     0   0   0     0   0   0     0   0   0     0   0   0     0   0   0     0   0   0     0   0   0     0   0   0     0   0   0     0   2   2     0   0   2     0   2   0     0   0   0     0   0   2     0   0   2     0   0   0     0   0   0     0   0   0     0   0   0     0   0   0     0   0   4     0   0   0     0   0   0     0   0   0     0   0   0     2   0   0     0   0   0     0   0   0     0   0   2     0   0   0     0   0   0     0   0   0     0   0   0     0   0   0     0   0   0     0   0   0     0   0   0     0   0   0     0   0   0     0   0   0     0   0   2     0   0   0     0   0   0     0   0   0     0   0   2     0   0   2     2   2   0     0   0   0     0   0   0     0   0   0     0   0   0     0   0   0     0   0   0     0   0   0     0   0   0     0   0   0     0   0   0     0   0   0     0   0   0     0   0   0     0   0   0     0   0   0     0   0   0     0   0   0     0   0   0     0   0   0     0   0   0     0   0   0     0   0   0     0   0   2     0   0   0     0   0   0     0   0   0     0   0   0     0   0   0     0   0   0     0   0   0     0   0   0     0   0   0     0   0   0     0   0   0     0   0   0     0   0   0     0   0   0     0   0   0     0   0   0     0   0   0     0   0   0     0   0   0     0   0   0     0   0   0     0   0   0     0   0   0     0   0   0     0   0   0     0   0   0     0   0   0     0   0   0     0   0   0     0   0   0     0   0   0     0   0   0     0   0   0     0   0   0     0   0   0     0   0   0     0   0   0     0   0   0     0   0   0     0   0   0     0   0   0     0   0   0     2   2   2     4   4   4     0   0   0     0   0   0
  0   0   0     0   0   0     0   0   0     0   0   0     0   0   0     0   0   0     0   0   0     0   0   0     0   0   0     0   0   0     8   0   0     0   0   0     0   0   0     0   0   0     0   0   0     0   0   0     0   0   0     0   0   0     0   0   0     0   0   0     0   0   0     0   0   0     0   0   0     0   0   0     0   0   0     0   0   0     0   0   0     0   0   0     0   0   0     0   0   0     0   0   0     0   0   0     0   0   0     0   0   0     0   0   0     0   0   0     0   0   0     0   0   0     0   0   0     0   0   0     0   0   0     0   0   0     0   0   0     0   0   0     0   0   0     0   0   0     0   0   0     0   0   0     0   0   0     0   0   0     0   0   0     0   0   0     0   0   0     0   0   0     0   0   0     0   0   0     0   0   0     0   0   0     0   0   0     0   0   0     0   0   0     0   0   0     0   0   0     0   0   0     0   0   0     0   0   0     0   0   0     0   0   0     0   0   0     0   0   0     0   0   0     0   0   0     0   0   0     0   0   0     0   0   0     0   0   0     0   0   0     0   0   0     2   2   2     0   0   0     0   0   0     2   2   0     0   0   0     0   0   0     0   0   0     0   0   0     0   0   0     0   0   0     0   0   0     0   0   0     0   0   0     0   0   0     0   0   0     0   0   0     0   0   0     0   0   0     0   0   0     0   0   0     0   0   2     0   0   0     0   0   0     0   0   0     0   0   0     0   0   0     0   0   4     0   0   0     0   0   0     0   0   0     0   0   0     0   0   0     0   0   0     0   0   0     0   0   0     0   0   0     0   0   0     0   0   0     0   0   0     0   0   0     0   0   0     0   0   0     0   0   0     0   0   0     0   0   0     0   0   0     0   0   0     0   0   0     0   0   0     0   0   0     0   0   0     0   2   0     0   0   0     0   0   0     0   0   0     0   0   0     0   0   0     0   0   0     0   0   0     0   0   0     0   0   0     0   0   0     0   0   0     0   0   4     0   0   0     0   0   0     0   0   0     0   0   0     0   0   0     0   0   0     0   0   0     0   0   0     0   0   0     0   0   0     0   0   0     0   0   0     0   0   0     0   0   0     0   0   0     0   0   0     0   0   0     0   0   0     0   0   0     0   0   0     0   0   0     0   0   0     0   0   0     0   0   0     0   0   0     0   0   0     0   0   0     0   0   0     0   0   0     0   0   0     0   0   0     0   0   0     0   0   0     0   0   0     0   0   0     0   0   0     0   0   0     0   0   0     0   0   0     0   0   0     0   0   0     0   0   0     0   0   0     0   0   0     0   0   0     0   0   0     0   0   0     0   0   0     0   0   0     0   0   0     0   0   0     0   0   0     0   0   0     0   0   0     0   0   0     0   0   0     0   0   0     4   4   4
  0   0   0     0   0   0     0   0   0     0   0   0     0   0   0     0   0   0     0   0   0     0   0   0     0   0   0     0   0   0     0   0   0     0   0   0     0   0   0     0   0   0     8   0   0     0   0   0     0   0   0     0   0   0     0   0   0     0   0   0     0   0   0     8   8   0     0   0   0     0   0   0     0   0   0     0   0   0     0   0   0     0   0   0     0   0   0     0   0   0     0   0   0     0   0   0     0   0   0     0   0   0     0   0   0     0   0   0     0   0   0     0   0   0     0   0   0     0   0   0     0   0   0     0   0   0     0   0   0     0   0   0     0   0   0     0   0   0     0   0   0     0   0   0     0   0   0     0   0   0     4   4   4     0   0   2     0   0   0     0   0   0     0   0   0     0   0   0     0   0   0     0   0   0     0   0   0     0   0   0     0   0   0     0   0   0     0   0   0     0   0   0     0   0   0     0   0   0     0   0   0     0   0   0     0   0   0     0   0   0     0   0   0     0   0   0     0   0   0     0   0   0     0   0   0     0   0   0     0   0   0     0   0   2     0   0   0     2   0   0     0   0   0     0   0   0     0   0   2     0   0   0     0   0   0     0   0   0     0   0   0     0   0   0     0   0   0     0   0   0     0   0   0     0   0   0     0   0   0     0   0   0     0   0   0     0   0   0     0   0   0     0   0   0     0   0   0     2   2   0     2   0   0     0   0   0     0   0   0     0   0   0     0   0   0     0   0   0     0   0   0     0   0   0     0   0   0     0   0   0     0   0   0     0   0   2     0   0   0     0   0   0     0   0   0     0   0   0     0   0   0     0   0   0     0   0   0     0   0   0     0   0   0     0   0   0     0   0   0     0   0   2     0   0   2     0   0   0     0   0   0     0   0   0     2   2   0     0   0   0     0   0   0     0   0   0     0   0   0     0   0   0     0   0   0     0   0   0     0   0   0     0   0   0     0   0   0     0   0   4     0   0   0     0   0   0     0   0   4     0   0   0     0   0   0     0   0   0     0   0   0     0   0   0     0   0   0     2   0   0     0   2   0     0   0   0     0   0   0     0   0   0     0   0   0     0   0   0     0   0   0     0   0   0     0   0   0     0   0   0     0   0   0     0   0   0     0   0   0     0   0   0     0   0   0     0   0   0     0   0   0     0   0   0     0   0   0     0   0   0     0   0   0     0   0   0     0   0   0     0   0   0     0   0   0     0   0   0     0   0   0     0   0   0     0   0   0     0   0   0     0   0   0     0   0   0     0   0   0     0   0   0     0   0   0     0   0   0     0   0   0     0   0   0     0   0   0     0   0   0     0   0   0     0   0   0     0   0   0     0   0   0     0   0   0     0   0   0     0   0   0     0   0   0     0   0   0     2   2   2
  6   6   6     0   0   0     0   0   0     0   0   0     0   0   0     0   0   0     0   0   0     0   0   0     0   0   0     0   0   0     0   0   0     0   0   0     0   0   0     0   0   0     0   0   0     0   0   0     0   0   0     0   0   0     0   0   0     0   0   0     0   0   0     8   8   0     0   0   0     0   0   0     0   0   0     0   0   0     0   0   0     0   0   0     0   0   0     0   0   0     0   0   0     0   0   0     0   0   0     0   0   0     0   0   0     0   0   0     0   0   0     0   0   0     0   0   0     0   0   0     0   0   0     0   0   0     0   0   0     0   0   0     0   0   0     0   0   0     0   0   0     0   0   0     0   0   0     6   6   4     0   0   0     0   0   0     0   0   0     0   0   0     0   0   0     0   0   0     0   0   0     0   0   0     0   0   0     0   0   0     0   0   0     0   0   0     0   0   0     0   0   0     0   0   0     0   0   0     0   0   0     0   0   0     0   0   0     0   0   0     0   0   0     0   0   0     2   2   2     0   0   0     0   2   0     0   0   0     0   0   2     0   0   0     0   0   0     0   0   0     0   0   0     0   0   0     0   0   2     0   0   0     0   0   0     0   0   0     0   0   0     0   0   0     0   0   0     0   0   0     0   0   0     0   0   0     0   0   0     0   0   0     0   0   0     0   0   0     0   0   0     0   0   0     0   0   0     0   0   0     0   2   0     0   0   0     0   0   0     0   0   0     0   0   0     0   0   0     0   0   0     2   0   0     2   0   0     0   2   0     0   0   0     0   0   0     0   0   0     0   0   0     0   0   0     0   0   0     0   0   0     0   0   0     0   0   0     0   0   0     0   0   0     0   0   0     0   0   0     0   0   0     0   0   2     0   0   0     0   2   0     2   0   0     0   0   0     0   0   0     0   0   0     0   0   0     0   0   0     0   0   0     0   0   0     0   0   0     0   0   0     0   0   0     0   0   4     0   0   0     0   0   0     0   0   0     0   0   0     0   0   0     0   0   0     0   0   0     0   0   0     0   0   0     0   0   0     0   0   0     0   0   0     0   0   2     0   0   0     0   0   0     0   0   0     0   0   0     0   0   0     0   0   0     0   0   0     0   0   0     0   0   0     0   0   0     0   0   0     0   0   0     0   0   0     0   0   0     0   0   0     0   0   0     0   0   0     0   0   0     0   0   0     0   0   0     0   0   0     0   0   0     0   0   0     0   0   0     0   0   0     0   0   0     0   0   0     0   0   0     0   0   0     0   0   0     0   0   0     0   0   0     0   0   0     0   0   0     0   0   0     0   0   0     0   0   0     0   0   0     0   0   0     0   0   0     0   0   0     0   0   0     0   0   0     0   0   0     0   0   0     0   0   0     0   0   0     0   0   0
  6   6   6     0   0   0     0   0   0     0   0   0     0   0   0     0   0   0     0   0   0     0   0   0     0   0   0     0   0   0     0   0   0     0   0   0     0   0   0     8   0   0     0   0   0     0   0   0     0   0   0     8   0   0     0   0   0     0   0   0     0   0   0     0   0   0     0   0   0     0   0   0     0   0   0     0   0   0     0   0   0     0   0   0     0   0   0     0   0   0     0   0   0     0   0   0     0   0   0     0   0   0     0   0   0     0   0   0     0   0   0     0   0   0     0   0   0     0   0   0     0   0   0     0   0   0     0   0   0     0   0   0     0   0   0     0   0   0     0   0   0     0   0   0     2   2   2     0   0   0     0   0   0     0   0   0     0   0   0     0   0   0     0   0   0     0   0   0     0   0   0     0   0   0     0   0   0     0   0   0     0   0   0     0   0   0     0   0   0     0   0   0     0   0   0     0   0   0     0   0   0     0   0   0     0   0   0     0   0   0     0   0   0     0   0   0     2   0   0     0   0   0     0   0   0     0   0   0     0   0   0     0   0   0     0   0   0     0   0   0     0   0   0     0   0   0     0   2   0     0   0   0     0   0   0     0   0   0     0   0   0     0   0   0     0   0   0     0   0   0     0   0   0     0   0   0     0   0   0     0   0   0     0   0   0     0   0   0     0   0   0     0   0   0     0   0   2     0   0   0     0   0   0     0   0   0     2   0   0     2   0   0     2   0   0     0   0   0     2   0   0     0   2   0     0   2   0     0   0   2     0   0   0     0   0   0     0   0   0     0   0   0     0   0   0     0   0   0     0   0   0     0   0   0     0   0   0     0   0   0     0   0   0     0   0   0     0   0   0     0   0   0     0   2   2     0   0   0     0   0   0     0   0   0     0   0   0     0   0   0     0   0   0     0   0   0     0   0   0     0   0   0     0   0   0     0   0   0     0   0   4     0   0   4     0   0   4     0   0   0     0   0   0     0   0   0     0   0   0     0   0   0     0   0   0     0   0   0     0   0   0     0   0   0     0   0   0     2   0   0     0   2   0     0   0   2     0   0   0     0   0   0     0   0   0     0   0   0     0   0   0     0   0   0     0   0   0     0   0   0     0   0   0     0   0   0     0   0   0     0   0   0     0   0   0     0   0   0     0   0   0     0   0   0     0   0   0     0   0   0     0   0   0     0   0   0     0   0   0     0   0   0     0   0   0     0   0   0     0   0   0     0   0   0     0   0   0     0   0   0     0   0   0     0   0   0     0   0   0     0   0   0     0   0   0     0   0   0     0   0   0     0   0   0     0   0   0     0   0   0     0   0   0     0   0   0     0   0   0     0   0   0     0   0   0     0   0   0     0   0   0     0   0   0     0   0   0     0   0   0
  6   6   6     0   0   0     0   0   0     0   0   0     0   0   0     0   0   0     0   0   0     0   0   0     0   0   0     0   0   0     0   0   0     0   0   0     8   0   0     8   0   0     0   0   0     0   0   0     8   0   0     8   0   0     0   0   0     0   0   0     0   0   0     0   0   0     0   0   0     0   0   0     0   0   0     0   0   0     0   0   0     0   0   0     0   0   0     0   0   0     0   0   0     0   0   0     0   0   0     0   0   0     0   0   0     0   0   0     0   0   0     0   0   0     0   0   0     0   0   0     0   0   0     0   0   0     0   0   0     0   0   0     0   0   0     0   0   0     4   4   4     2   2   2     0   0   0     0   0   0     0   0   0     0   0   0     0   0   0     0   0   0     0   0   0     0   0   0     0   0   0     0   0   0     0   0   0     0   0   0     0   0   0     0   0   0     0   0   0     0   0   0     0   0   0     0   0   0     0   0   0     0   0   0     0   0   0     0   0   0     0   0   0     0   2   2     2   2   2     0   2   2     0   2   2     0   0   0     0   0   0     0   0   0     0   0   0     0   0   0     0   0   0     0   0   0     0   0   0     0   0   2     0   0   0     0   0   0     0   0   0     0   0   0     0   0   0     0   0   0     0   0   0     0   0   0     0   0   0     0   0   0     0   0   0     0   0   0     0   0   0     0   0   0     0   0   0     0   0   0     0   0   0     0   0   2     0   0   0     2   0   0     0   0   0     0   0   0     0   2   0     0   0   2     0   0   0     0   0   0     0   0   0     0   0   0     0   0   0     0   0   0     0   0   0     0   0   0     0   0   0     0   0   0     0   0   0     0   0   0     0   0   0     0   0   0     0   0   0     2   2   2     0   0   0     0   0   0     0   0   0     0   0   0     0   0   0     0   0   0     0   0   0     0   0   0     0   0   0     0   4   4     0   4   0     0   4   0     0   0   0     0   0   0     0   0   0     0   0   0     0   0   0     0   0   0     0   0   0     0   0   0     0   0   0     0   0   0     0   0   0     0   0   0     0   0   0     0   0   0     0   0   0     0   0   0     0   0   0     0   0   0     0   0   0     0   0   0     0   0   0     0   0   0     0   0   0     0   0   0     0   0   0     0   0   0     0   0   0     0   0   0     0   0   0     0   0   0     0   0   0     0   0   0     0   0   0     0   0   0     0   0   0     0   0   0     0   0   0     0   0   0     0   0   0     0   0   0     0   0   0     0   0   0     0   0   0     0   0   0     0   0   0     0   0   0     0   0   0     0   0   0     0   0   0     0   0   0     0   0   0     0   0   0     0   0   0     0   0   0     0   0   0     0   0   0     0   0   0     0   0   0     0   0   0     0   0   0     0   0   0     0   0   0     0   0   0     0   0   0
  6   6   6     0   0   0     0   0   0     0   0   0     0   0   0     0   0   0     0   0   0     0   0   0     8   0   0     0   0   0     8   0   0     8   0   0     0   0   0     8   0   0     0   0   0     0   0   0     0   0   0     0   0   0     0   0   0     0   0   0     0   0   0     0   0   0     0   0   0     0   0   0     0   0   0     0   0   0     0   0   0     0   0   0     0   0   0     0   0   0     0   0   0     0   0   0     0   0   0     0   0   0     0   0   0     0   0   0     0   0   0     0   0   0     0   0   0     0   0   0     0   0   0     0   0   0     0   0   0     0   0   0     0   0   0     0   0   0     0   0   0     0   0   0     0   0   0     0   0   0     0   0   0     0   0   0     0   0   0     0   0   0     0   0   0     0   0   0     0   0   0     0   0   0     0   0   0     0   0   0     0   0   0     0   0   0     0   0   0     0   0   0     0   0   0     0   0   0     0   0   0     0   0   0     0   0   0     0   0   0     0   0   0     0   0   2     0   0   2     0   0   0     0   0   0     0   0   0     0   0   0     0   0   0     0   0   0     0   2   0     0   0   0     0   0   0     0   0   0     0   0   0     0   0   0     0   0   0     0   0   0     0   0   0     0   0   0     0   0   0     0   0   0     0   0   0     0   0   0     0   0   0     0   0   0     0   0   0     0   0   0     0   0   0     0   0   0     0   0   0     0   0   0     0   0   0     0   0   0     0   2   0     0   0   2     0   2   2     0   0   0     0   0   0     0   0   0     0   0   0     0   0   0     0   0   0     0   0   0     0   0   0     0   0   0     0   0   0     0   0   0     0   0   0     0   0   0     0   0   0     0   0   0     0   0   0     2   0   0     0   0   0     0   0   0     0   0   0     0   0   0     0   0   0     0   0   0     0   0   0     0   0   0     0   4   0     0   0   0     0   0   0     0   0   0     0   0   4     0   0   0     0   0   0     0   0   0     0   0   0     0   0   0     0   0   0     0   0   0     0   0   0     0   0   0     0   0   0     0   0   0     0   0   0     0   0   0     0   2   0     0   0   2     0   0   0     0   0   0     0   0   0     0   0   0     0   0   0     0   0   0     0   0   0     0   0   0     0   0   0     0   0   0     0   0   0     0   0   0     0   0   0     0   0   0     0   0   0     0   0   0     0   0   0     0   0   0     0   0   0     0   0   0     0   0   0     0   0   0     0   0   0     0   0   0     0   0   0     0   0   0     0   0   0     0   0   0     0   0   0     0   0   0     0   0   0     0   0   0     0   0   0     0   0   0     0   0   0     0   0   0     0   0   0     0   0   0     0   0   0     0   0   0     0   0   0     0   0   0     0   0   0     0   0   0     0   0   0     0   0   0     0   0   0     0   0   0     0   0   0
  6   6   6     0   0   0     0   0   0     0   0   0     0   0   0     0   0   0     0   0   0     0   0   0     0   0   0     0   0   0     0   0   0     0   0   0     0   0   0     0   0   0     0   0   0     0   0   0     0   0   0     0   0   0     0   0   0     0   0   0     0   0   0     0   0   0     0   0   0     0   0   0     0   0   0     0   0   0     0   0   0     0   0   0     0   0   0     0   0   0     0   0   0     0   0   0     0   0   0     0   0   0     0   0   0     0   0   0     0   0   0     0   0   0     0   0   0     0   0   0     0   0   0     0   0   0     0   0   0     0   0   0     2   2   2     0   0   0     0   0   0     0   0   0     0   0   0     0   0   0     0   0   0     0   0   0     0   0   0     0   0   0     0   0   0     0   0   0     0   0   0     0   0   0     0   0   0     0   0   0     0   0   0     0   0   0     0   0   0     0   0   0     0   0   0     0   0   0     0   0   0     0   0   0     0   0   0     0   0   0     0   0   0     0   0   0     0   0   0     0   0   0     0   0   2     0   0   0     0   0   0     0   0   0     0   0   0     0   0   0     0   0   0     0   2   0     0   0   0     0   0   0     0   2   2     0   0   0     0   0   0     0   0   0     0   0   0     0   0   0     0   0   0     0   0   0     0   0   0     0   0   0     0   0   0     0   0   0     0   0   0     0   0   0     0   0   0     0   0   0     0   0   0     0   0   0     0   0   0     2   2   2     0   0   2     0   0   0     0   0   0     0   0   0     0   0   0     0   0   0     0   0   0     0   0   0     0   0   0     0   0   0     0   0   0     0   0   0     0   0   0     0   0   0     0   0   0     0   2   2     0   0   0     0   0   0     0   0   4     0   0   4     0   0   0     0   0   0     0   0   0     0   0   4     0   0   0     0   0   4     0   4   0     0   0   0     0   0   0     0   0   4     0   0   0     0   0   0     0   0   0     0   0   0     0   0   0     0   0   0     0   0   0     0   0   0     0   0   0     0   0   0     0   0   0     0   0   0     0   0   0     0   0   0     0   0   0     0   0   2     0   0   0     0   0   0     0   0   0     0   0   0     0   0   0     0   0   0     0   0   0     0   0   0     0   0   0     0   0   0     0   0   0     0   0   0     0   0   0     0   0   0     0   0   0     0   0   0     0   0   0     0   0   0     0   0   0     0   0   0     0   0   0     0   0   0     0   0   0     0   0   0     0   0   0     0   0   0     0   0   0     0   0   0     0   0   0     0   0   0     0   0   0     0   0   0     0   0   0     0   0   0     0   0   0     0   0   0     0   0   0     0   0   0     0   0   0     0   0   0     0   0   0     0   0   0     0   0   0     0   0   0     0   0   0     0   0   0     0   0   0     0   0   0     0   0   0     0   0   0
  6   6   6     0   0   0     0   0   0     0   0   0     0   0   0     0   0   0     0   0   0     0   0   0     0   0   0     0   0   0     0   0   0     0   0   0     8   0   0     8   0   0     0   0   0     0   0   0     0   0   0     0   0   0     0   0   0     0   0   0     0   0   0     0   0   0     0   0   0     0   0   0     0   0   0     0   0   0     0   0   0     0   0   0     0   0   0     0   0   0     0   0   0     0   0   0     0   0   0     0   0   0     0   0   0     0   0   0     0   0   0     0   0   0     0   0   0     0   0   0     0   0   0     0   0   0     4   4   4     0   0   0     0   0   0     0   0   0     0   0   0     0   0   0     0   0   0     0   0   0     0   0   0     0   0   0     0   0   0     0   0   0     0   0   0     0   0   0     0   0   0     0   0   0     0   0   0     0   0   0     0   0   0     0   0   0     0   0   0     0   0   0     0   0   0     0   0   0     0   0   0     0   0   0     0   0   0     0   0   0     0   0   0     0   0   0     0   0   2     0   0   2     0   0   0     0   0   0     0   0   0     0   0   0     0   0   0     0   0   0     0   0   0     0   2   0     0   0   0     0   0   0     0   2   0     0   0   2     0   0   0     0   0   0     0   0   0     0   0   0     0   0   0     0   0   0     0   0   0     0   0   0     0   0   0     0   0   0     0   0   0     0   0   0     0   0   0     0   0   0     0   0   0     0   0   0     0   0   0     0   0   0     0   0   2     0   0   0     0   0   0     0   0   2     0   0   0     0   0   0     0   0   0     0   0   2     0   0   2     0   0   2     0   0   0     0   0   0     2   2   2     2   0   0     0   0   0     0   0   0     0   0   4     0   0   0     0   0   4     0   0   4     0   0   4     0   0   0     0   4   0     0   4   0     0   0   4     0   0   0     0   0   0     0   0   0     0   0   0     0   0   0     0   0   0     0   0   0     0   0   0     0   0   0     0   0   0     0   0   0     0   0   0     0   0   0     0   0   0     0   0   0     0   0   0     0   0   0     0   0   0     0   0   0     0   0   2     0   0   0     0   0   0     0   0   0     0   0   0     0   0   0     0   0   0     0   0   0     0   0   0     0   0   0     0   0   0     0   0   0     0   0   0     0   0   0     0   0   0     0   0   0     0   0   0     0   0   0     0   0   0     0   0   0     0   0   0     0   0   0     0   0   0     0   0   0     0   0   0     0   0   0     0   0   0     0   0   0     0   0   0     0   0   0     0   0   0     0   0   0     0   0   0     0   0   0     0   0   0     0   0   0     0   0   0     0   0   0     0   0   0     0   0   0     0   0   0     0   0   0     0   0   0     0   0   0     0   0   0     0   0   0     0   0   0     0   0   0     0   0   0     0   0   0     0   0   0     0   0   0
  6   6   6     0   0   0     0   0   0     0   0   0     0   0   0     0   0   0     0   0   0     0   0   0     0   0   0     0   0   0     0   0   0     0   0   0     0   0   0     0   0   0     0   0   0     0   0   0     0   0   0     0   0   0     0   0   0     0   0   0     0   0   0     0   0   0     0   0   0     0   0   0     0   0   0     0   0   0     0   0   0     0   0   0     0   0   0     0   0   0     0   0   0     0   0   0     0   0   0     0   0   0     0   0   0     0   0   0     0   0   0     0   0   0     0   0   0     0   0   0     0   0   0     2   2   2     0   0   0     0   0   0     0   0   0     0   0   0     0   0   0     0   0   0     0   0   0     0   0   0     0   0   0     0   0   0     0   0   0     0   0   0     0   0   0     0   0   0     0   0   0     0   0   0     0   0   0     0   0   0     0   0   0     0   0   0     0   0   0     0   0   0     0   0   0     0   0   0     0   0   0     0   0   0     0   0   0     0   0   0     0   0   0     0   0   0     0   0   0     0   0   0     0   0   0     0   0   0     0   0   0     0   0   0     0   0   0     0   0   0     0   0   0     0   0   0     0   0   0     0   0   0     0   0   0     0   2   0     0   0   0     0   0   0     0   0   0     0   0   0     0   0   0     0   0   0     0   0   0     0   0   0     0   0   0     0   0   0     0   0   0     0   0   0     0   0   0     0   0   0     0   0   0     0   0   2     0   0   2     0   0   0     0   0   0     0   0   0     0   0   0     0   0   0     0   0   0     0   0   0     0   0   0     0   0   2     0   0   0     0   2   0     0   0   0     0   0   0     0   0   0     0   0   4     0   0   4     0   0   0     0   4   0     0   0   0     0   0   0     0   0   0     0   0   0     0   0   0     0   0   0     0   0   0     0   0   4     0   0   0     0   0   0     0   0   0     0   0   0     0   0   0     0   0   0     0   0   0     0   0   0     0   0   0     0   0   0     0   0   0     0   0   0     0   0   0     0   0   0     0   0   0     0   0   0     0   0   0     0   0   0     2   2   0     0   0   0     0   0   0     0   0   0     0   0   0     0   0   0     0   0   0     0   0   0     0   0   0     0   0   0     0   0   0     0   0   0     0   0   0     0   0   0     0   0   0     0   0   0     0   0   0     0   0   0     0   0   0     0   0   0     0   0   0     0   0   0     0   0   0     0   0   0     0   0   0     0   0   0     0   0   0     0   0   0     0   0   0     0   0   0     0   0   0     0   0   0     0   0   0     0   0   0     0   0   0     0   0   0     0   0   0     0   0   0     0   0   0     0   0   0     0   0   0     0   0   0     0   0   0     0   0   0     0   0   0     0   0   0     0   0   0     0   0   0     0   0   0     0   0   0     0   0   0     0   0   0     0   0   0
  6   6   6     0   0   0     0   0   0     0   0   0     0   0   0     0   0   0     0   0   0     0   0   0     0   0   0     0   0   0     0   0   0     0   0   0     0   0   0     0   0   0     0   0   0     0   0   0     0   0   0     0   0   0     0   0   0     0   0   0     0   0   0     0   0   0     0   0   0     0   0   0     0   0   0     0   0   0     0   0   0     0   0   0     0   0   0     0   0   0     0   0   0     0   0   0     0   0   0     0   0   0     0   0   0     0   0   0     0   0   0     0   0   0     0   0   0     4   4   4     2   2   2     0   0   0     0   0   0     0   0   0     0   0   0     0   0   0     0   0   0     0   0   0     0   0   0     0   0   0     0   0   0     0   0   0     0   0   0     0   0   0     0   0   0     0   0   0     0   0   0     0   0   0     0   0   0     0   0   0     0   0   0     0   0   0     0   0   0     0   0   0     0   0   0     0   0   0     0   0   0     0   0   0     0   0   0     0   0   0     0   0   0     0   0   0     0   0   0     0   0   0     0   0   0     0   0   0     0   0   0     0   0   0     0   0   0     0   0   0     0   0   0     0   0   0     0   0   0     0   0   0     0   0   0     0   0   0     0   0   0     0   0   0     0   0   0     0   0   0     0   0   2     0   0   0     0   0   0     0   0   0     0   0   0     0   0   0     0   0   0     0   0   0     0   0   0     0   0   0     0   0   0     0   2   2     0   0   0     0   0   0     0   0   2     0   0   0     0   0   2     0   0   0     0   0   0     0   0   0     0   0   2     0   0   0     0   4   4     0   0   4     0   0   0     0   0   0     0   0   0     0   4   0     0   4   0     0   0   0     4   0   0     4   0   8     4   0   0     4   0   8     0   0   0     0   4   0     0   4   0     0   0   0     0   0   0     0   0   0     0   0   0     0   0   0     0   0   0     0   0   0     0   0   0     0   0   0     0   0   0     0   0   0     0   0   0     0   0   0     0   0   0     0   0   0     0   0   0     0   0   0     0   0   0     2   2   0     0   0   0     0   0   0     0   0   0     0   0   0     0   0   0     0   0   0     0   0   0     0   0   0     0   0   0     0   0   0     0   0   0     0   0   0     0   0   0     0   0   0     0   0   0     0   0   0     0   0   0     0   0   0     0   0   0     0   0   0     0   0   0     0   0   0     0   0   0     0   0   0     0   0   0     0   0   0     0   0   0     0   0   0     0   0   0     0   0   0     0   0   0     0   0   0     0   0   0     0   0   0     0   0   0     0   0   0     0   0   0     0   0   0     0   0   0     0   0   0     0   0   0     0   0   0     0   0   0     0   0   0     0   0   0     0   0   0     0   0   0     0   0   0     0   0   0     0   0   0     0   0   0     0   0   0     0   0   0     0   0   0
  6   6   6     0   0   0     0   0   0     0   0   0     0   0   0     0   0   0     0   0   0     0   0   0     0   0   0     0   0   0     0   0   0     0   0   0     0   0   0     0   0   0     0   0   0     0   0   0     0   0   0     0   0   0     0   0   0     0   0   0     0   0   0     0   0   0     0   0   0     0   0   0     0   0   0     0   0   0     0   0   0     0   0   0     0   0   0     0   0   0     0   0   0     0   0   0     0   0   0     0   0   0     0   0   0     0   0   0     0   0   0     0   0   0     4   4   4     2   2   2     0   0   0     0   0   0     0   0   0     0   0   0     0   0   0     0   0   0     0   0   0     0   0   0     0   0   0     0   0   0     0   0   0     0   0   0     0   0   0     0   0   0     0   0   0     0   0   0     0   0   0     0   0   0     0   0   0     0   0   0     0   0   0     0   0   0     0   0   0     0   0   0     0   0   0     0   0   0     0   0   0     0   0   0     0   0   0     0   0   0     0   0   0     0   0   0     0   0   0     0   0   0     0   0   0     0   0   2     0   0   2     0   0   2     0   0   0     0   0   0     0   0   0     0   0   0     0   0   0     0   0   0     0   0   0     0   0   0     0   0   0     0   0   0     0   0   0     0   0   0     0   2   0     0   0   2     0   0   0     0   0   0     0   0   0     0   0   0     0   0   0     0   0   0     0   0   0     0   2   2     0   2   0     0   0   0     0   0   0     0   2   2     0   2   2     0   0   0     0   0   2     0   0   0     0   0   2     0   2   2     2   0   0     0   4   0     0   0   0     4   0   0     0   0   0     4   0   0     4   0   0     0   0   0     0   0   0     0   0   0     0   0   8     0   0   8     0   0   0     4   4   8     0   0   0     0   0   0     0   0   0     0   0   0     0   0   0     0   0   0     0   0   0     0   0   0     0   0   0     0   0   0     0   0   0     0   0   0     0   0   0     0   0   0     0   0   0     0   0   0     0   0   0     0   0   0     0   0   0     2   0   0     0   2   0     0   0   2     0   0   0     0   0   0     0   0   0     0   0   0     0   0   0     0   0   0     0   0   0     0   0   0     0   0   0     0   0   0     0   0   0     0   0   0     0   0   0     0   0   0     0   0   0     0   0   0     0   0   0     0   0   0     0   0   0     0   0   0     0   0   0     0   0   0     0   0   0     0   0   0     0   0   0     0   0   0     0   0   0     0   0   0     0   0   0     0   0   0     0   0   0     0   0   0     0   0   0     0   0   0     0   0   0     0   0   0     0   0   0     0   0   0     0   0   0     0   0   0     0   0   0     0   0   0     0   0   0     0   0   0     0   0   0     0   0   0     0   0   0     0   0   0     0   0   0     0   0   0     0   0   0     0   0   0     0   0   0     0   0   0
  6   6   6     0   0   0     0   0   0     0   0   0     0   0   0     0   0   0     0   0   0     0   0   0     0   0   0     0   0   0     0   0   0     0   0   0     0   0   0     0   0   0     0   0   0     0   0   0     0   0   0     0   0   0     0   0   0     0   0   0     0   0   0     0   0   0     0   0   0     0   0   0     0   0   0     0   0   0     0   0   0     0   0   0     0   0   0     0   0   0     0   0   0     0   0   0     0   0   0     0   0   0     0   0   0     0   0   0     0   0   0     4   4   4     0   0   0     0   0   0     0   0   0     0   0   0     0   0   0     0   0   0     0   0   0     0   0   0     0   0   0     0   0   0     0   0   0     0   0   0     0   0   0     0   0   0     0   0   0     0   0   0     0   0   0     0   0   0     0   0   0     0   0   0     0   0   0     0   0   0     0   0   0     0   0   0     0   0   0     0   0   0     0   0   0     0   0   0     0   0   0     0   0   0     0   0   0     0   0   0     0   0   0     0   0   0     0   0   0     0   0   0     0   0   0     0   0   0     0   0   0     0   0   0     0   0   0     0   0   2     0   0   0     0   0   0     0   2   0     0   2   0     0   0   0     0   0   0     0   0   0     0   0   0     0   0   0     0   0   0     0   0   0     0   2   0     0   2   0     0   0   0     0   0   2     0   0   2     0   0   0     0   0   2     0   2   2     0   0   0     2   0   0     2   0   0     2   0   0     2   0   0     0   0   0     0   2   2     0   2   0     0   0   2     0   0   0     0   0   0     0   4   4     0   0   8     0   0   0     0   0   8     0   0   0     0   0   8     0   0   0     0   0   0     0   0   0     4   0   8     4   0   0     0   0   0     0   0   0     0   0   0     0   0   0     0   0   0     0   0   0     0   0   0     0   0   0     0   0   0     0   0   0     0   0   0     0   0   0     0   0   0     0   0   0     0   0   0     0   0   0     0   0   0     0   0   0     0   0   0     0   0   0     0   0   0     2   0   0     0   0   0     0   0   2     0   0   0     0   0   0     0   0   0     0   0   0     0   0   0     0   0   0     0   0   0     0   0   0     0   0   0     0   0   0     0   0   0     0   0   0     0   0   0     0   0   0     0   0   0     0   0   0     0   0   0     0   0   0     0   0   0     0   0   0     0   0   0     0   0   0     0   0   0     0   0   0     0   0   0     0   0   0     0   0   0     0   0   0     0   0   0     0   0   0     0   0   0     0   0   0     0   0   0     0   0   0     0   0   0     0   0   0     0   0   0     0   0   0     0   0   0     0   0   0     0   0   0     0   0   0     0   0   0     0   0   0     0   0   0     0   0   0     0   0   0     0   0   0     0   0   0     0   0   0     0   0   0     0   0   0     0   0   0     0   0   0     0   0   0
  6   6   6     0   0   0     0   0   0     0   0   0     0   0   0     0   0   0     0   0   0     0   0   0     0   0   0     0   0   0     0   0   0     0   0   0     0   0   0     0   0   0     0   0   0     0   0   0     0   0   0     0   0   0     0   0   0     0   0   0     0   0   0     0   0   0     0   0   0     0   0   0     0   0   0     0   0   0     0   0   0     0   0   0     0   0   0     0   0   0     0   0   0     0   0   0     0   0   0     0   0   0     0   0   0     0   0   0     6   6   6     0   0   0     0   0   0     0   0   0     0   0   0     0   0   0     0   0   0     0   0   0     0   0   0     0   0   0     0   0   0     0   0   0     0   0   0     0   0   0     0   0   0     0   0   0     0   0   0     0   0   0     0   0   0     0   0   0     0   0   0     0   0   0     0   0   0     0   0   0     0   0   0     0   0   0     0   0   0     0   0   0     0   0   0     0   0   0     0   0   0     0   0   0     0   0   0     0   0   0     0   0   0     0   0   0     0   0   0     0   0   0     0   0   0     0   0   0     0   0   0     0   0   0     0   0   0     0   0   2     0   0   0     0   0   0     0   0   0     0   0   0     0   2   0     0   0   0     0   0   0     0   0   0     0   0   0     0   0   0     0   0   0     0   0   0     0   0   0     2   2   0     2   2   0     2   2   0     2   0   0     2   0   0     0   0   0     0   0   0     0   0   0     0   0   0     0   0   0     0   0   0     0   0   4     2   0   0     2   0   0     2   0   0     0   0   0     4   0   0     0   0   8     0   0   0     0   0   0     0   0   0     0   0   0     0   0   0     4   0   0     0   4   0     0   4   4     0   0   4     0   0   4     0   0   0     0   0   0     0   0   0     0   0   0     0   0   0     0   0   0     0   0   0     0   0   0     0   0   0     0   0   0     0   0   0     0   0   0     0   0   0     0   0   0     0   0   0     0   0   0     0   0   0     0   0   0     0   0   0     0   0   0     0   2   0     0   0   0     0   0   0     0   0   0     0   0   0     0   0   0     0   0   0     0   0   0     0   0   0     0   0   0     0   0   0     0   0   0     0   0   0     0   0   0     0   0   0     0   0   0     0   0   0     0   0   0     0   0   0     0   0   0     0   0   0     0   0   0     0   0   0     0   0   0     0   0   0     0   0   0     0   0   0     0   0   0     0   0   0     0   0   0     0   0   0     0   0   0     0   0   0     0   0   0     0   0   0     0   0   0     0   0   0     0   0   0     0   0   0     0   0   0     0   0   0     0   0   0     0   0   0     0   0   0     0   0   0     0   0   0     0   0   0     0   0   0     0   0   0     0   0   0     0   0   0     0   0   0     0   0   0     0   0   0     0   0   0     0   0   0     0   0   0     0   0   0     0   0   0
  6   6   6     0   0   0     0   0   0     0   0   0     0   0   0     0   0   0     0   0   0     0   0   0     0   0   0     0   0   0     0   0   0     0   0   0     0   0   0     0   0   0     0   0   0     0   0   0     0   0   0     0   0   0     0   0   0     0   0   0     0   0   0     0   0   0     0   0   0     0   0   0     0   0   0     0   0   0     0   0   0     0   0   0     0   0   0     0   0   0     0   0   0     0   0   0     0   0   0     0   0   0     0   0   0     6   6   6     0   0   0     0   0   0     0   0   0     0   0   0     0   0   0     0   0   0     0   0   0     0   0   0     0   0   0     0   0   0     0   0   0     0   0   0     0   0   0     0   0   0     0   0   0     0   0   0     0   0   0     0   0   0     0   0   0     0   0   0     0   0   0     0   0   0     0   0   0     0   0   0     0   0   0     0   0   0     0   0   0     0   0   0     0   0   0     0   0   0     0   0   0     0   0   0     0   0   0     0   0   0     0   0   0     0   0   0     0   0   0     0   0   0     0   0   0     0   0   0     0   0   0     0   0   0     0   0   0     0   0   0     0   0   0     0   0   0     0   0   0     0   0   0     0   2   0     0   0   0     0   0   0     0   0   0     0   0   0     0   0   0     0   0   0     0   0   0     0   0   0     0   0   0     0   0   0     0   0   0     0   0   0     0   0   0     0   0   4     0   0   0     0   0   0     0   0   4     0   0   4     0   0   0     0   4   0     4   4   4     4   4  12     0   0   8     0   0   0     0   0   8     0   0   0     0   0   0     0   0   0     4   0   8     0   4   0     0   0   0     0   0   0     0   0   4     0   0   0     0   0   0     0   0   0     0   0   0     0   0   0     0   0   0     0   0   0     0   0   0     0   0   0     0   0   0     0   0   0     0   0   0     0   0   0     0   0   0     0   0   0     0   0   0     0   0   0     0   0   0     0   0   0     0   0   0     0   0   0     2   0   0     0   0   0     0   0   2     0   0   0     0   0   0     0   0   0     0   0   0     0   0   0     0   0   0     0   0   0     0   0   0     0   0   0     0   0   0     0   0   0     0   0   0     0   0   0     0   0   0     0   0   0     0   0   0     0   0   0     0   0   0     0   0   0     0   0   0     0   0   0     0   0   0     0   0   0     0   0   0     0   0   0     0   0   0     0   0   0     0   0   0     0   0   0     0   0   0     0   0   0     0   0   0     0   0   0     0   0   0     0   0   0     0   0   0     0   0   0     0   0   0     0   0   0     0   0   0     0   0   0     0   0   0     0   0   0     0   0   0     0   0   0     0   0   0     0   0   0     0   0   0     0   0   0     0   0   0     0   0   0     0   0   0     0   0   0     0   0   0     0   0   0     0   0   0     0   0   0     0   0   0
  6   6   6     0   0   0     0   0   0     0   0   0     0   0   0     0   0   0     0   0   0     0   0   0     0   0   0     0   0   0     0   0   0     0   0   0     0   0   0     0   0   0     0   0   0     0   0   0     0   0   0     0   0   0     0   0   0     0   0   0     0   0   0     0   0   0     0   0   0     0   0   0     0   0   0     0   0   0     0   0   0     0   0   0     0   0   0     0   0   0     0   0   0     0   0   0     0   0   0     0   0   0     2   2   2     0   0   0     0   0   0     0   0   0     0   0   0     0   0   0     0   0   0     0   0   0     0   0   0     0   0   0     0   0   0     0   0   0     0   0   0     0   0   0     0   0   0     0   0   0     0   0   0     0   0   0     0   0   0     0   0   0     0   0   0     0   0   0     0   0   0     0   0   0     0   0   0     0   0   0     0   0   0     0   0   0     0   0   0     0   0   0     0   0   0     0   0   0     0   0   0     0   0   0     0   0   0     0   0   0     0   0   0     0   0   0     0   0   0     0   0   0     0   0   0     0   0   0     0   0   0     0   0   0     0   0   0     0   0   0     0   0   0     0   2   0     0   0   0     0   0   0     0   0   0     0   0   0     0   0   0     0   0   0     0   0   0     2   0   0     0   0   0     0   0   0     0   0   0     0   0   0     2   0   0     0   0   0     0   0   0     0   0   4     0   4   0     4   0   8     4   0   8     4   0   8     4   0   8     0   0   8     0   0   0     0   8  16     0   0  16     0   8   0     0   8   8     0   0   0     4   0   0     0   4   4     0   0   4     0   0   0     0   0   0     0   0   0     0   0   0     0   0   0     0   0   0     0   0   0     0   0   0     0   0   0     0   0   0     0   0   0     0   0   0     0   0   0     0   0   0     0   0   0     0   0   0     0   0   0     0   0   0     0   0   0     0   0   0     0   0   0     0   0   0     0   0   0     0   0   0     0   0   0     0   0   0     0   2   0     0   0   2     0   0   0     0   0   0     0   0   0     0   0   0     0   0   0     0   0   0     0   0   0     0   0   0     0   0   0     0   0   0     0   0   0     0   0   0     0   0   0     0   0   0     0   0   0     0   0   0     0   0   0     0   0   0     0   0   0     0   0   0     0   0   0     0   0   0     0   0   0     0   0   0     0   0   0     0   0   0     0   0   0     0   0   0     0   0   0     0   0   0     0   0   0     0   0   0     0   0   0     0   0   0     0   0   0     0   0   0     0   0   0     0   0   0     0   0   0     0   0   0     0   0   0     0   0   0     0   0   0     0   0   0     0   0   0     0   0   0     0   0   0     0   0   0     0   0   0     0   0   0     0   0   0     0   0   0     0   0   0     0   0   0     0   0   0     0   0   0     0   0   0     0   0   0     0   0   0
  6   6   6     0   0   0     0   0   0     0   0   0     0   0   0     0   0   0     0   0   0     0   0   0     0   0   0     0   0   0     0   0   0     0   0   0     0   0   0     0   0   0     0   0   0     0   0   0     0   0   0     0   0   0     0   0   0     0   0   0     0   0   0     0   0   0     0   0   0     0   0   0     0   0   0     0   0   0     0   0   0     0   0   0     0   0   0     0   0   0     0   0   0     0   0   0     0   0   0     6   6   6     0   0   0     0   0   0     0   0   0     0   0   0     0   0   0     0   0   0     0   0   0     0   0   0     0   0   0     0   0   0     0   0   0     0   0   0     0   0   0     0   0   0     0   0   0     0   0   0     0   0   0     0   0   0     0   0   0     0   0   0     0   0   0     0   0   0     0   0   0     0   0   0     0   0   0     0   0   0     0   0   0     0   0   0     0   0   0     0   0   0     0   0   0     0   0   0     0   0   0     0   0   0     0   0   0     0   0   0     0   0   0     0   0   0     0   0   0     0   0   0     0   0   0     0   0   0     0   0   0     0   0   0     0   0   0     0   0   0     0   0   0     0   0   0     0   0   0     0   2   0     0   2   0     0   2   0     0   2   0     0   0   0     0   0   0     0   0   0     0   0   0     0   0   0     0   0   0     0   0   0     2   0   0     0   0   0     0   0   4     4   4   0     0   0   8     0   8   0     0   0   0     0   0   0     0   0   0     0   0   0     0   0   0     4   8  24     4   8   8     4   4   0     0   4   4     0   0   0     0   0   4     0   0   0     0   0   0     0   0   0     0   0   0     0   0   0     0   0   0     0   0   0     0   0   0     0   0   0     0   0   0     0   0   0     0   0   0     0   0   0     0   0   0     0   0   0     0   0   0     0   0   0     0   0   0     0   0   0     0   0   0     0   0   0     0   0   0     0   0   0     0   0   0     0   0   0     0   0   0     0   0   0     0   0   2     0   0   0     0   0   0     0   0   0     0   0   0     0   0   0     0   0   0     0   0   0     0   0   0     0   0   0     0   0   0     0   0   0     0   0   0     0   0   0     0   0   0     0   0   0     0   0   0     0   0   0     0   0   0     0   0   0     0   0   0     0   0   0     0   0   0     0   0   0     0   0   0     0   0   0     0   0   0     0   0   0     0   0   0     0   0   0     0   0   0     0   0   0     0   0   0     0   0   0     0   0   0     0   0   0     0   0   0     0   0   0     0   0   0     0   0   0     0   0   0     0   0   0     0   0   0     0   0   0     0   0   0     0   0   0     0   0   0     0   0   0     0   0   0     0   0   0     0   0   0     0   0   0     0   0   0     0   0   0     0   0   0     0   0   0     0   0   0     0   0   0     0   0   0     0   0   0     0   0   0     0   0   0
  6   6   6     0   0   0     0   0   0     0   0   0     0   0   0     0   0   0     0   0   0     0   0   0     0   0   0     0   0   0     0   0   0     0   0   0     0   0   0     0   0   0     0   0   0     0   0   0     0   0   0     0   0   0     0   0   0     0   0   0     0   0   0     0   0   0     0   0   0     0   0   0     0   0   0     0   0   0     0   0   0     0   0   0     0   0   0     0   0   0     0   0   0     0   4   0     2   2   2     0   0   0     0   0   0     0   0   0     0   0   0     0   0   0     0   0   0     0   0   0     0   0   0     0   0   0     0   0   0     0   0   0     0   0   0     0   0   0     0   0   0     0   0   0     0   0   0     0   0   0     0   0   0     0   0   0     0   0   0     0   0   0     0   0   0     0   0   0     0   0   0     0   0   0     0   0   0     0   0   0     0   0   0     0   0   0     0   0   0     0   0   0     0   0   0     0   0   0     0   0   0     0   0   0     0   0   0     0   0   0     0   0   0     0   0   0     0   0   0     0   0   0     0   0   0     0   0   0     0   0   0     0   0   0     0   0   0     0   0   0     0   0   0     0   0   0     0   0   0     0   0   0     0   0   0     0   0   0     0   0   0     0   0   0     0   0   0     0   0   0     0   0   0     2   0   0     0   0   0     0   0   0     0   0   0     0   0   4     0   0   0     0   4   0     0   0   8     0   0   0     0   0   0     0   0   0     0   0   8     0   4   0     0   4   4     0   0   4     0   0   0     0   0   0     0   0   0     0   0   0     0   0   0     0   0   0     0   0   0     0   0   0     0   0   0     0   0   0     0   0   0     0   0   0     0   0   0     0   0   0     0   0   0     0   0   0     0   0   0     0   0   0     0   0   0     0   0   0     0   0   0     0   0   0     0   0   0     0   0   0     0   0   0     0   0   0     0   0   0     0   0   0     0   0   0     2   2   0     0   0   2     0   0   0     0   0   0     0   0   0     0   0   0     0   0   0     0   0   0     0   0   0     0   0   0     0   0   0     0   0   0     0   0   0     0   0   0     0   0   0     0   0   0     0   0   0     0   0   0     0   0   0     0   0   0     0   0   0     0   0   0     0   0   0     0   0   0     0   0   0     0   0   0     0   0   0     0   0   0     0   0   0     0   0   0     0   0   0     0   0   0     0   0   0     0   0   0     0   0   0     0   0   0     0   0   0     0   0   0     0   0   0     0   0   0     0   0   0     0   0   0     0   0   0     0   0   0     0   0   0     0   0   0     0   0   0     0   0   0     0   0   0     0   0   0     0   0   0     0   0   0     0   0   0     0   0   0     0   0   0     0   0   0     0   0   0     0   0   0     0   0   0     0   0   0     0   0   0     0   0   0     0   0   0     0   0   0     0   0   0
  6   6   6     0   0   0     0   0   0     0   0   0     0   0   0     0   0   0     0   0   0     0   0   0     0   0   0     0   0   0     0   0   0     0   0   0     0   0   0     0   0   0     0   0   0     0   0   0     0   0   0     0   0   0     0   0   0     0   0   0     0   0   0     0   0   0     0   0   0     0   0   0     0   0   0     0   0   0     0   0   0     0   0   0     0   0   0     0   0   0     4   4   4     2   2   2     0   0   0     0   0   0     0   0   0     0   0   0     0   0   0     0   0   0     0   0   0     0   0   0     0   0   0     0   0   0     0   0   0     0   0   0     0   0   0     0   0   0     0   0   0     0   0   0     0   0   0     0   0   0     0   0   0     0   0   0     0   0   0     0   0   0     0   0   0     0   0   0     0   0   0     0   0   0     0   0   0     0   0   0     0   0   0     0   0   0     0   0   0     0   0   0     0   0   0     0   0   0     0   0   0     0   0   0     0   0   0     0   0   0     0   0   0     0   0   0     0   0   0     0   0   0     0   0   0     0   0   0     0   0   0     0   0   0     0   0   0     0   0   2     0   0   2     0   0   0     0   0   0     0   0   0     0   0   2     0   0   2     0   0   2     0   0   0     0   0   0     0   2   0     0   0   0     2   0   0     0   0   0     0   0   4     0   0   0     0   0   0     0   4   0     0   4   0     0   0   0     4   4   8     4   4   4     0   0   4     0   0   0     0   0   0     0   0   0     0   0   0     0   0   0     0   0   0     0   0   0     0   0   0     0   0   0     0   0   0     0   0   0     0   0   0     0   0   0     0   0   0     0   0   0     0   0   0     0   0   0     0   0   0     0   0   0     0   0   0     0   0   0     0   0   0     0   0   0     0   0   0     0   0   0     0   0   0     0   0   0     0   0   0     0   0   0     0   0   0     0   0   0     2   2   0     0   0   0     0   0   0     0   0   0     0   0   0     0   0   0     0   0   0     0   0   0     0   0   0     0   0   0     0   0   0     0   0   0     0   0   0     0   0   0     0   0   0     0   0   0     0   0   0     0   0   0     0   0   0     0   0   0     0   0   0     0   0   0     0   0   0     0   0   0     0   0   0     0   0   0     0   0   0     0   0   0     0   0   0     0   0   0     0   0   0     0   0   0     0   0   0     0   0   0     0   0   0     0   0   0     0   0   0     0   0   0     0   0   0     0   0   0     0   0   0     0   0   0     0   0   0     0   0   0     0   0   0     0   0   0     0   0   0     0   0   0     0   0   0     0   0   0     0   0   0     0   0   0     0   0   0     0   0   0     0   0   0     0   0   0     0   0   0     0   0   0     0   0   0     0   0   0     0   0   0     0   0   0     0   0   0     0   0   0     0   0   0     0   0   0     0   0   0
  6   6   6     0   0   0     0   0   0     0   0   0     0   0   0     0   0   0     0   0   0     0   0   0     0   0   0     0   0   0     0   0   0     0   0   0     0   0   0     0   0   0     0   0   0     0   0   0     0   0   0     0   0   0     0   0   0     0   0   0     0   0   0     0   0   0     0   0   0     0   0   0     0   0   0     0   0   0     0   0   0     0   0   0     0   0   0     0   0   0     2   2   2     0   0   0     0   0   0     0   0   0     0   0   0     0   0   0     0   0   0     0   0   0     0   0   0     0   0   0     0   0   0     0   0   0     0   0   0     0   0   0     0   0   0     0   0   0     0   0   0     0   0   0     0   0   0     0   0   0     0   0   0     0   0   0     0   0   0     0   0   0     0   0   0     0   0   0     0   0   0     0   0   0     0   0   0     0   0   0     0   0   0     0   0   0     0   0   0     0   0   0     0   0   0     0   0   0     0   0   0     0   0   0     0   0   0     0   0   0     0   0   0     0   0   0     0   0   0     0   0   0     0   0   0     0   0   0     0   0   0     0   0   0     0   0   0     0   0   0     0   0   0     0   0   0     0   0   0     0   0   0     0   0   0     0   0   0     0   0   0     0   0   2     0   0   2     0   0   0     0   0   0     0   0   0     0   0   0     2   0   0     2   0   0     2   0   4     2   0   4     2   2   4     2   2   0     2   2   0     2   0   0     2   0   0     2   0   0     0   0   0     0   0   0     0   0   0     0   0   0     0   0   0     0   0   0     0   0   0     0   0   0     0   0   0     0   0   0     0   0   0     0   0   0     0   0   0     0   0   0     0   0   0     0   0   0     0   0   0     0   0   0     0   0   0     0   0   0     0   0   0     0   0   0     0   0   0     0   0   0     0   0   0     0   0   0     0   0   0     0   0   0     2   2   0     0   0   0     0   0   0     0   0   0     0   0   0     0   0   0     0   0   0     0   0   0     0   0   0     0   0   0     0   0   0     0   0   0     0   0   0     0   0   0     0   0   0     0   0   0     0   0   0     0   0   0     0   0   0     0   0   0     0   0   0     0   0   0     0   0   0     0   0   0     0   0   0     0   0   0     0   0   0     0   0   0     0   0   0     0   0   0     0   0   0     0   0   0     0   0   0     0   0   0     0   0   0     0   0   0     0   0   0     0   0   0     0   0   0     0   0   0     0   0   0     0   0   0     0   0   0     0   0   0     0   0   0     0   0   0     0   0   0     0   0   0     0   0   0     0   0   0     0   0   0     0   0   0     0   0   0     0   0   0     0   0   0     0   0   0     0   0   0     0   0   0     0   0   0     0   0   0     0   0   0     0   0   0     0   0   0     0   0   0     0   0   0     0   0   0     0   0   0     0   0   0     0   0   0
  6   6   6     0   0   0     0   0   0     0   0   0     0   0   0     0   0   0     0   0   0     0   0   0     0   0   0     0   0   0     0   0   0     0   0   0     0   0   0     0   0   0     0   0   0     0   0   0     0   0   0     0   0   0     0   0   0     0   0   0     0   0   0     0   0   0     0   0   0     0   0   0     0   0   0     0   0   0     0   0   0     0   0   0     0   0   0     2   2   2     0   0   0     0   0   0     0   0   0     0   0   0     0   0   0     0   0   0     0   0   0     0   0   0     0   0   0     0   0   0     0   0   0     0   0   0     0   0   0     0   0   0     0   0   0     0   0   0     0   0   0     0   0   0     0   0   0     0   0   0     0   0   0     0   0   0     0   0   0     0   0   0     0   0   0     0   0   0     0   0   0     0   0   0     0   0   0     0   0   0     0   0   0     0   0   0     0   0   0     0   0   0     0   0   0     0   0   0     0   0   0     0   0   0     0   0   0     0   0   0     0   0   0     0   0   0     0   0   0     0   0   0     0   0   0     0   0   0     0   0   0     0   0   0     0   0   0     0   0   0     0   0   0     0   0   0     0   0   0     0   0   0     0   0   0     0   0   0     0   0   0     0   0   0     0   0   0     0   0   0     0   0   0     0   0   2     0   2   2     0   2   2     0   2   2     0   0   2     0   0   2     0   0   2     0   0   2     0   0   0     0   0   0     0   0   0     0   2   0     0   0   0     2   0   0     0   0   0     2   0   0     2   0   0     0   0   0     0   0   0     0   0   0     0   0   0     0   0   0     0   0   0     0   0   0     0   0   0     0   0   0     0   0   0     0   0   0     0   0   0     0   0   0     0   0   0     0   0   0     0   0   0     0   0   0     0   0   0     0   0   0     0   0   0     2   0   0     0   0   0     0   0   0     0   0   0     0   0   0     0   0   0     0   0   0     0   0   0     0   0   0     0   0   0     0   0   0     0   0   0     0   0   0     0   0   0     0   0   0     0   0   0     0   0   0     0   0   0     0   0   0     0   0   0     0   0   0     0   0   0     0   0   0     0   0   0     0   0   0     0   0   0     0   0   0     0   0   0     0   0   0     0   0   0     0   0   0     0   0   0     0   0   0     0   0   0     0   0   0     0   0   0     0   0   0     0   0   0     0   0   0     0   0   0     0   0   0     0   0   0     0   0   0     0   0   0     0   0   0     0   0   0     0   0   0     0   0   0     0   0   0     0   0   0     0   0   0     0   0   0     0   0   0     0   0   0     0   0   0     0   0   0     0   0   0     0   0   0     0   0   0     0   0   0     0   0   0     0   0   0     0   0   0     0   0   0     0   0   0     0   0   0     0   0   0     0   0   0     0   0   0     0   0   0     0   0   0     0   0   0
  6   6   6     0   0   0     0   0   0     0   0   0     0   0   0     0   0   0     0   0   0     0   0   0     0   0   0     0   0   0     0   0   0     0   0   0     0   0   0     0   0   0     0   0   0     0   0   0     0   0   0     0   0   0     0   0   0     0   0   0     0   0   0     0   0   0     0   0   0     0   0   0     0   0   0     0   0   0     0   0   0     0   4   4     2   2   2     0   0   0     0   0   0     0   0   0     0   0   0     0   0   0     0   0   0     0   0   0     0   0   0     0   0   0     0   0   0     0   0   0     0   0   0     0   0   0     0   0   0     0   0   0     0   0   0     0   0   0     0   0   0     0   0   0     0   0   0     0   0   0     0   0   0     0   0   0     0   0   0     0   0   0     0   0   0     0   0   0     0   0   0     0   0   0     0   0   0     0   0   0     0   0   0     0   0   0     0   0   0     0   0   0     0   0   0     0   0   0     0   0   0     0   0   0     0   0   0     0   0   0     0   0   0     0   0   0     0   0   0     0   0   0     0   0   0     0   0   0     0   0   0     0   0   0     0   0   0     0   0   0     0   0   0     0   0   0     0   0   0     0   0   0     0   0   0     0   0   0     0   0   0     0   0   0     0   0   0     0   0   0     0   0   0     0   0   0     0   0   0     0   0   0     0   0   0     0   0   0     0   0   0     0   0   0     0   0   0     0   0   0     0   0   0     0   0   0     0   0   0     0   2   0     0   2   0     0   0   0     0   0   0     2   0   0     0   0   0     0   0   0     0   0   0     0   0   0     0   0   0     0   0   0     0   0   0     0   0   0     0   0   0     0   0   0     0   0   0     0   0   0     0   0   0     0   0   0     0   0   0     0   0   0     0   0   0     0   0   0     0   0   0     0   0   2     0   0   2     0   0   0     0   0   0     0   0   0     0   0   0     0   0   0     0   0   0     0   0   0     0   0   0     0   0   0     0   0   0     0   0   0     0   0   0     0   0   0     0   0   0     0   0   0     0   0   0     0   0   0     0   0   0     0   0   0     0   0   0     0   0   0     0   0   0     0   0   0     0   0   0     0   0   0     0   0   0     0   0   0     0   0   0     0   0   0     0   0   0     0   0   0     0   0   0     0   0   0     0   0   0     0   0   0     0   0   0     0   0   0     0   0   0     0   0   0     0   0   0     0   0   0     0   0   0     0   0   0     0   0   0     0   0   0     0   0   0     0   0   0     0   0   0     0   0   0     0   0   0     0   0   0     0   0   0     0   0   0     0   0   0     0   0   0     0   0   0     0   0   0     0   0   0     0   0   0     0   0   0     0   0   0     0   0   0     0   0   0     0   0   0     0   0   0     0   0   0     0   0   0     0   0   0     0   0   0     0   0   0     0   0   0
  6   6   6     0   0   0     0   0   0     0   0   0     0   0   0     0   0   0     0   0   0     0   0   0     0   0   0     0   0   0     0   0   0     0   0   0     0   0   0     0   0   0     0   0   0     0   0   0     0   0   0     0   0   0     0   0   0     0   0   0     0   0   0     0   0   0     0   0   0     0   0   0     0   0   0     0   0   0     0   0   0     4   0   0     0   0   0     0   0   0     0   0   0     0   0   0     0   0   0     0   0   0     0   0   0     0   0   0     0   0   0     0   0   0     0   0   0     0   0   0     0   0   0     0   0   0     0   0   0     0   0   0     0   0   0     0   0   0     0   0   0     0   0   0     0   0   0     0   0   0     0   0   0     0   0   0     0   0   0     0   0   0     0   0   0     0   0   0     0   0   0     0   0   0     0   0   0     0   0   0     0   0   0     0   0   0     0   0   0     0   0   0     0   0   0     0   0   0     0   0   0     0   0   0     0   0   0     0   0   0     0   0   0     0   0   0     0   0   0     0   0   0     0   0   0     0   0   0     0   0   0     0   0   0     0   0   0     0   0   0     0   0   0     0   0   0     0   0   0     0   0   0     0   0   0     0   0   0     0   0   0     0   0   0     0   0   0     0   0   0     0   0   0     0   0   0     0   0   0     0   0   0     0   0   0     0   0   0     0   0   0     0   0   0     0   0   0     0   0   0     0   0   0     0   0   0     0   0   0     0   0   0     0   0   0     0   2   0     0   0   0     0   0   0     0   0   0     0   0   0     2   0   0     0   0   0     0   0   0     0   0   0     0   0   0     0   0   0     0   0   0     0   0   0     0   0   0     0   0   0     0   0   0     2   0   0     2   2   0     2   2   2     0   2   2     0   0   0     0   0   0     0   0   0     0   0   0     0   0   0     0   0   0     0   0   0     0   0   0     0   0   0     0   0   0     0   0   0     0   0   0     0   0   0     0   0   0     0   0   0     0   0   0     0   0   0     0   0   0     0   0   0     0   0   0     0   0   0     0   0   0     0   0   0     0   0   0     0   0   0     0   0   0     0   0   0     0   0   0     0   0   0     0   0   0     0   0   0     0   0   0     0   0   0     0   0   0     0   0   0     0   0   0     0   0   0     0   0   0     0   0   0     0   0   0     0   0   0     0   0   0     0   0   0     0   0   0     0   0   0     0   0   0     0   0   0     0   0   0     0   0   0     0   0   0     0   0   0     0   0   0     0   0   0     0   0   0     0   0   0     0   0   0     0   0   0     0   0   0     0   0   0     0   0   0     0   0   0     0   0   0     0   0   0     0   0   0     0   0   0     0   0   0     0   0   0     0   0   0     0   0   0     0   0   0     0   0   0     0   0   0     0   0   0     0   0   0     0   0   0
  0   0   0     0   0   0     0   0   0     0   0   0     0   0   0     0   0   0     0   0   0     0   0   0     0   0   0     0   0   0     0   0   0     0   0   0     0   0   0     0   0   0     0   0   0     0   0   0     0   0   0     0   0   0     0   0   0     0   0   0     0   0   0     0   0   0     0   0   0     0   0   0     0   0   0     0   0   0     0   0   0     4   4   4     2   2   2     0   0   0     0   0   0     0   0   0     0   0   0     0   0   0     0   0   0     0   0   0     0   0   0     0   0   0     0   0   0     0   0   0     0   0   0     0   0   0     0   0   0     0   0   0     0   0   0     0   0   0     0   0   0     0   0   0     0   0   0     0   0   0     0   0   0     0   0   0     0   0   0     0   0   0     0   0   0     0   0   0     0   0   0     0   0   0     0   0   0     0   0   0     0   0   0     0   0   0     0   0   0     0   0   0     0   0   0     0   0   0     0   0   0     0   0   0     0   0   0     0   0   0     0   0   0     0   0   0     0   0   0     0   0   0     0   0   0     0   0   0     0   0   0     0   0   0     0   0   0     0   0   0     0   0   0     0   0   0     0   0   0     0   0   0     0   0   0     0   0   0     0   0   0     0   0   0     0   0   0     0   0   0     0   0   0     0   0   0     0   0   0     0   0   0     0   0   0     0   0   0     0   0   0     0   0   0     0   0   0     0   0   0     0   0   0     0   0   0     0   0   2     0   0   0     0   0   0     0   2   0     0   0   0     2   0   0     2   0   0     2   0   0     2   0   0     0   0   0     0   0   0     0   0   0     0   0   0     0   0   0     0   0   0     0   0   0     0   0   0     0   0   0     0   0   0     2   0   0     2   2   0     2   2   2     2   2   2     0   2   2     0   0   0     0   0   0     0   0   0     0   0   0     0   0   0     0   0   0     0   0   0     0   0   0     0   0   0     0   0   0     0   0   0     0   0   0     0   0   0     0   0   0     0   0   0     0   0   0     0   0   0     0   0   0     0   0   0     0   0   0     0   0   0     0   0   0     0   0   0     0   0   0     0   0   0     0   0   0     0   0   0     0   0   0     0   0   0     0   0   0     0   0   0     0   0   0     0   0   0     0   0   0     0   0   0     0   0   0     0   0   0     0   0   0     0   0   0     0   0   0     0   0   0     0   0   0     0   0   0     0   0   0     0   0   0     0   0   0     0   0   0     0   0   0     0   0   0     0   0   0     0   0   0     0   0   0     0   0   0     0   0   0     0   0   0     0   0   0     0   0   0     0   0   0     0   0   0     0   0   0     0   0   0     0   0   0     0   0   0     0   0   0     0   0   0     0   0   0     0   0   0     0   0   0     0   0   0     0   0   0     0   0   0     0   0   0     0   0   0     6   6   6
